(1001)
(Machine)
(  vendor: AliExpress)
(  description: Gold CNC Machine)
(T1  D=3.175 CR=0 - ZMIN=-1.3 - flat end mill)
G90 G94
G17
G21

(2D Contour4)
S11000 M3
G54
G0 X35.8 Y-1.371
Z15
Z5
G1 Z1 F333.3
Z-0.983
X35.792 Y-1.372 Z-1.053 F381
X35.769 Y-1.377 Z-1.12
X35.732 Y-1.384 Z-1.18
X35.682 Y-1.393 Z-1.231
X35.623 Y-1.405 Z-1.269
X35.557 Y-1.417 Z-1.292
X35.488 Y-1.431 Z-1.3
X35.176 Y-1.49
G3 X34.924 Y-1.862 I0.06 J-0.312
G1 X35.761 Y-6.216
Y-6.218
X36.176 Y-8.385
Y-8.386
X36.586 Y-10.538
Y-10.539
X36.989 Y-12.668
Y-12.67
X37.384 Y-14.769
Y-14.771
X37.578 Y-15.807
Y-15.809
X37.769 Y-16.835
Y-16.837
X37.957 Y-17.852
Y-17.854
X38.141 Y-18.858
X38.142 Y-18.86
X38.323 Y-19.853
Y-19.855
X38.5 Y-20.834
Y-20.836
X38.674 Y-21.802
Y-21.804
X38.843 Y-22.756
Y-22.759
X39.008 Y-23.695
Y-23.698
X39.168 Y-24.618
X39.169 Y-24.622
X39.323 Y-25.526
X39.324 Y-25.53
X39.473 Y-26.417
X39.474 Y-26.421
X39.618 Y-27.291
X39.619 Y-27.296
X39.758 Y-28.147
Y-28.152
X39.891 Y-28.985
X39.892 Y-28.991
X40.019 Y-29.805
X40.02 Y-29.811
X40.14 Y-30.606
X40.141 Y-30.613
X40.255 Y-31.388
X40.256 Y-31.395
X40.363 Y-32.15
X40.364 Y-32.158
X40.464 Y-32.892
X40.465 Y-32.901
X40.558 Y-33.614
X40.559 Y-33.624
X40.645 Y-34.315
X40.646 Y-34.327
X40.724 Y-34.997
X40.726 Y-35.009
X40.796 Y-35.657
X40.797 Y-35.671
X40.86 Y-36.297
X40.861 Y-36.313
X40.915 Y-36.917
X40.917 Y-36.934
X40.963 Y-37.517
X40.964 Y-37.536
X41.001 Y-38.096
X41.002 Y-38.117
X41.031 Y-38.655
X41.032 Y-38.679
X41.052 Y-39.195
X41.053 Y-39.221
X41.063 Y-39.715
X41.064 Y-39.744
X41.065 Y-40.217
Y-40.25
X41.057 Y-40.701
X41.056 Y-40.737
X41.039 Y-41.167
X41.037 Y-41.207
X41.01 Y-41.616
X41.007 Y-41.661
X40.97 Y-42.05
X40.965 Y-42.1
X40.918 Y-42.469
X40.911 Y-42.522
X40.855 Y-42.872
X40.844 Y-42.932
X40.778 Y-43.262
X40.763 Y-43.327
X40.687 Y-43.64
X40.668 Y-43.71
X40.582 Y-44.005
X40.558 Y-44.08
X40.462 Y-44.358
X40.432 Y-44.437
X40.325 Y-44.699
X40.288 Y-44.781
X40.171 Y-45.028
X40.128 Y-45.112
X40 Y-45.343
X39.95 Y-45.428
X39.812 Y-45.645
X39.756 Y-45.728
X39.607 Y-45.932
X39.545 Y-46.013
X39.386 Y-46.205
X39.319 Y-46.28
X39.149 Y-46.46
X39.079 Y-46.53
X38.899 Y-46.699
X38.827 Y-46.762
X38.636 Y-46.92
X38.565 Y-46.976
X38.364 Y-47.124
X38.294 Y-47.173
X38.082 Y-47.313
X38.014 Y-47.355
X37.791 Y-47.486
X37.726 Y-47.522
X37.492 Y-47.645
X37.432 Y-47.675
X37.188 Y-47.791
X37.131 Y-47.817
X36.876 Y-47.925
X36.823 Y-47.946
X36.558 Y-48.049
X36.51 Y-48.066
X36.233 Y-48.162
X36.189 Y-48.177
X35.902 Y-48.268
X35.862 Y-48.28
X35.564 Y-48.365
X35.528 Y-48.375
X35.22 Y-48.455
X35.186 Y-48.464
X34.867 Y-48.54
X34.837 Y-48.547
X34.508 Y-48.618
X34.481 Y-48.624
X34.141 Y-48.692
X34.116 Y-48.696
X33.765 Y-48.761
X33.743 Y-48.764
X33.382 Y-48.825
X33.362 Y-48.828
X32.99 Y-48.886
X32.972 Y-48.889
X32.59 Y-48.944
X32.573 Y-48.946
X32.181 Y-48.998
X32.167 Y-49
X31.764 Y-49.05
X31.75 Y-49.051
X31.337 Y-49.099
X31.325 Y-49.1
X30.901 Y-49.146
X30.89 Y-49.147
X30.456 Y-49.19
X30.447 Y-49.191
X30.003 Y-49.233
X29.994 Y-49.234
X29.539 Y-49.274
X29.532 Y-49.275
X29.067 Y-49.314
X29.061 Y-49.315
X28.586 Y-49.353
X28.579
X28.094 Y-49.39
X28.089
X27.594 Y-49.426
X27.587
X26.567 Y-49.495
X26.559 Y-49.496
X25.499 Y-49.562
X25.493
X24.394 Y-49.626
X24.389 Y-49.627
X23.251 Y-49.689
X23.246
X22.071 Y-49.749
X22.066 Y-49.75
X20.853 Y-49.809
X20.849
X19.597 Y-49.866
X19.593
X18.305 Y-49.922
X18.301
X16.976 Y-49.976
X16.972 Y-49.977
X15.61 Y-50.028
X15.606
X14.209 Y-50.078
X14.204
X12.771 Y-50.124
X12.766 Y-50.125
X11.298 Y-50.168
X11.293
X9.789 Y-50.208
X9.784
X8.246 Y-50.244
X8.241
X6.667 Y-50.275
X6.662
X5.055 Y-50.302
X5.05 Y-50.303
X3.408 Y-50.325
X3.403
X1.727 Y-50.342
X1.722
X0.011 Y-50.355
X-0.011
X-1.722 Y-50.342
X-1.727
X-3.403 Y-50.325
X-3.408
X-5.05 Y-50.303
X-5.055 Y-50.302
X-6.662 Y-50.275
X-6.667
X-8.241 Y-50.244
X-8.246
X-9.784 Y-50.208
X-9.789
X-11.293 Y-50.168
X-11.298
X-12.766 Y-50.125
X-12.771 Y-50.124
X-14.204 Y-50.078
X-14.209
X-15.606 Y-50.028
X-15.61
X-16.972 Y-49.977
X-16.976 Y-49.976
X-18.301 Y-49.922
X-18.305
X-19.593 Y-49.866
X-19.597
X-20.849 Y-49.809
X-20.853
X-22.066 Y-49.75
X-22.071 Y-49.749
X-23.246 Y-49.689
X-23.251
X-24.389 Y-49.627
X-24.394 Y-49.626
X-25.493 Y-49.562
X-25.499
X-26.559 Y-49.496
X-26.567 Y-49.495
X-27.587 Y-49.426
X-27.594
X-28.089 Y-49.39
X-28.094
X-28.579 Y-49.353
X-28.586
X-29.061 Y-49.315
X-29.067 Y-49.314
X-29.532 Y-49.275
X-29.539 Y-49.274
X-29.994 Y-49.234
X-30.003 Y-49.233
X-30.447 Y-49.191
X-30.456 Y-49.19
X-30.89 Y-49.147
X-30.901 Y-49.146
X-31.325 Y-49.1
X-31.337 Y-49.099
X-31.75 Y-49.051
X-31.764 Y-49.05
X-32.167 Y-49
X-32.181 Y-48.998
X-32.573 Y-48.946
X-32.59 Y-48.944
X-32.972 Y-48.889
X-32.99 Y-48.886
X-33.362 Y-48.828
X-33.382 Y-48.825
X-33.743 Y-48.764
X-33.765 Y-48.761
X-34.116 Y-48.696
X-34.141 Y-48.692
X-34.481 Y-48.624
X-34.508 Y-48.618
X-34.837 Y-48.547
X-34.867 Y-48.54
X-35.186 Y-48.464
X-35.22 Y-48.455
X-35.528 Y-48.375
X-35.564 Y-48.365
X-35.862 Y-48.28
X-35.902 Y-48.268
X-36.189 Y-48.177
X-36.233 Y-48.162
X-36.51 Y-48.066
X-36.558 Y-48.049
X-36.823 Y-47.946
X-36.876 Y-47.925
X-37.131 Y-47.817
X-37.188 Y-47.791
X-37.432 Y-47.675
X-37.492 Y-47.645
X-37.726 Y-47.522
X-37.791 Y-47.486
X-38.014 Y-47.355
X-38.082 Y-47.313
X-38.294 Y-47.173
X-38.364 Y-47.124
X-38.565 Y-46.976
X-38.636 Y-46.92
X-38.827 Y-46.762
X-38.899 Y-46.699
X-39.079 Y-46.53
X-39.149 Y-46.46
X-39.319 Y-46.28
X-39.386 Y-46.205
X-39.545 Y-46.013
X-39.607 Y-45.932
X-39.756 Y-45.728
X-39.812 Y-45.645
X-39.95 Y-45.428
X-40 Y-45.343
X-40.128 Y-45.112
X-40.171 Y-45.028
X-40.288 Y-44.781
X-40.325 Y-44.699
X-40.432 Y-44.437
X-40.462 Y-44.358
X-40.558 Y-44.08
X-40.582 Y-44.005
X-40.668 Y-43.71
X-40.687 Y-43.64
X-40.763 Y-43.327
X-40.778 Y-43.262
X-40.844 Y-42.932
X-40.855 Y-42.872
X-40.911 Y-42.522
X-40.918 Y-42.469
X-40.965 Y-42.1
X-40.97 Y-42.05
X-41.007 Y-41.661
X-41.01 Y-41.616
X-41.037 Y-41.207
X-41.039 Y-41.167
X-41.056 Y-40.737
X-41.057 Y-40.701
X-41.065 Y-40.25
Y-40.217
X-41.064 Y-39.744
X-41.063 Y-39.715
X-41.053 Y-39.221
X-41.052 Y-39.195
X-41.032 Y-38.679
X-41.031 Y-38.655
X-41.002 Y-38.117
X-41.001 Y-38.096
X-40.964 Y-37.536
X-40.963 Y-37.517
X-40.917 Y-36.934
X-40.915 Y-36.917
X-40.861 Y-36.313
X-40.86 Y-36.297
X-40.797 Y-35.671
X-40.796 Y-35.657
X-40.726 Y-35.009
X-40.724 Y-34.997
X-40.646 Y-34.327
X-40.645 Y-34.315
X-40.559 Y-33.624
X-40.558 Y-33.614
X-40.465 Y-32.901
X-40.464 Y-32.892
X-40.364 Y-32.158
X-40.363 Y-32.15
X-40.256 Y-31.395
X-40.255 Y-31.388
X-40.141 Y-30.613
X-40.14 Y-30.606
X-40.02 Y-29.811
X-40.019 Y-29.805
X-39.892 Y-28.991
X-39.891 Y-28.985
X-39.758 Y-28.152
Y-28.147
X-39.619 Y-27.296
X-39.618 Y-27.291
X-39.474 Y-26.421
X-39.473 Y-26.417
X-39.324 Y-25.53
X-39.323 Y-25.526
X-39.169 Y-24.622
X-39.168 Y-24.618
X-39.008 Y-23.698
Y-23.695
X-38.843 Y-22.759
Y-22.756
X-38.674 Y-21.804
Y-21.802
X-38.5 Y-20.836
Y-20.834
X-38.323 Y-19.855
Y-19.853
X-38.142 Y-18.86
X-38.141 Y-18.858
X-37.957 Y-17.854
Y-17.852
X-37.769 Y-16.837
Y-16.835
X-37.578 Y-15.809
Y-15.807
X-37.384 Y-14.771
Y-14.769
X-36.989 Y-12.67
Y-12.668
X-36.586 Y-10.539
Y-10.538
X-36.176 Y-8.386
Y-8.385
X-35.761 Y-6.218
Y-6.216
X-34.924 Y-1.862
X-34.505 Y0.312
X-34.088 Y2.472
X-33.675 Y4.614
X-33.266 Y6.729
X-32.862 Y8.812
X-32.663 Y9.839
X-32.466 Y10.856
X-32.271 Y11.861
X-32.077 Y12.855
X-31.887 Y13.835
X-31.698 Y14.802
X-31.511 Y15.755
X-31.328 Y16.693
X-31.146 Y17.616
Y17.617
X-30.968 Y18.522
X-30.792 Y19.411
Y19.413
X-30.618 Y20.284
Y20.285
X-30.448 Y21.138
Y21.14
X-30.28 Y21.974
Y21.976
X-30.116 Y22.791
X-30.115 Y22.793
X-29.954 Y23.588
X-29.953 Y23.59
X-29.794 Y24.366
Y24.368
X-29.638 Y25.122
X-29.637 Y25.125
X-29.485 Y25.859
X-29.484 Y25.862
X-29.334 Y26.574
X-29.333 Y26.578
X-29.186 Y27.268
X-29.185 Y27.272
X-29.04 Y27.941
X-29.039 Y27.945
X-28.898 Y28.591
X-28.896 Y28.597
X-28.757 Y29.22
X-28.756 Y29.226
X-28.619 Y29.827
X-28.618 Y29.834
X-28.484 Y30.412
X-28.482 Y30.42
X-28.35 Y30.975
X-28.348 Y30.984
X-28.218 Y31.516
X-28.215 Y31.527
X-28.087 Y32.036
X-28.084 Y32.048
X-27.958 Y32.535
X-27.955 Y32.548
X-27.83 Y33.013
X-27.826 Y33.028
X-27.702 Y33.47
X-27.698 Y33.487
X-27.575 Y33.907
X-27.57 Y33.926
X-27.448 Y34.326
X-27.441 Y34.348
X-27.32 Y34.726
X-27.312 Y34.75
X-27.191 Y35.107
X-27.181 Y35.135
X-27.06 Y35.472
X-27.049 Y35.503
X-26.927 Y35.821
X-26.914 Y35.855
X-26.791 Y36.154
X-26.775 Y36.193
X-26.651 Y36.474
X-26.632 Y36.516
X-26.506 Y36.779
X-26.484 Y36.824
X-26.357 Y37.072
X-26.33 Y37.121
X-26.2 Y37.353
X-26.17 Y37.405
X-26.038 Y37.621
X-26.002 Y37.677
X-25.866 Y37.88
X-25.827 Y37.935
X-25.688 Y38.125
X-25.644 Y38.182
X-25.5 Y38.361
X-25.453 Y38.417
X-25.305 Y38.584
X-25.255 Y38.638
X-25.102 Y38.795
X-25.051 Y38.846
X-24.892 Y38.995
X-24.816 Y39.062
X-24.481 Y39.338
X-24.386 Y39.411
X-24.025 Y39.666
X-23.946 Y39.718
X-23.555 Y39.96
X-23.497 Y39.995
X-23.073 Y40.233
X-23.035 Y40.254
X-22.577 Y40.495
X-22.556 Y40.506
X-22.061 Y40.758
X-22.053 Y40.762
X-21.791 Y40.893
X-21.79 Y40.894
X-21.518 Y41.03
X-21.238 Y41.17
X-20.949 Y41.316
X-20.651 Y41.466
X-20.344 Y41.622
X-20.028 Y41.783
X-19.703 Y41.951
X-19.368 Y42.124
X-19.025 Y42.303
X-18.672 Y42.489
X-18.311 Y42.679
X-17.561 Y43.078
X-16.779 Y43.495
X-15.968 Y43.929
X-15.967 Y43.93
X-15.131 Y44.377
X-15.127 Y44.379
X-14.269 Y44.834
X-14.264 Y44.837
X-13.387 Y45.298
X-13.378 Y45.303
X-12.486 Y45.765
X-12.474 Y45.771
X-11.569 Y46.231
X-11.555 Y46.238
X-10.64 Y46.692
X-10.623 Y46.7
X-9.701 Y47.144
X-9.681 Y47.154
X-8.755 Y47.583
X-8.731 Y47.594
X-7.804 Y48.006
X-7.775 Y48.018
X-6.85 Y48.407
X-6.818 Y48.421
X-5.897 Y48.784
X-5.859 Y48.799
X-4.945 Y49.133
X-4.901 Y49.148
X-3.997 Y49.449
X-3.947 Y49.464
X-3.053 Y49.729
X-3.012 Y49.741
X-2.57 Y49.859
X-2.541 Y49.867
X-2.102 Y49.975
X-2.071 Y49.983
X-1.635 Y50.081
X-1.603 Y50.088
X-1.171 Y50.177
X-1.138 Y50.183
X-0.71 Y50.261
X-0.675 Y50.267
X-0.25 Y50.335
G2 X0.25 Y50.335 I0.25 J-1.568
G1 X0.675 Y50.267
X0.71 Y50.261
X1.138 Y50.183
X1.171 Y50.177
X1.603 Y50.088
X1.635 Y50.081
X2.071 Y49.983
X2.102 Y49.975
X2.541 Y49.867
X2.57 Y49.859
X3.012 Y49.741
X3.053 Y49.729
X3.947 Y49.464
X3.997 Y49.449
X4.901 Y49.148
X4.945 Y49.133
X5.859 Y48.799
X5.897 Y48.784
X6.818 Y48.421
X6.85 Y48.407
X7.775 Y48.018
X7.804 Y48.006
X8.731 Y47.594
X8.755 Y47.583
X9.681 Y47.154
X9.701 Y47.144
X10.623 Y46.7
X10.64 Y46.692
X11.555 Y46.238
X11.569 Y46.231
X12.474 Y45.771
X12.486 Y45.765
X13.378 Y45.303
X13.387 Y45.298
X14.264 Y44.837
X14.269 Y44.834
X15.127 Y44.379
X15.131 Y44.377
X15.967 Y43.93
X15.968 Y43.929
X16.779 Y43.495
X17.561 Y43.078
X18.311 Y42.679
X18.672 Y42.489
X19.025 Y42.303
X19.368 Y42.124
X19.703 Y41.951
X20.028 Y41.783
X20.344 Y41.622
X20.651 Y41.466
X20.949 Y41.316
X21.238 Y41.17
X21.518 Y41.03
X21.79 Y40.894
X21.791 Y40.893
X22.053 Y40.762
X22.061 Y40.758
X22.556 Y40.506
X22.577 Y40.495
X23.035 Y40.254
X23.073 Y40.233
X23.497 Y39.995
X23.555 Y39.96
X23.946 Y39.718
X24.025 Y39.666
X24.386 Y39.411
X24.481 Y39.338
X24.816 Y39.062
X24.892 Y38.995
X25.051 Y38.846
X25.102 Y38.795
X25.255 Y38.638
X25.305 Y38.584
X25.453 Y38.417
X25.5 Y38.361
X25.644 Y38.182
X25.688 Y38.125
X25.827 Y37.935
X25.866 Y37.88
X26.002 Y37.677
X26.038 Y37.621
X26.17 Y37.405
X26.2 Y37.353
X26.33 Y37.121
X26.357 Y37.072
X26.484 Y36.824
X26.506 Y36.779
X26.632 Y36.516
X26.651 Y36.474
X26.775 Y36.193
X26.791 Y36.154
X26.914 Y35.855
X26.927 Y35.821
X27.049 Y35.503
X27.06 Y35.472
X27.181 Y35.135
X27.191 Y35.107
X27.312 Y34.75
X27.32 Y34.726
X27.441 Y34.348
X27.448 Y34.326
X27.57 Y33.926
X27.575 Y33.907
X27.698 Y33.487
X27.702 Y33.47
X27.826 Y33.028
X27.83 Y33.013
X27.955 Y32.548
X27.958 Y32.535
X28.084 Y32.048
X28.087 Y32.036
X28.215 Y31.527
X28.218 Y31.516
X28.348 Y30.984
X28.35 Y30.975
X28.482 Y30.42
X28.484 Y30.412
X28.618 Y29.834
X28.619 Y29.827
X28.756 Y29.226
X28.757 Y29.22
X28.896 Y28.597
X28.898 Y28.591
X29.039 Y27.945
X29.04 Y27.941
X29.185 Y27.272
X29.186 Y27.268
X29.333 Y26.578
X29.334 Y26.574
X29.484 Y25.862
X29.485 Y25.859
X29.637 Y25.125
X29.638 Y25.122
X29.794 Y24.368
Y24.366
X29.953 Y23.59
X29.954 Y23.588
X30.115 Y22.793
X30.116 Y22.791
X30.28 Y21.976
Y21.974
X30.448 Y21.14
Y21.138
X30.618 Y20.285
Y20.284
X30.792 Y19.413
Y19.411
X30.968 Y18.523
X31.146 Y17.617
Y17.616
X31.328 Y16.694
X31.511 Y15.756
X31.698 Y14.803
X31.886 Y13.836
X32.077 Y12.855
X32.271 Y11.862
X32.466 Y10.856
X32.663 Y9.84
X32.862 Y8.812
X33.266 Y6.73
X33.675 Y4.614
X34.088 Y2.473
X34.505 Y0.312
X34.924 Y-1.861
Y-1.862
X35.302 Y-3.826
G3 X35.673 Y-4.078 I0.312 J0.06
G1 X35.985 Y-4.018
X36.055 Y-4.005 Z-1.292
X36.12 Y-3.992 Z-1.269
X36.18 Y-3.981 Z-1.231
X36.229 Y-3.971 Z-1.18
X36.266 Y-3.964 Z-1.12
X36.289 Y-3.96 Z-1.053
X36.297 Y-3.958 Z-0.983
G0 Z5
X49.2 Y1.371
G1 Z1 F333.3
Z-0.983
X49.208 Y1.372 Z-1.053 F381
X49.231 Y1.377 Z-1.12
X49.268 Y1.384 Z-1.18
X49.318 Y1.393 Z-1.231
X49.377 Y1.405 Z-1.269
X49.443 Y1.417 Z-1.292
X49.512 Y1.431 Z-1.3
X49.824 Y1.49
G3 X50.076 Y1.862 I-0.06 J0.312
G1 X49.239 Y6.216
Y6.218
X48.824 Y8.385
Y8.386
X48.414 Y10.538
Y10.539
X48.011 Y12.668
Y12.67
X47.616 Y14.769
Y14.771
X47.422 Y15.807
Y15.809
X47.231 Y16.835
Y16.837
X47.043 Y17.852
Y17.854
X46.859 Y18.858
X46.858 Y18.86
X46.677 Y19.853
Y19.855
X46.5 Y20.834
Y20.836
X46.326 Y21.802
Y21.804
X46.157 Y22.756
Y22.759
X45.992 Y23.695
Y23.698
X45.832 Y24.618
X45.831 Y24.622
X45.677 Y25.526
X45.676 Y25.53
X45.527 Y26.417
X45.526 Y26.421
X45.382 Y27.291
X45.381 Y27.296
X45.242 Y28.147
Y28.152
X45.109 Y28.985
X45.108 Y28.991
X44.981 Y29.805
X44.98 Y29.811
X44.86 Y30.606
X44.859 Y30.613
X44.745 Y31.388
X44.744 Y31.395
X44.637 Y32.15
X44.636 Y32.158
X44.536 Y32.892
X44.535 Y32.901
X44.442 Y33.614
X44.441 Y33.624
X44.355 Y34.315
X44.354 Y34.327
X44.276 Y34.997
X44.274 Y35.009
X44.204 Y35.657
X44.203 Y35.671
X44.14 Y36.297
X44.139 Y36.313
X44.085 Y36.917
X44.083 Y36.934
X44.037 Y37.517
X44.036 Y37.536
X43.999 Y38.096
X43.998 Y38.117
X43.969 Y38.655
X43.968 Y38.679
X43.948 Y39.195
X43.947 Y39.221
X43.937 Y39.715
X43.936 Y39.744
X43.935 Y40.217
Y40.25
X43.943 Y40.701
X43.944 Y40.737
X43.961 Y41.167
X43.963 Y41.207
X43.99 Y41.616
X43.993 Y41.661
X44.03 Y42.05
X44.035 Y42.1
X44.082 Y42.469
X44.089 Y42.522
X44.145 Y42.872
X44.156 Y42.932
X44.222 Y43.262
X44.237 Y43.327
X44.313 Y43.64
X44.332 Y43.71
X44.418 Y44.005
X44.442 Y44.08
X44.538 Y44.358
X44.568 Y44.437
X44.675 Y44.699
X44.712 Y44.781
X44.829 Y45.028
X44.872 Y45.112
X45 Y45.343
X45.05 Y45.428
X45.188 Y45.645
X45.244 Y45.728
X45.393 Y45.932
X45.455 Y46.013
X45.614 Y46.205
X45.681 Y46.28
X45.851 Y46.46
X45.921 Y46.53
X46.101 Y46.699
X46.173 Y46.762
X46.364 Y46.92
X46.435 Y46.976
X46.636 Y47.124
X46.706 Y47.173
X46.918 Y47.313
X46.986 Y47.355
X47.209 Y47.486
X47.274 Y47.522
X47.508 Y47.645
X47.568 Y47.675
X47.812 Y47.791
X47.869 Y47.817
X48.124 Y47.925
X48.177 Y47.946
X48.442 Y48.049
X48.49 Y48.066
X48.767 Y48.162
X48.811 Y48.177
X49.098 Y48.268
X49.138 Y48.28
X49.436 Y48.365
X49.472 Y48.375
X49.78 Y48.455
X49.814 Y48.464
X50.133 Y48.54
X50.163 Y48.547
X50.492 Y48.618
X50.519 Y48.624
X50.859 Y48.692
X50.884 Y48.696
X51.235 Y48.761
X51.257 Y48.764
X51.618 Y48.825
X51.638 Y48.828
X52.01 Y48.886
X52.028 Y48.889
X52.41 Y48.944
X52.427 Y48.946
X52.819 Y48.998
X52.833 Y49
X53.236 Y49.05
X53.25 Y49.051
X53.663 Y49.099
X53.675 Y49.1
X54.099 Y49.146
X54.11 Y49.147
X54.544 Y49.19
X54.553 Y49.191
X54.997 Y49.233
X55.006 Y49.234
X55.461 Y49.274
X55.468 Y49.275
X55.933 Y49.314
X55.939 Y49.315
X56.414 Y49.353
X56.421
X56.906 Y49.39
X56.911
X57.406 Y49.426
X57.413
X58.433 Y49.495
X58.441 Y49.496
X59.501 Y49.562
X59.507
X60.606 Y49.626
X60.611 Y49.627
X61.749 Y49.689
X61.754
X62.929 Y49.749
X62.934 Y49.75
X64.147 Y49.809
X64.151
X65.403 Y49.866
X65.407
X66.695 Y49.922
X66.699
X68.024 Y49.976
X68.028 Y49.977
X69.39 Y50.028
X69.394
X70.791 Y50.078
X70.796
X72.229 Y50.124
X72.234 Y50.125
X73.702 Y50.168
X73.707
X75.211 Y50.208
X75.216
X76.754 Y50.244
X76.759
X78.333 Y50.275
X78.338
X79.945 Y50.302
X79.95 Y50.303
X81.592 Y50.325
X81.597
X83.273 Y50.342
X83.278
X84.989 Y50.355
X85.011
X86.722 Y50.342
X86.727
X88.403 Y50.325
X88.408
X90.05 Y50.303
X90.055 Y50.302
X91.662 Y50.275
X91.667
X93.241 Y50.244
X93.246
X94.784 Y50.208
X94.789
X96.293 Y50.168
X96.298
X97.766 Y50.125
X97.771 Y50.124
X99.204 Y50.078
X99.209
X100.606 Y50.028
X100.61
X101.971 Y49.977
X101.976 Y49.976
X103.301 Y49.922
X103.305
X104.594 Y49.866
X104.598
X105.849 Y49.809
X105.853
X107.066 Y49.75
X107.071 Y49.749
X108.247 Y49.689
X108.252
X109.389 Y49.627
X109.394 Y49.626
X110.493 Y49.562
X110.5
X111.559 Y49.496
X111.567 Y49.495
X112.587 Y49.426
X112.594
X113.089 Y49.39
X113.095
X113.579 Y49.353
X113.585
X114.06 Y49.315
X114.067 Y49.314
X114.532 Y49.275
X114.54 Y49.274
X114.994 Y49.234
X115.002 Y49.233
X115.447 Y49.191
X115.457 Y49.19
X115.891 Y49.147
X115.901 Y49.146
X116.325 Y49.1
X116.337 Y49.099
X116.75 Y49.051
X116.764 Y49.05
X117.167 Y49
X117.181 Y48.998
X117.574 Y48.946
X117.591 Y48.944
X117.973 Y48.889
X117.991 Y48.886
X118.362 Y48.828
X118.381 Y48.825
X118.743 Y48.764
X118.766 Y48.76
X119.116 Y48.696
X119.14 Y48.692
X119.48 Y48.624
X119.507 Y48.618
X119.837 Y48.547
X119.867 Y48.54
X120.186 Y48.464
X120.22 Y48.455
X120.528 Y48.375
X120.564 Y48.365
X120.862 Y48.28
X120.902 Y48.268
X121.189 Y48.177
X121.234 Y48.162
X121.51 Y48.066
X121.559 Y48.048
X121.824 Y47.946
X121.875 Y47.925
X122.13 Y47.817
X122.186 Y47.792
X122.431 Y47.676
X122.494 Y47.644
X122.727 Y47.521
X122.79 Y47.486
X123.013 Y47.355
X123.082 Y47.312
X123.294 Y47.173
X123.362 Y47.125
X123.564 Y46.977
X123.636 Y46.92
X123.827 Y46.762
X123.9 Y46.697
X124.08 Y46.528
X124.148 Y46.461
X124.318 Y46.281
X124.386 Y46.204
X124.545 Y46.012
X124.606 Y45.934
X124.755 Y45.73
X124.813 Y45.645
X124.951 Y45.427
X125 Y45.345
X125.128 Y45.113
X125.172 Y45.026
X125.289 Y44.78
X125.325 Y44.699
X125.432 Y44.437
X125.463 Y44.355
X125.559 Y44.077
X125.581 Y44.008
X125.668 Y43.713
X125.688 Y43.639
X125.764 Y43.326
X125.778 Y43.262
X125.844 Y42.931
X125.855 Y42.872
X125.911 Y42.522
X125.918 Y42.471
X125.965 Y42.102
X125.971 Y42.048
X126.007 Y41.659
X126.01 Y41.617
X126.037 Y41.208
X126.039 Y41.166
X126.056 Y40.736
X126.057 Y40.702
X126.065 Y40.25
Y40.216
X126.063 Y39.743
Y39.714
X126.052 Y39.22
X126.051 Y39.197
X126.032 Y38.681
X126.031 Y38.654
X126.002 Y38.116
X126.001 Y38.096
X125.964 Y37.536
X125.963 Y37.516
X125.917 Y36.934
X125.915 Y36.917
X125.861 Y36.313
X125.86 Y36.298
X125.798 Y35.672
X125.796 Y35.658
X125.726 Y35.01
X125.725 Y34.996
X125.647 Y34.327
X125.645 Y34.314
X125.559 Y33.623
X125.558 Y33.613
X125.465 Y32.901
X125.464 Y32.892
X125.364 Y32.158
X125.363 Y32.15
X125.256 Y31.395
X125.255 Y31.387
X125.141 Y30.612
X125.14 Y30.607
X125.02 Y29.812
X125.019 Y29.804
X124.892 Y28.99
X124.891 Y28.987
X124.759 Y28.154
X124.758 Y28.146
X124.619 Y27.295
X124.618 Y27.291
X124.474 Y26.421
X124.473 Y26.416
X124.323 Y25.529
Y25.527
X124.169 Y24.623
X124.168 Y24.618
X124.008 Y23.697
Y23.695
X123.844 Y22.759
X123.843 Y22.755
X123.674 Y21.804
Y21.802
X123.501 Y20.836
X123.5 Y20.834
X123.323 Y19.855
Y19.852
X123.142 Y18.86
Y18.859
X122.958 Y17.855
X122.957 Y17.852
X122.769 Y16.836
Y16.835
X122.578 Y15.808
X122.385 Y14.772
X122.384 Y14.769
X121.989 Y12.67
Y12.668
X121.586 Y10.539
X121.585 Y10.538
X121.175 Y8.386
X120.761 Y6.218
Y6.216
X119.924 Y1.862
X119.506 Y-0.311
X119.089 Y-2.472
X118.675 Y-4.614
X118.266 Y-6.729
X117.863 Y-8.812
X117.664 Y-9.839
X117.663 Y-9.841
X117.465 Y-10.857
X117.27 Y-11.861
X117.077 Y-12.855
X116.886 Y-13.835
X116.698 Y-14.801
Y-14.804
X116.511 Y-15.756
X116.328 Y-16.692
Y-16.694
X116.147 Y-17.616
X116.146 Y-17.617
X115.967 Y-18.523
X115.791 Y-19.412
X115.618 Y-20.284
Y-20.285
X115.448 Y-21.138
Y-21.139
X115.281 Y-21.973
X115.28 Y-21.977
X115.115 Y-22.792
X114.954 Y-23.587
X114.953 Y-23.591
X114.794 Y-24.366
Y-24.369
X114.638 Y-25.123
X114.637 Y-25.126
X114.484 Y-25.859
X114.483 Y-25.862
X114.333 Y-26.574
Y-26.578
X114.186 Y-27.268
X114.185 Y-27.271
X114.041 Y-27.94
X114.039 Y-27.946
X113.897 Y-28.592
X113.896 Y-28.597
X113.757 Y-29.22
X113.756 Y-29.227
X113.619 Y-29.828
X113.617 Y-29.833
X113.483 Y-30.411
X113.481 Y-30.42
X113.349 Y-30.975
X113.347 Y-30.984
X113.217 Y-31.517
X113.215 Y-31.524
X113.088 Y-32.034
X113.084 Y-32.05
X112.957 Y-32.537
X112.955 Y-32.546
X112.831 Y-33.01
X112.826 Y-33.03
X112.702 Y-33.472
X112.698 Y-33.486
X112.576 Y-33.906
X112.569 Y-33.928
X112.447 Y-34.327
X112.441 Y-34.347
X112.32 Y-34.725
X112.312 Y-34.75
X112.191 Y-35.107
X112.181 Y-35.134
X112.06 Y-35.472
X112.048 Y-35.504
X111.926 Y-35.822
X111.914 Y-35.853
X111.792 Y-36.152
X111.774 Y-36.194
X111.65 Y-36.475
X111.633 Y-36.514
X111.508 Y-36.778
X111.483 Y-36.828
X111.355 Y-37.075
X111.332 Y-37.118
X111.203 Y-37.349
X111.169 Y-37.407
X111.036 Y-37.624
X111.001 Y-37.678
X110.865 Y-37.881
X110.828 Y-37.934
X110.689 Y-38.124
X110.642 Y-38.185
X110.498 Y-38.363
X110.453 Y-38.417
X110.305 Y-38.584
X110.254 Y-38.638
X110.101 Y-38.796
X110.051 Y-38.845
X109.893 Y-38.994
X109.816 Y-39.061
X109.482 Y-39.338
X109.385 Y-39.412
X109.023 Y-39.667
X108.947 Y-39.717
X108.557 Y-39.96
X108.497 Y-39.995
X108.073 Y-40.233
X108.036 Y-40.253
X107.578 Y-40.495
X107.556 Y-40.506
X107.06 Y-40.758
X107.053 Y-40.762
X106.791 Y-40.893
X106.789 Y-40.894
X106.518 Y-41.03
X106.239 Y-41.17
X105.949 Y-41.315
X105.652 Y-41.466
X105.345 Y-41.622
X105.029 Y-41.783
X104.703 Y-41.951
X104.368 Y-42.124
X104.026 Y-42.303
X103.672 Y-42.489
X103.31 Y-42.68
X102.56 Y-43.078
X101.779 Y-43.495
X100.969 Y-43.929
X100.967 Y-43.93
X100.131 Y-44.377
X100.127 Y-44.379
X99.269 Y-44.834
X99.264 Y-44.837
X98.387 Y-45.298
X98.378 Y-45.303
X97.486 Y-45.765
X97.474 Y-45.771
X96.569 Y-46.231
X96.555 Y-46.238
X95.64 Y-46.692
X95.623 Y-46.7
X94.701 Y-47.144
X94.681 Y-47.154
X93.755 Y-47.583
X93.731 Y-47.594
X92.804 Y-48.006
X92.775 Y-48.018
X91.85 Y-48.407
X91.817 Y-48.421
X90.897 Y-48.784
X90.859 Y-48.799
X89.945 Y-49.133
X89.901 Y-49.148
X88.997 Y-49.449
X88.947 Y-49.464
X88.053 Y-49.729
X88.012 Y-49.741
X87.57 Y-49.859
X87.541 Y-49.867
X87.102 Y-49.975
X87.071 Y-49.983
X86.635 Y-50.081
X86.603 Y-50.088
X86.171 Y-50.177
X86.138 Y-50.183
X85.71 Y-50.261
X85.675 Y-50.267
X85.25 Y-50.335
G2 X84.75 Y-50.335 I-0.25 J1.568
G1 X84.325 Y-50.267
X84.29 Y-50.261
X83.862 Y-50.183
X83.829 Y-50.177
X83.397 Y-50.088
X83.365 Y-50.081
X82.929 Y-49.983
X82.898 Y-49.975
X82.459 Y-49.867
X82.43 Y-49.859
X81.988 Y-49.741
X81.947 Y-49.729
X81.053 Y-49.464
X81.003 Y-49.449
X80.099 Y-49.148
X80.055 Y-49.133
X79.141 Y-48.799
X79.103 Y-48.784
X78.183 Y-48.421
X78.15 Y-48.407
X77.225 Y-48.018
X77.196 Y-48.006
X76.269 Y-47.594
X76.245 Y-47.583
X75.319 Y-47.154
X75.299 Y-47.144
X74.377 Y-46.7
X74.36 Y-46.692
X73.445 Y-46.238
X73.431 Y-46.231
X72.526 Y-45.771
X72.514 Y-45.765
X71.622 Y-45.303
X71.613 Y-45.298
X70.736 Y-44.837
X70.731 Y-44.834
X69.873 Y-44.379
X69.869 Y-44.377
X69.033 Y-43.93
X69.032 Y-43.929
X68.221 Y-43.495
X67.439 Y-43.078
X66.689 Y-42.679
X66.328 Y-42.489
X65.975 Y-42.303
X65.632 Y-42.124
X65.297 Y-41.951
X64.972 Y-41.783
X64.656 Y-41.622
X64.349 Y-41.466
X64.051 Y-41.316
X63.762 Y-41.17
X63.482 Y-41.03
X63.21 Y-40.894
X63.209 Y-40.893
X62.947 Y-40.762
X62.939 Y-40.758
X62.444 Y-40.506
X62.423 Y-40.495
X61.965 Y-40.254
X61.927 Y-40.233
X61.503 Y-39.995
X61.445 Y-39.96
X61.054 Y-39.718
X60.975 Y-39.666
X60.614 Y-39.411
X60.519 Y-39.338
X60.184 Y-39.062
X60.108 Y-38.995
X59.949 Y-38.846
X59.898 Y-38.795
X59.745 Y-38.638
X59.695 Y-38.584
X59.547 Y-38.417
X59.5 Y-38.361
X59.356 Y-38.182
X59.312 Y-38.125
X59.173 Y-37.935
X59.134 Y-37.88
X58.998 Y-37.677
X58.962 Y-37.621
X58.83 Y-37.405
X58.8 Y-37.353
X58.67 Y-37.121
X58.643 Y-37.072
X58.516 Y-36.824
X58.494 Y-36.779
X58.368 Y-36.516
X58.349 Y-36.474
X58.225 Y-36.193
X58.209 Y-36.154
X58.086 Y-35.855
X58.073 Y-35.821
X57.951 Y-35.503
X57.94 Y-35.472
X57.819 Y-35.135
X57.809 Y-35.107
X57.688 Y-34.75
X57.68 Y-34.726
X57.559 Y-34.348
X57.552 Y-34.326
X57.43 Y-33.926
X57.425 Y-33.907
X57.302 Y-33.487
X57.298 Y-33.47
X57.174 Y-33.028
X57.17 Y-33.013
X57.045 Y-32.548
X57.042 Y-32.535
X56.916 Y-32.048
X56.913 Y-32.036
X56.785 Y-31.527
X56.782 Y-31.516
X56.652 Y-30.984
X56.65 Y-30.975
X56.518 Y-30.42
X56.516 Y-30.412
X56.382 Y-29.834
X56.381 Y-29.827
X56.244 Y-29.226
X56.243 Y-29.22
X56.104 Y-28.597
X56.102 Y-28.591
X55.961 Y-27.945
X55.96 Y-27.941
X55.815 Y-27.272
X55.814 Y-27.268
X55.667 Y-26.578
X55.666 Y-26.574
X55.516 Y-25.862
X55.515 Y-25.859
X55.363 Y-25.125
X55.362 Y-25.122
X55.206 Y-24.368
Y-24.366
X55.047 Y-23.59
X55.046 Y-23.588
X54.885 Y-22.793
X54.884 Y-22.791
X54.72 Y-21.976
Y-21.974
X54.552 Y-21.14
Y-21.138
X54.382 Y-20.285
Y-20.284
X54.208 Y-19.413
Y-19.411
X54.032 Y-18.523
X53.854 Y-17.617
Y-17.616
X53.672 Y-16.694
X53.489 Y-15.756
X53.302 Y-14.803
X53.114 Y-13.836
X52.923 Y-12.855
X52.729 Y-11.862
X52.534 Y-10.856
X52.337 Y-9.84
X52.138 Y-8.812
X51.734 Y-6.73
X51.325 Y-4.614
X50.912 Y-2.473
X50.495 Y-0.312
X50.076 Y1.861
Y1.862
X49.698 Y3.826
G3 X49.327 Y4.078 I-0.312 J-0.06
G1 X49.015 Y4.018
X48.945 Y4.005 Z-1.292
X48.88 Y3.992 Z-1.269
X48.82 Y3.981 Z-1.231
X48.771 Y3.971 Z-1.18
X48.734 Y3.964 Z-1.12
X48.711 Y3.96 Z-1.053
X48.703 Y3.958 Z-0.983
G0 Z5
X-125.782 Y28.524
G1 Z1 F333.3
Z-0.983
X-125.774 Y28.525 Z-1.053 F381
X-125.751 Y28.529 Z-1.12
X-125.714 Y28.535 Z-1.18
X-125.664 Y28.543 Z-1.231
X-125.604 Y28.552 Z-1.269
X-125.538 Y28.563 Z-1.292
X-125.468 Y28.574 Z-1.3
X-125.155 Y28.623
G3 X-124.891 Y28.987 I-0.05 J0.314
G1 X-124.892 Y28.99
X-125.019 Y29.804
X-125.02 Y29.812
X-125.14 Y30.607
X-125.141 Y30.612
X-125.255 Y31.387
X-125.256 Y31.395
X-125.363 Y32.15
X-125.364 Y32.158
X-125.464 Y32.892
X-125.465 Y32.901
X-125.558 Y33.613
X-125.559 Y33.623
X-125.645 Y34.314
X-125.647 Y34.327
X-125.725 Y34.996
X-125.726 Y35.01
X-125.796 Y35.658
X-125.798 Y35.672
X-125.86 Y36.298
X-125.861 Y36.313
X-125.915 Y36.917
X-125.917 Y36.934
X-125.963 Y37.516
X-125.964 Y37.536
X-126.001 Y38.096
X-126.002 Y38.116
X-126.031 Y38.654
X-126.032 Y38.681
X-126.051 Y39.197
X-126.052 Y39.22
X-126.063 Y39.714
Y39.743
X-126.065 Y40.216
Y40.25
X-126.057 Y40.702
X-126.056 Y40.736
X-126.039 Y41.166
X-126.037 Y41.208
X-126.01 Y41.617
X-126.007 Y41.659
X-125.971 Y42.048
X-125.965 Y42.102
X-125.918 Y42.471
X-125.911 Y42.522
X-125.855 Y42.872
X-125.844 Y42.931
X-125.778 Y43.262
X-125.764 Y43.326
X-125.688 Y43.639
X-125.668 Y43.713
X-125.581 Y44.008
X-125.559 Y44.077
X-125.463 Y44.355
X-125.432 Y44.437
X-125.325 Y44.699
X-125.289 Y44.78
X-125.172 Y45.026
X-125.128 Y45.113
X-125 Y45.345
X-124.951 Y45.427
X-124.813 Y45.645
X-124.755 Y45.73
X-124.606 Y45.934
X-124.545 Y46.012
X-124.386 Y46.204
X-124.318 Y46.281
X-124.148 Y46.461
X-124.08 Y46.528
X-123.9 Y46.697
X-123.827 Y46.762
X-123.636 Y46.92
X-123.564 Y46.977
X-123.362 Y47.125
X-123.294 Y47.173
X-123.082 Y47.312
X-123.013 Y47.355
X-122.79 Y47.486
X-122.727 Y47.521
X-122.494 Y47.644
X-122.431 Y47.676
X-122.186 Y47.792
X-122.13 Y47.817
X-121.875 Y47.925
X-121.824 Y47.946
X-121.559 Y48.048
X-121.51 Y48.066
X-121.234 Y48.162
X-121.189 Y48.177
X-120.902 Y48.268
X-120.862 Y48.28
X-120.564 Y48.365
X-120.528 Y48.375
X-120.22 Y48.455
X-120.186 Y48.464
X-119.867 Y48.54
X-119.837 Y48.547
X-119.507 Y48.618
X-119.48 Y48.624
X-119.14 Y48.692
X-119.116 Y48.696
X-118.766 Y48.76
X-118.743 Y48.764
X-118.381 Y48.825
X-118.362 Y48.828
X-117.991 Y48.886
X-117.973 Y48.889
X-117.591 Y48.944
X-117.574 Y48.946
X-117.181 Y48.998
X-117.167 Y49
X-116.764 Y49.05
X-116.75 Y49.051
X-116.337 Y49.099
X-116.325 Y49.1
X-115.901 Y49.146
X-115.891 Y49.147
X-115.457 Y49.19
X-115.447 Y49.191
X-115.002 Y49.233
X-114.994 Y49.234
X-114.54 Y49.274
X-114.532 Y49.275
X-114.067 Y49.314
X-114.06 Y49.315
X-113.585 Y49.353
X-113.579
X-113.095 Y49.39
X-113.089
X-112.594 Y49.426
X-112.587
X-111.567 Y49.495
X-111.559 Y49.496
X-110.5 Y49.562
X-110.493
X-109.394 Y49.626
X-109.389 Y49.627
X-108.252 Y49.689
X-108.247
X-107.071 Y49.749
X-107.066 Y49.75
X-105.853 Y49.809
X-105.849
X-104.598 Y49.866
X-104.594
X-103.305 Y49.922
X-103.301
X-101.976 Y49.976
X-101.971 Y49.977
X-100.61 Y50.028
X-100.606
X-99.209 Y50.078
X-99.204
X-97.771 Y50.124
X-97.766 Y50.125
X-96.298 Y50.168
X-96.293
X-94.789 Y50.208
X-94.784
X-93.246 Y50.244
X-93.241
X-91.667 Y50.275
X-91.662
X-90.055 Y50.302
X-90.05 Y50.303
X-88.408 Y50.325
X-88.403
X-86.727 Y50.342
X-86.722
X-85.011 Y50.355
X-84.989
X-83.278 Y50.342
X-83.273
X-81.597 Y50.325
X-81.592
X-79.95 Y50.303
X-79.945 Y50.302
X-78.338 Y50.275
X-78.333
X-76.759 Y50.244
X-76.754
X-75.216 Y50.208
X-75.211
X-73.707 Y50.168
X-73.702
X-72.234 Y50.125
X-72.229 Y50.124
X-70.796 Y50.078
X-70.791
X-69.394 Y50.028
X-69.39
X-68.028 Y49.977
X-68.024 Y49.976
X-66.699 Y49.922
X-66.695
X-65.407 Y49.866
X-65.403
X-64.151 Y49.809
X-64.147
X-62.934 Y49.75
X-62.929 Y49.749
X-61.754 Y49.689
X-61.749
X-60.611 Y49.627
X-60.606 Y49.626
X-59.507 Y49.562
X-59.501
X-58.441 Y49.496
X-58.433 Y49.495
X-57.413 Y49.426
X-57.406
X-56.911 Y49.39
X-56.906
X-56.421 Y49.353
X-56.414
X-55.939 Y49.315
X-55.933 Y49.314
X-55.468 Y49.275
X-55.461 Y49.274
X-55.006 Y49.234
X-54.997 Y49.233
X-54.553 Y49.191
X-54.544 Y49.19
X-54.11 Y49.147
X-54.099 Y49.146
X-53.675 Y49.1
X-53.663 Y49.099
X-53.25 Y49.051
X-53.236 Y49.05
X-52.833 Y49
X-52.819 Y48.998
X-52.427 Y48.946
X-52.41 Y48.944
X-52.028 Y48.889
X-52.01 Y48.886
X-51.638 Y48.828
X-51.618 Y48.825
X-51.257 Y48.764
X-51.235 Y48.761
X-50.884 Y48.696
X-50.859 Y48.692
X-50.519 Y48.624
X-50.492 Y48.618
X-50.163 Y48.547
X-50.133 Y48.54
X-49.814 Y48.464
X-49.78 Y48.455
X-49.472 Y48.375
X-49.436 Y48.365
X-49.138 Y48.28
X-49.098 Y48.268
X-48.811 Y48.177
X-48.767 Y48.162
X-48.49 Y48.066
X-48.442 Y48.049
X-48.177 Y47.946
X-48.124 Y47.925
X-47.869 Y47.817
X-47.812 Y47.791
X-47.568 Y47.675
X-47.508 Y47.645
X-47.274 Y47.522
X-47.209 Y47.486
X-46.986 Y47.355
X-46.918 Y47.313
X-46.706 Y47.173
X-46.636 Y47.124
X-46.435 Y46.976
X-46.364 Y46.92
X-46.173 Y46.762
X-46.101 Y46.699
X-45.921 Y46.53
X-45.851 Y46.46
X-45.681 Y46.28
X-45.614 Y46.205
X-45.455 Y46.013
X-45.393 Y45.932
X-45.244 Y45.728
X-45.188 Y45.645
X-45.05 Y45.428
X-45 Y45.343
X-44.872 Y45.112
X-44.829 Y45.028
X-44.712 Y44.781
X-44.675 Y44.699
X-44.568 Y44.437
X-44.538 Y44.358
X-44.442 Y44.08
X-44.418 Y44.005
X-44.332 Y43.71
X-44.313 Y43.64
X-44.237 Y43.327
X-44.222 Y43.262
X-44.156 Y42.932
X-44.145 Y42.872
X-44.089 Y42.522
X-44.082 Y42.469
X-44.035 Y42.1
X-44.03 Y42.05
X-43.993 Y41.661
X-43.99 Y41.616
X-43.963 Y41.207
X-43.961 Y41.167
X-43.944 Y40.737
X-43.943 Y40.701
X-43.935 Y40.25
Y40.217
X-43.936 Y39.744
X-43.937 Y39.715
X-43.947 Y39.221
X-43.948 Y39.195
X-43.968 Y38.679
X-43.969 Y38.655
X-43.998 Y38.117
X-43.999 Y38.096
X-44.036 Y37.536
X-44.037 Y37.517
X-44.083 Y36.934
X-44.085 Y36.917
X-44.139 Y36.313
X-44.14 Y36.297
X-44.203 Y35.671
X-44.204 Y35.657
X-44.274 Y35.009
X-44.276 Y34.997
X-44.354 Y34.327
X-44.355 Y34.315
X-44.441 Y33.624
X-44.442 Y33.614
X-44.535 Y32.901
X-44.536 Y32.892
X-44.636 Y32.158
X-44.637 Y32.15
X-44.744 Y31.395
X-44.745 Y31.388
X-44.859 Y30.613
X-44.86 Y30.606
X-44.98 Y29.811
X-44.981 Y29.805
X-45.108 Y28.991
X-45.109 Y28.985
X-45.242 Y28.152
Y28.147
X-45.381 Y27.296
X-45.382 Y27.291
X-45.526 Y26.421
X-45.527 Y26.417
X-45.676 Y25.53
X-45.677 Y25.526
X-45.831 Y24.622
X-45.832 Y24.618
X-45.992 Y23.698
Y23.695
X-46.157 Y22.759
Y22.756
X-46.326 Y21.804
Y21.802
X-46.5 Y20.836
Y20.834
X-46.677 Y19.855
Y19.853
X-46.858 Y18.86
X-46.859 Y18.858
X-47.043 Y17.854
Y17.852
X-47.231 Y16.837
Y16.835
X-47.422 Y15.809
Y15.807
X-47.616 Y14.771
Y14.769
X-48.011 Y12.67
Y12.668
X-48.414 Y10.539
Y10.538
X-48.824 Y8.386
Y8.385
X-49.239 Y6.218
Y6.216
X-50.076 Y1.862
X-50.495 Y-0.312
X-50.912 Y-2.472
X-51.325 Y-4.614
X-51.734 Y-6.729
X-52.138 Y-8.812
X-52.337 Y-9.839
X-52.534 Y-10.856
X-52.729 Y-11.861
X-52.923 Y-12.855
X-53.113 Y-13.835
X-53.302 Y-14.802
X-53.489 Y-15.755
X-53.672 Y-16.693
X-53.854 Y-17.616
Y-17.617
X-54.032 Y-18.522
X-54.208 Y-19.411
Y-19.413
X-54.382 Y-20.284
Y-20.285
X-54.552 Y-21.138
Y-21.14
X-54.72 Y-21.974
Y-21.976
X-54.884 Y-22.791
X-54.885 Y-22.793
X-55.046 Y-23.588
X-55.047 Y-23.59
X-55.206 Y-24.366
Y-24.368
X-55.362 Y-25.122
X-55.363 Y-25.125
X-55.515 Y-25.859
X-55.516 Y-25.862
X-55.666 Y-26.574
X-55.667 Y-26.578
X-55.814 Y-27.268
X-55.815 Y-27.272
X-55.96 Y-27.941
X-55.961 Y-27.945
X-56.102 Y-28.591
X-56.104 Y-28.597
X-56.243 Y-29.22
X-56.244 Y-29.226
X-56.381 Y-29.827
X-56.382 Y-29.834
X-56.516 Y-30.412
X-56.518 Y-30.42
X-56.65 Y-30.975
X-56.652 Y-30.984
X-56.782 Y-31.516
X-56.785 Y-31.527
X-56.913 Y-32.036
X-56.916 Y-32.048
X-57.042 Y-32.535
X-57.045 Y-32.548
X-57.17 Y-33.013
X-57.174 Y-33.028
X-57.298 Y-33.47
X-57.302 Y-33.487
X-57.425 Y-33.907
X-57.43 Y-33.926
X-57.552 Y-34.326
X-57.559 Y-34.348
X-57.68 Y-34.726
X-57.688 Y-34.75
X-57.809 Y-35.107
X-57.819 Y-35.135
X-57.94 Y-35.472
X-57.951 Y-35.503
X-58.073 Y-35.821
X-58.086 Y-35.855
X-58.209 Y-36.154
X-58.225 Y-36.193
X-58.349 Y-36.474
X-58.368 Y-36.516
X-58.494 Y-36.779
X-58.516 Y-36.824
X-58.643 Y-37.072
X-58.67 Y-37.121
X-58.8 Y-37.353
X-58.83 Y-37.405
X-58.962 Y-37.621
X-58.998 Y-37.677
X-59.134 Y-37.88
X-59.173 Y-37.935
X-59.312 Y-38.125
X-59.356 Y-38.182
X-59.5 Y-38.361
X-59.547 Y-38.417
X-59.695 Y-38.584
X-59.745 Y-38.638
X-59.898 Y-38.795
X-59.949 Y-38.846
X-60.108 Y-38.995
X-60.184 Y-39.062
X-60.519 Y-39.338
X-60.614 Y-39.411
X-60.975 Y-39.666
X-61.054 Y-39.718
X-61.445 Y-39.96
X-61.503 Y-39.995
X-61.927 Y-40.233
X-61.965 Y-40.254
X-62.423 Y-40.495
X-62.444 Y-40.506
X-62.939 Y-40.758
X-62.947 Y-40.762
X-63.209 Y-40.893
X-63.21 Y-40.894
X-63.482 Y-41.03
X-63.762 Y-41.17
X-64.051 Y-41.316
X-64.349 Y-41.466
X-64.656 Y-41.622
X-64.972 Y-41.783
X-65.297 Y-41.951
X-65.632 Y-42.124
X-65.975 Y-42.303
X-66.328 Y-42.489
X-66.689 Y-42.679
X-67.439 Y-43.078
X-68.221 Y-43.495
X-69.032 Y-43.929
X-69.033 Y-43.93
X-69.869 Y-44.377
X-69.873 Y-44.379
X-70.731 Y-44.834
X-70.736 Y-44.837
X-71.613 Y-45.298
X-71.622 Y-45.303
X-72.514 Y-45.765
X-72.526 Y-45.771
X-73.431 Y-46.231
X-73.445 Y-46.238
X-74.36 Y-46.692
X-74.377 Y-46.7
X-75.299 Y-47.144
X-75.319 Y-47.154
X-76.245 Y-47.583
X-76.269 Y-47.594
X-77.196 Y-48.006
X-77.225 Y-48.018
X-78.15 Y-48.407
X-78.183 Y-48.421
X-79.103 Y-48.784
X-79.141 Y-48.799
X-80.055 Y-49.133
X-80.099 Y-49.148
X-81.003 Y-49.449
X-81.053 Y-49.464
X-81.947 Y-49.729
X-81.988 Y-49.741
X-82.43 Y-49.859
X-82.459 Y-49.867
X-82.898 Y-49.975
X-82.929 Y-49.983
X-83.365 Y-50.081
X-83.397 Y-50.088
X-83.829 Y-50.177
X-83.862 Y-50.183
X-84.29 Y-50.261
X-84.325 Y-50.267
X-84.75 Y-50.335
G2 X-85.25 Y-50.335 I-0.25 J1.568
G1 X-85.675 Y-50.267
X-85.71 Y-50.261
X-86.138 Y-50.183
X-86.171 Y-50.177
X-86.603 Y-50.088
X-86.635 Y-50.081
X-87.071 Y-49.983
X-87.102 Y-49.975
X-87.541 Y-49.867
X-87.57 Y-49.859
X-88.012 Y-49.741
X-88.053 Y-49.729
X-88.947 Y-49.464
X-88.997 Y-49.449
X-89.901 Y-49.148
X-89.945 Y-49.133
X-90.859 Y-48.799
X-90.897 Y-48.784
X-91.817 Y-48.421
X-91.85 Y-48.407
X-92.775 Y-48.018
X-92.804 Y-48.006
X-93.731 Y-47.594
X-93.755 Y-47.583
X-94.681 Y-47.154
X-94.701 Y-47.144
X-95.623 Y-46.7
X-95.64 Y-46.692
X-96.555 Y-46.238
X-96.569 Y-46.231
X-97.474 Y-45.771
X-97.486 Y-45.765
X-98.378 Y-45.303
X-98.387 Y-45.298
X-99.264 Y-44.837
X-99.269 Y-44.834
X-100.127 Y-44.379
X-100.131 Y-44.377
X-100.967 Y-43.93
X-100.969 Y-43.929
X-101.779 Y-43.495
X-102.56 Y-43.078
X-103.31 Y-42.68
X-103.672 Y-42.489
X-104.026 Y-42.303
X-104.368 Y-42.124
X-104.703 Y-41.951
X-105.029 Y-41.783
X-105.345 Y-41.622
X-105.652 Y-41.466
X-105.949 Y-41.315
X-106.239 Y-41.17
X-106.518 Y-41.03
X-106.789 Y-40.894
X-106.791 Y-40.893
X-107.053 Y-40.762
X-107.06 Y-40.758
X-107.556 Y-40.506
X-107.578 Y-40.495
X-108.036 Y-40.253
X-108.073 Y-40.233
X-108.497 Y-39.995
X-108.557 Y-39.96
X-108.947 Y-39.717
X-109.023 Y-39.667
X-109.385 Y-39.412
X-109.482 Y-39.338
X-109.816 Y-39.061
X-109.893 Y-38.994
X-110.051 Y-38.845
X-110.101 Y-38.796
X-110.254 Y-38.638
X-110.305 Y-38.584
X-110.453 Y-38.417
X-110.498 Y-38.363
X-110.642 Y-38.185
X-110.689 Y-38.124
X-110.828 Y-37.934
X-110.865 Y-37.881
X-111.001 Y-37.678
X-111.036 Y-37.624
X-111.169 Y-37.407
X-111.203 Y-37.349
X-111.332 Y-37.118
X-111.355 Y-37.075
X-111.483 Y-36.828
X-111.508 Y-36.778
X-111.633 Y-36.514
X-111.65 Y-36.475
X-111.774 Y-36.194
X-111.792 Y-36.152
X-111.914 Y-35.853
X-111.926 Y-35.822
X-112.048 Y-35.504
X-112.06 Y-35.472
X-112.181 Y-35.134
X-112.191 Y-35.107
X-112.312 Y-34.75
X-112.32 Y-34.725
X-112.441 Y-34.347
X-112.447 Y-34.327
X-112.569 Y-33.928
X-112.576 Y-33.906
X-112.698 Y-33.486
X-112.702 Y-33.472
X-112.826 Y-33.03
X-112.831 Y-33.01
X-112.955 Y-32.546
X-112.957 Y-32.537
X-113.084 Y-32.05
X-113.088 Y-32.034
X-113.215 Y-31.524
X-113.217 Y-31.517
X-113.347 Y-30.984
X-113.349 Y-30.975
X-113.481 Y-30.42
X-113.483 Y-30.411
X-113.617 Y-29.833
X-113.619 Y-29.828
X-113.756 Y-29.227
X-113.757 Y-29.22
X-113.896 Y-28.597
X-113.897 Y-28.592
X-114.039 Y-27.946
X-114.041 Y-27.94
X-114.185 Y-27.271
X-114.186 Y-27.268
X-114.333 Y-26.578
Y-26.574
X-114.483 Y-25.862
X-114.484 Y-25.859
X-114.637 Y-25.126
X-114.638 Y-25.123
X-114.794 Y-24.369
Y-24.366
X-114.953 Y-23.591
X-114.954 Y-23.587
X-115.115 Y-22.792
X-115.28 Y-21.977
X-115.281 Y-21.973
X-115.448 Y-21.139
Y-21.138
X-115.618 Y-20.285
Y-20.284
X-115.791 Y-19.413
X-115.967 Y-18.523
X-116.146 Y-17.617
X-116.147 Y-17.616
X-116.328 Y-16.694
Y-16.692
X-116.511 Y-15.756
X-116.698 Y-14.804
Y-14.801
X-116.886 Y-13.835
X-117.077 Y-12.855
X-117.27 Y-11.862
X-117.465 Y-10.857
X-117.663 Y-9.841
X-117.664 Y-9.839
X-117.863 Y-8.812
X-118.266 Y-6.729
X-118.675 Y-4.614
X-119.089 Y-2.473
X-119.506 Y-0.312
X-119.924 Y1.862
X-120.761 Y6.216
Y6.218
X-121.175 Y8.385
X-121.585 Y10.538
X-121.586 Y10.539
X-121.989 Y12.668
Y12.67
X-122.384 Y14.769
X-122.385 Y14.772
X-122.578 Y15.808
X-122.769 Y16.835
Y16.836
X-122.957 Y17.852
X-122.958 Y17.855
X-123.142 Y18.859
Y18.86
X-123.323 Y19.852
Y19.855
X-123.5 Y20.834
X-123.501 Y20.836
X-123.674 Y21.802
Y21.804
X-123.843 Y22.755
X-123.844 Y22.759
X-124.008 Y23.695
Y23.697
X-124.168 Y24.618
X-124.169 Y24.623
X-124.323 Y25.527
Y25.529
X-124.473 Y26.416
X-124.474 Y26.421
X-124.618 Y27.291
X-124.619 Y27.295
X-124.758 Y28.146
X-124.759 Y28.154
X-124.891 Y28.987
X-124.892 Y28.99
X-125.019 Y29.804
X-125.02 Y29.812
X-125.14 Y30.607
X-125.141 Y30.612
X-125.192 Y30.964
G3 X-125.553 Y31.232 I-0.314 J-0.046
G1 X-125.867 Y31.185
X-125.937 Y31.175 Z-1.292
X-126.003 Y31.165 Z-1.269
X-126.063 Y31.157 Z-1.231
X-126.112 Y31.149 Z-1.18
X-126.15 Y31.144 Z-1.12
X-126.173 Y31.14 Z-1.053
X-126.181 Y31.139 Z-0.983
G0 Z15
M5
M30
