(1001)
(Machine)
(  vendor: AliExpress)
(  description: Gold CNC Machine)
(T1  D=3.175 CR=0 - ZMIN=-1 - flat end mill)
G90 G94
G17
G21

(2D Contour4)
S11000 M3
G54
G0 X35.8 Y-1.37
Z15
Z5
G1 Z1 F333.3
Z-0.683
X35.792 Y-1.371 Z-0.753 F762
X35.769 Y-1.376 Z-0.82
X35.732 Y-1.383 Z-0.88
X35.682 Y-1.392 Z-0.931
X35.623 Y-1.404 Z-0.969
X35.557 Y-1.416 Z-0.992
X35.488 Y-1.43 Z-1
X35.176 Y-1.489
G3 X34.924 Y-1.861 I0.06 J-0.312
G1 X35.761 Y-6.216
Y-6.218
X36.176 Y-8.385
Y-8.386
X36.586 Y-10.538
Y-10.539
X36.989 Y-12.668
Y-12.67
X37.384 Y-14.769
Y-14.771
X37.578 Y-15.807
Y-15.809
X37.769 Y-16.835
Y-16.837
X37.957 Y-17.852
Y-17.854
X38.141 Y-18.858
X38.142 Y-18.86
X38.323 Y-19.853
Y-19.855
X38.5 Y-20.834
Y-20.836
X38.674 Y-21.802
Y-21.804
X38.843 Y-22.756
Y-22.759
X39.008 Y-23.695
Y-23.698
X39.168 Y-24.618
X39.169 Y-24.622
X39.323 Y-25.526
X39.324 Y-25.53
X39.473 Y-26.417
X39.474 Y-26.421
X39.618 Y-27.291
X39.619 Y-27.296
X39.758 Y-28.147
Y-28.152
X39.891 Y-28.985
X39.892 Y-28.991
X40.019 Y-29.805
X40.02 Y-29.811
X40.14 Y-30.606
X40.141 Y-30.613
X40.255 Y-31.388
X40.256 Y-31.395
X40.363 Y-32.15
X40.364 Y-32.158
X40.464 Y-32.892
X40.465 Y-32.901
X40.558 Y-33.614
X40.559 Y-33.624
X40.645 Y-34.315
X40.646 Y-34.327
X40.724 Y-34.997
X40.726 Y-35.009
X40.796 Y-35.657
X40.797 Y-35.671
X40.86 Y-36.297
X40.861 Y-36.313
X40.915 Y-36.917
X40.917 Y-36.934
X40.963 Y-37.517
X40.964 Y-37.536
X41.001 Y-38.096
X41.002 Y-38.117
X41.031 Y-38.655
X41.032 Y-38.679
X41.052 Y-39.195
X41.053 Y-39.221
X41.063 Y-39.715
X41.064 Y-39.744
X41.065 Y-40.217
Y-40.25
X41.057 Y-40.701
X41.056 Y-40.737
X41.039 Y-41.167
X41.037 Y-41.207
X41.01 Y-41.616
X41.007 Y-41.661
X40.97 Y-42.05
X40.965 Y-42.1
X40.918 Y-42.469
X40.911 Y-42.522
X40.855 Y-42.872
X40.844 Y-42.932
X40.778 Y-43.262
X40.763 Y-43.327
X40.687 Y-43.64
X40.668 Y-43.71
X40.582 Y-44.005
X40.558 Y-44.08
X40.462 Y-44.358
X40.432 Y-44.437
X40.325 Y-44.699
X40.288 Y-44.781
X40.171 Y-45.028
X40.128 Y-45.112
X40 Y-45.343
X39.95 Y-45.428
X39.812 Y-45.645
X39.756 Y-45.728
X39.607 Y-45.932
X39.545 Y-46.013
X39.386 Y-46.205
X39.319 Y-46.28
X39.149 Y-46.46
X39.079 Y-46.53
X38.899 Y-46.699
X38.827 Y-46.762
X38.636 Y-46.92
X38.565 Y-46.976
X38.364 Y-47.124
X38.294 Y-47.173
X38.082 Y-47.313
X38.014 Y-47.355
X37.791 Y-47.486
X37.726 Y-47.522
X37.492 Y-47.645
X37.432 Y-47.675
X37.188 Y-47.791
X37.131 Y-47.817
X36.876 Y-47.925
X36.823 Y-47.946
X36.558 Y-48.049
X36.51 Y-48.066
X36.233 Y-48.162
X36.189 Y-48.177
X35.902 Y-48.268
X35.862 Y-48.28
X35.564 Y-48.365
X35.528 Y-48.375
X35.22 Y-48.455
X35.186 Y-48.464
X34.867 Y-48.54
X34.837 Y-48.547
X34.508 Y-48.618
X34.481 Y-48.624
X34.141 Y-48.692
X34.116 Y-48.696
X33.765 Y-48.761
X33.743 Y-48.764
X33.382 Y-48.825
X33.362 Y-48.828
X32.99 Y-48.886
X32.972 Y-48.889
X32.59 Y-48.944
X32.573 Y-48.946
X32.181 Y-48.998
X32.167 Y-49
X31.764 Y-49.05
X31.75 Y-49.051
X31.337 Y-49.099
X31.325 Y-49.1
X30.901 Y-49.146
X30.89 Y-49.147
X30.456 Y-49.19
X30.447 Y-49.191
X30.003 Y-49.233
X29.994 Y-49.234
X29.539 Y-49.274
X29.532 Y-49.275
X29.067 Y-49.314
X29.061 Y-49.315
X28.586 Y-49.353
X28.579
X28.094 Y-49.39
X28.089
X27.594 Y-49.426
X27.587
X26.567 Y-49.495
X26.559 Y-49.496
X25.499 Y-49.562
X25.493
X24.394 Y-49.626
X24.389 Y-49.627
X23.251 Y-49.689
X23.246
X22.071 Y-49.749
X22.066 Y-49.75
X20.853 Y-49.809
X20.849
X19.597 Y-49.866
X19.593
X18.305 Y-49.922
X18.301
X16.976 Y-49.976
X16.972 Y-49.977
X15.61 Y-50.028
X15.606
X14.209 Y-50.078
X14.204
X12.771 Y-50.124
X12.766 Y-50.125
X11.298 Y-50.168
X11.293
X9.789 Y-50.208
X9.784
X8.246 Y-50.244
X8.241
X6.667 Y-50.275
X6.662
X5.055 Y-50.302
X5.05 Y-50.303
X3.408 Y-50.325
X3.403
X1.727 Y-50.342
X1.722
X0.011 Y-50.355
X-0.011
X-1.722 Y-50.342
X-1.727
X-3.403 Y-50.325
X-3.408
X-5.05 Y-50.303
X-5.055 Y-50.302
X-6.662 Y-50.275
X-6.667
X-8.241 Y-50.244
X-8.246
X-9.784 Y-50.208
X-9.789
X-11.293 Y-50.168
X-11.298
X-12.766 Y-50.125
X-12.771 Y-50.124
X-14.204 Y-50.078
X-14.209
X-15.606 Y-50.028
X-15.61
X-16.972 Y-49.977
X-16.976 Y-49.976
X-18.301 Y-49.922
X-18.305
X-19.593 Y-49.866
X-19.597
X-20.849 Y-49.809
X-20.853
X-22.066 Y-49.75
X-22.071 Y-49.749
X-23.246 Y-49.689
X-23.251
X-24.389 Y-49.627
X-24.394 Y-49.626
X-25.493 Y-49.562
X-25.499
X-26.559 Y-49.496
X-26.567 Y-49.495
X-27.587 Y-49.426
X-27.594
X-28.089 Y-49.39
X-28.094
X-28.579 Y-49.353
X-28.586
X-29.061 Y-49.315
X-29.067 Y-49.314
X-29.532 Y-49.275
X-29.539 Y-49.274
X-29.994 Y-49.234
X-30.003 Y-49.233
X-30.447 Y-49.191
X-30.456 Y-49.19
X-30.89 Y-49.147
X-30.901 Y-49.146
X-31.325 Y-49.1
X-31.337 Y-49.099
X-31.75 Y-49.051
X-31.764 Y-49.05
X-32.167 Y-49
X-32.181 Y-48.998
X-32.573 Y-48.946
X-32.59 Y-48.944
X-32.972 Y-48.889
X-32.99 Y-48.886
X-33.362 Y-48.828
X-33.382 Y-48.825
X-33.743 Y-48.764
X-33.765 Y-48.761
X-34.116 Y-48.696
X-34.141 Y-48.692
X-34.481 Y-48.624
X-34.508 Y-48.618
X-34.837 Y-48.547
X-34.867 Y-48.54
X-35.186 Y-48.464
X-35.22 Y-48.455
X-35.528 Y-48.375
X-35.564 Y-48.365
X-35.862 Y-48.28
X-35.902 Y-48.268
X-36.189 Y-48.177
X-36.233 Y-48.162
X-36.51 Y-48.066
X-36.558 Y-48.049
X-36.823 Y-47.946
X-36.876 Y-47.925
X-37.131 Y-47.817
X-37.188 Y-47.791
X-37.432 Y-47.675
X-37.492 Y-47.645
X-37.726 Y-47.522
X-37.791 Y-47.486
X-38.014 Y-47.355
X-38.082 Y-47.313
X-38.294 Y-47.173
X-38.364 Y-47.124
X-38.565 Y-46.976
X-38.636 Y-46.92
X-38.827 Y-46.762
X-38.899 Y-46.699
X-39.079 Y-46.53
X-39.149 Y-46.46
X-39.319 Y-46.28
X-39.386 Y-46.205
X-39.545 Y-46.013
X-39.607 Y-45.932
X-39.756 Y-45.728
X-39.812 Y-45.645
X-39.95 Y-45.428
X-40 Y-45.343
X-40.128 Y-45.112
X-40.171 Y-45.028
X-40.288 Y-44.781
X-40.325 Y-44.699
X-40.432 Y-44.437
X-40.462 Y-44.358
X-40.558 Y-44.08
X-40.582 Y-44.005
X-40.668 Y-43.71
X-40.687 Y-43.64
X-40.763 Y-43.327
X-40.778 Y-43.262
X-40.844 Y-42.932
X-40.855 Y-42.872
X-40.911 Y-42.522
X-40.918 Y-42.469
X-40.965 Y-42.1
X-40.97 Y-42.05
X-41.007 Y-41.661
X-41.01 Y-41.616
X-41.037 Y-41.207
X-41.039 Y-41.167
X-41.056 Y-40.737
X-41.057 Y-40.701
X-41.065 Y-40.25
Y-40.217
X-41.064 Y-39.744
X-41.063 Y-39.715
X-41.053 Y-39.221
X-41.052 Y-39.195
X-41.032 Y-38.679
X-41.031 Y-38.655
X-41.002 Y-38.117
X-41.001 Y-38.096
X-40.964 Y-37.536
X-40.963 Y-37.517
X-40.917 Y-36.934
X-40.915 Y-36.917
X-40.861 Y-36.313
X-40.86 Y-36.297
X-40.797 Y-35.671
X-40.796 Y-35.657
X-40.726 Y-35.009
X-40.724 Y-34.997
X-40.646 Y-34.327
X-40.645 Y-34.315
X-40.559 Y-33.624
X-40.558 Y-33.614
X-40.465 Y-32.901
X-40.464 Y-32.892
X-40.364 Y-32.158
X-40.363 Y-32.15
X-40.256 Y-31.395
X-40.255 Y-31.388
X-40.141 Y-30.613
X-40.14 Y-30.606
X-40.02 Y-29.811
X-40.019 Y-29.805
X-39.892 Y-28.991
X-39.891 Y-28.985
X-39.758 Y-28.152
Y-28.147
X-39.619 Y-27.296
X-39.618 Y-27.291
X-39.474 Y-26.421
X-39.473 Y-26.417
X-39.324 Y-25.53
X-39.323 Y-25.526
X-39.169 Y-24.622
X-39.168 Y-24.618
X-39.008 Y-23.698
Y-23.695
X-38.843 Y-22.759
Y-22.756
X-38.674 Y-21.804
Y-21.802
X-38.5 Y-20.836
Y-20.834
X-38.323 Y-19.855
Y-19.853
X-38.142 Y-18.86
X-38.141 Y-18.858
X-37.957 Y-17.854
Y-17.852
X-37.769 Y-16.837
Y-16.835
X-37.578 Y-15.809
Y-15.807
X-37.384 Y-14.771
Y-14.769
X-36.989 Y-12.67
Y-12.668
X-36.586 Y-10.539
Y-10.538
X-36.176 Y-8.386
Y-8.385
X-35.761 Y-6.218
Y-6.216
X-34.924 Y-1.862
X-34.505 Y0.312
X-34.088 Y2.472
X-33.675 Y4.614
X-33.266 Y6.729
X-32.862 Y8.812
X-32.663 Y9.839
X-32.466 Y10.856
X-32.271 Y11.861
X-32.077 Y12.855
X-31.887 Y13.835
X-31.698 Y14.802
X-31.511 Y15.755
X-31.328 Y16.693
X-31.146 Y17.616
Y17.617
X-30.968 Y18.522
X-30.792 Y19.411
Y19.413
X-30.618 Y20.284
Y20.285
X-30.448 Y21.138
Y21.14
X-30.28 Y21.974
Y21.976
X-30.116 Y22.791
X-30.115 Y22.793
X-29.954 Y23.588
X-29.953 Y23.59
X-29.794 Y24.366
Y24.368
X-29.638 Y25.122
X-29.637 Y25.125
X-29.485 Y25.859
X-29.484 Y25.862
X-29.334 Y26.574
X-29.333 Y26.578
X-29.186 Y27.268
X-29.185 Y27.272
X-29.04 Y27.941
X-29.039 Y27.945
X-28.898 Y28.591
X-28.896 Y28.597
X-28.757 Y29.22
X-28.756 Y29.226
X-28.619 Y29.827
X-28.618 Y29.834
X-28.484 Y30.412
X-28.482 Y30.42
X-28.35 Y30.975
X-28.348 Y30.984
X-28.218 Y31.516
X-28.215 Y31.527
X-28.087 Y32.036
X-28.084 Y32.048
X-27.958 Y32.535
X-27.955 Y32.548
X-27.83 Y33.013
X-27.826 Y33.028
X-27.702 Y33.47
X-27.698 Y33.487
X-27.575 Y33.907
X-27.57 Y33.926
X-27.448 Y34.326
X-27.441 Y34.348
X-27.32 Y34.726
X-27.312 Y34.75
X-27.191 Y35.107
X-27.181 Y35.135
X-27.06 Y35.472
X-27.049 Y35.503
X-26.927 Y35.821
X-26.914 Y35.855
X-26.791 Y36.154
X-26.775 Y36.193
X-26.651 Y36.474
X-26.632 Y36.516
X-26.506 Y36.779
X-26.484 Y36.824
X-26.357 Y37.072
X-26.33 Y37.121
X-26.2 Y37.353
X-26.17 Y37.405
X-26.038 Y37.621
X-26.002 Y37.677
X-25.866 Y37.88
X-25.827 Y37.935
X-25.688 Y38.125
X-25.644 Y38.182
X-25.5 Y38.361
X-25.453 Y38.417
X-25.305 Y38.584
X-25.255 Y38.638
X-25.102 Y38.795
X-25.051 Y38.846
X-24.892 Y38.995
X-24.816 Y39.062
X-24.481 Y39.338
X-24.386 Y39.411
X-24.025 Y39.666
X-23.946 Y39.718
X-23.555 Y39.96
X-23.497 Y39.995
X-23.073 Y40.233
X-23.035 Y40.254
X-22.577 Y40.495
X-22.556 Y40.506
X-22.061 Y40.758
X-22.053 Y40.762
X-21.791 Y40.893
X-21.79 Y40.894
X-21.518 Y41.03
X-21.238 Y41.17
X-20.949 Y41.316
X-20.651 Y41.466
X-20.344 Y41.622
X-20.028 Y41.783
X-19.703 Y41.951
X-19.368 Y42.124
X-19.025 Y42.303
X-18.672 Y42.489
X-18.311 Y42.679
X-17.561 Y43.078
X-16.779 Y43.495
X-15.968 Y43.929
X-15.967 Y43.93
X-15.131 Y44.377
X-15.127 Y44.379
X-14.269 Y44.834
X-14.264 Y44.837
X-13.387 Y45.298
X-13.378 Y45.303
X-12.486 Y45.765
X-12.474 Y45.771
X-11.569 Y46.231
X-11.555 Y46.238
X-10.64 Y46.692
X-10.623 Y46.7
X-9.701 Y47.144
X-9.681 Y47.154
X-8.755 Y47.583
X-8.731 Y47.594
X-7.804 Y48.006
X-7.775 Y48.018
X-6.85 Y48.407
X-6.818 Y48.421
X-5.897 Y48.784
X-5.859 Y48.799
X-4.945 Y49.133
X-4.901 Y49.148
X-3.997 Y49.449
X-3.947 Y49.464
X-3.053 Y49.729
X-3.012 Y49.741
X-2.57 Y49.859
X-2.541 Y49.867
X-2.102 Y49.975
X-2.071 Y49.983
X-1.635 Y50.081
X-1.603 Y50.088
X-1.171 Y50.177
X-1.138 Y50.183
X-0.71 Y50.261
X-0.675 Y50.267
X-0.25 Y50.335
G2 X0.25 Y50.335 I0.25 J-1.568
G1 X0.675 Y50.267
X0.71 Y50.261
X1.138 Y50.183
X1.171 Y50.177
X1.603 Y50.088
X1.635 Y50.081
X2.071 Y49.983
X2.102 Y49.975
X2.541 Y49.867
X2.57 Y49.859
X3.012 Y49.741
X3.053 Y49.729
X3.947 Y49.464
X3.997 Y49.449
X4.901 Y49.148
X4.945 Y49.133
X5.859 Y48.799
X5.897 Y48.784
X6.818 Y48.421
X6.85 Y48.407
X7.775 Y48.018
X7.804 Y48.006
X8.731 Y47.594
X8.755 Y47.583
X9.681 Y47.154
X9.701 Y47.144
X10.623 Y46.7
X10.64 Y46.692
X11.555 Y46.238
X11.569 Y46.231
X12.474 Y45.771
X12.486 Y45.765
X13.378 Y45.303
X13.387 Y45.298
X14.264 Y44.837
X14.269 Y44.834
X15.127 Y44.379
X15.131 Y44.377
X15.967 Y43.93
X15.968 Y43.929
X16.779 Y43.495
X17.561 Y43.078
X18.311 Y42.679
X18.672 Y42.489
X19.025 Y42.303
X19.368 Y42.124
X19.703 Y41.951
X20.028 Y41.783
X20.344 Y41.622
X20.651 Y41.466
X20.949 Y41.316
X21.238 Y41.17
X21.518 Y41.03
X21.79 Y40.894
X21.791 Y40.893
X22.053 Y40.762
X22.061 Y40.758
X22.556 Y40.506
X22.577 Y40.495
X23.035 Y40.254
X23.073 Y40.233
X23.497 Y39.995
X23.555 Y39.96
X23.946 Y39.718
X24.025 Y39.666
X24.386 Y39.411
X24.481 Y39.338
X24.816 Y39.062
X24.892 Y38.995
X25.051 Y38.846
X25.102 Y38.795
X25.255 Y38.638
X25.305 Y38.584
X25.453 Y38.417
X25.5 Y38.361
X25.644 Y38.182
X25.688 Y38.125
X25.827 Y37.935
X25.866 Y37.88
X26.002 Y37.677
X26.038 Y37.621
X26.17 Y37.405
X26.2 Y37.353
X26.33 Y37.121
X26.357 Y37.072
X26.484 Y36.824
X26.506 Y36.779
X26.632 Y36.516
X26.651 Y36.474
X26.775 Y36.193
X26.791 Y36.154
X26.914 Y35.855
X26.927 Y35.821
X27.049 Y35.503
X27.06 Y35.472
X27.181 Y35.135
X27.191 Y35.107
X27.312 Y34.75
X27.32 Y34.726
X27.441 Y34.348
X27.448 Y34.326
X27.57 Y33.926
X27.575 Y33.907
X27.698 Y33.487
X27.702 Y33.47
X27.826 Y33.028
X27.83 Y33.013
X27.955 Y32.548
X27.958 Y32.535
X28.084 Y32.048
X28.087 Y32.036
X28.215 Y31.527
X28.218 Y31.516
X28.348 Y30.984
X28.35 Y30.975
X28.482 Y30.42
X28.484 Y30.412
X28.618 Y29.834
X28.619 Y29.827
X28.756 Y29.226
X28.757 Y29.22
X28.896 Y28.597
X28.898 Y28.591
X29.039 Y27.945
X29.04 Y27.941
X29.185 Y27.272
X29.186 Y27.268
X29.333 Y26.578
X29.334 Y26.574
X29.484 Y25.862
X29.485 Y25.859
X29.637 Y25.125
X29.638 Y25.122
X29.794 Y24.368
Y24.366
X29.953 Y23.59
X29.954 Y23.588
X30.115 Y22.793
X30.116 Y22.791
X30.28 Y21.976
Y21.974
X30.448 Y21.14
Y21.138
X30.618 Y20.285
Y20.284
X30.792 Y19.413
Y19.411
X30.968 Y18.523
X31.146 Y17.617
Y17.616
X31.328 Y16.694
X31.511 Y15.756
X31.698 Y14.803
X31.886 Y13.836
X32.077 Y12.855
X32.271 Y11.862
X32.466 Y10.856
X32.663 Y9.84
X32.862 Y8.812
X33.266 Y6.73
X33.675 Y4.614
X34.088 Y2.473
X34.505 Y0.312
X34.924 Y-1.861
X35.302 Y-3.825
G3 X35.673 Y-4.077 I0.312 J0.06
G1 X35.985 Y-4.017
X36.054 Y-4.004 Z-0.992
X36.12 Y-3.991 Z-0.969
X36.179 Y-3.98 Z-0.931
X36.229 Y-3.97 Z-0.88
X36.266 Y-3.963 Z-0.82
X36.289 Y-3.959 Z-0.753
X36.297 Y-3.957 Z-0.683
G0 Z5
X38.2 Y1.37
G1 Z1 F333.3
Z-0.683
X38.208 Y1.371 Z-0.753 F762
X38.231 Y1.376 Z-0.82
X38.268 Y1.383 Z-0.88
X38.318 Y1.392 Z-0.931
X38.377 Y1.404 Z-0.969
X38.443 Y1.416 Z-0.992
X38.512 Y1.43 Z-1
X38.824 Y1.489
G3 X39.076 Y1.861 I-0.06 J0.312
G1 X38.239 Y6.216
Y6.218
X37.824 Y8.385
Y8.386
X37.414 Y10.538
Y10.539
X37.011 Y12.668
Y12.67
X36.616 Y14.769
Y14.771
X36.422 Y15.807
Y15.809
X36.231 Y16.835
Y16.837
X36.043 Y17.852
Y17.854
X35.859 Y18.858
X35.858 Y18.86
X35.677 Y19.853
Y19.855
X35.5 Y20.834
Y20.836
X35.326 Y21.802
Y21.804
X35.157 Y22.756
Y22.759
X34.992 Y23.695
Y23.698
X34.832 Y24.618
X34.831 Y24.622
X34.677 Y25.526
X34.676 Y25.53
X34.527 Y26.417
X34.526 Y26.421
X34.382 Y27.291
X34.381 Y27.296
X34.242 Y28.147
Y28.152
X34.109 Y28.985
X34.108 Y28.991
X33.981 Y29.805
X33.98 Y29.811
X33.86 Y30.606
X33.859 Y30.613
X33.745 Y31.388
X33.744 Y31.395
X33.637 Y32.15
X33.636 Y32.158
X33.536 Y32.892
X33.535 Y32.901
X33.442 Y33.614
X33.441 Y33.624
X33.355 Y34.315
X33.354 Y34.327
X33.276 Y34.997
X33.274 Y35.009
X33.204 Y35.657
X33.203 Y35.671
X33.14 Y36.297
X33.139 Y36.313
X33.085 Y36.917
X33.083 Y36.934
X33.037 Y37.517
X33.036 Y37.536
X32.999 Y38.096
X32.998 Y38.117
X32.969 Y38.655
X32.968 Y38.679
X32.948 Y39.195
X32.947 Y39.221
X32.937 Y39.715
X32.936 Y39.744
X32.935 Y40.217
Y40.25
X32.943 Y40.701
X32.944 Y40.737
X32.961 Y41.167
X32.963 Y41.207
X32.99 Y41.616
X32.993 Y41.661
X33.03 Y42.05
X33.035 Y42.1
X33.082 Y42.469
X33.089 Y42.522
X33.145 Y42.872
X33.156 Y42.932
X33.222 Y43.262
X33.237 Y43.327
X33.313 Y43.64
X33.332 Y43.71
X33.418 Y44.005
X33.442 Y44.08
X33.538 Y44.358
X33.568 Y44.437
X33.675 Y44.699
X33.712 Y44.781
X33.829 Y45.028
X33.872 Y45.112
X34 Y45.343
X34.05 Y45.428
X34.188 Y45.645
X34.244 Y45.728
X34.393 Y45.932
X34.455 Y46.013
X34.614 Y46.205
X34.681 Y46.28
X34.851 Y46.46
X34.921 Y46.53
X35.101 Y46.699
X35.173 Y46.762
X35.364 Y46.92
X35.435 Y46.976
X35.636 Y47.124
X35.706 Y47.173
X35.918 Y47.313
X35.986 Y47.355
X36.209 Y47.486
X36.274 Y47.522
X36.508 Y47.645
X36.568 Y47.675
X36.812 Y47.791
X36.869 Y47.817
X37.124 Y47.925
X37.177 Y47.946
X37.442 Y48.049
X37.49 Y48.066
X37.767 Y48.162
X37.811 Y48.177
X38.098 Y48.268
X38.138 Y48.28
X38.436 Y48.365
X38.472 Y48.375
X38.78 Y48.455
X38.814 Y48.464
X39.133 Y48.54
X39.163 Y48.547
X39.492 Y48.618
X39.519 Y48.624
X39.859 Y48.692
X39.884 Y48.696
X40.235 Y48.761
X40.257 Y48.764
X40.618 Y48.825
X40.638 Y48.828
X41.01 Y48.886
X41.028 Y48.889
X41.41 Y48.944
X41.427 Y48.946
X41.819 Y48.998
X41.833 Y49
X42.236 Y49.05
X42.25 Y49.051
X42.663 Y49.099
X42.675 Y49.1
X43.099 Y49.146
X43.11 Y49.147
X43.544 Y49.19
X43.553 Y49.191
X43.997 Y49.233
X44.006 Y49.234
X44.461 Y49.274
X44.468 Y49.275
X44.933 Y49.314
X44.939 Y49.315
X45.414 Y49.353
X45.421
X45.906 Y49.39
X45.911
X46.406 Y49.426
X46.413
X47.433 Y49.495
X47.441 Y49.496
X48.501 Y49.562
X48.507
X49.606 Y49.626
X49.611 Y49.627
X50.749 Y49.689
X50.754
X51.929 Y49.749
X51.934 Y49.75
X53.147 Y49.809
X53.151
X54.403 Y49.866
X54.407
X55.695 Y49.922
X55.699
X57.024 Y49.976
X57.028 Y49.977
X58.39 Y50.028
X58.394
X59.791 Y50.078
X59.796
X61.229 Y50.124
X61.234 Y50.125
X62.702 Y50.168
X62.707
X64.211 Y50.208
X64.216
X65.754 Y50.244
X65.759
X67.333 Y50.275
X67.338
X68.945 Y50.302
X68.95 Y50.303
X70.592 Y50.325
X70.597
X72.273 Y50.342
X72.278
X73.989 Y50.355
X74.011
X75.722 Y50.342
X75.727
X77.403 Y50.325
X77.408
X79.05 Y50.303
X79.055 Y50.302
X80.662 Y50.275
X80.667
X82.241 Y50.244
X82.246
X83.784 Y50.208
X83.789
X85.293 Y50.168
X85.298
X86.766 Y50.125
X86.771 Y50.124
X88.204 Y50.078
X88.209
X89.606 Y50.028
X89.61
X90.972 Y49.977
X90.976 Y49.976
X92.301 Y49.922
X92.305
X93.593 Y49.866
X93.597
X94.849 Y49.809
X94.853
X96.066 Y49.75
X96.071 Y49.749
X97.246 Y49.689
X97.251
X98.389 Y49.627
X98.394 Y49.626
X99.493 Y49.562
X99.499
X100.559 Y49.496
X100.567 Y49.495
X101.587 Y49.426
X101.594
X102.089 Y49.39
X102.095
X102.579 Y49.353
X102.585
X103.06 Y49.315
X103.067 Y49.314
X103.532 Y49.275
X103.54 Y49.274
X103.994 Y49.234
X104.002 Y49.233
X104.447 Y49.191
X104.457 Y49.19
X104.891 Y49.147
X104.901 Y49.146
X105.325 Y49.1
X105.337 Y49.099
X105.75 Y49.051
X105.764 Y49.05
X106.167 Y49
X106.181 Y48.998
X106.574 Y48.946
X106.591 Y48.944
X106.973 Y48.889
X106.991 Y48.886
X107.362 Y48.828
X107.381 Y48.825
X107.743 Y48.764
X107.766 Y48.76
X108.116 Y48.696
X108.14 Y48.692
X108.48 Y48.624
X108.507 Y48.618
X108.837 Y48.547
X108.867 Y48.54
X109.186 Y48.464
X109.22 Y48.455
X109.528 Y48.375
X109.564 Y48.365
X109.862 Y48.28
X109.902 Y48.268
X110.189 Y48.177
X110.234 Y48.162
X110.51 Y48.066
X110.559 Y48.048
X110.824 Y47.946
X110.875 Y47.925
X111.13 Y47.817
X111.186 Y47.792
X111.431 Y47.676
X111.494 Y47.644
X111.727 Y47.521
X111.79 Y47.486
X112.013 Y47.355
X112.082 Y47.312
X112.294 Y47.173
X112.362 Y47.125
X112.564 Y46.977
X112.636 Y46.92
X112.827 Y46.762
X112.9 Y46.697
X113.08 Y46.528
X113.148 Y46.461
X113.318 Y46.281
X113.386 Y46.204
X113.545 Y46.012
X113.606 Y45.934
X113.755 Y45.73
X113.813 Y45.645
X113.951 Y45.427
X114 Y45.345
X114.128 Y45.113
X114.172 Y45.026
X114.289 Y44.78
X114.325 Y44.699
X114.432 Y44.437
X114.463 Y44.355
X114.559 Y44.077
X114.581 Y44.008
X114.668 Y43.713
X114.688 Y43.639
X114.764 Y43.326
X114.778 Y43.262
X114.844 Y42.931
X114.855 Y42.872
X114.911 Y42.522
X114.918 Y42.471
X114.965 Y42.102
X114.971 Y42.048
X115.007 Y41.659
X115.01 Y41.617
X115.037 Y41.208
X115.039 Y41.166
X115.056 Y40.736
X115.057 Y40.702
X115.065 Y40.25
Y40.216
X115.063 Y39.743
Y39.714
X115.052 Y39.22
X115.051 Y39.197
X115.032 Y38.681
X115.031 Y38.654
X115.002 Y38.116
X115.001 Y38.096
X114.964 Y37.536
X114.963 Y37.516
X114.917 Y36.934
X114.915 Y36.917
X114.861 Y36.313
X114.86 Y36.298
X114.798 Y35.672
X114.796 Y35.658
X114.726 Y35.01
X114.725 Y34.996
X114.647 Y34.327
X114.645 Y34.314
X114.559 Y33.623
X114.558 Y33.613
X114.465 Y32.901
X114.464 Y32.892
X114.364 Y32.158
X114.363 Y32.15
X114.256 Y31.395
X114.255 Y31.387
X114.141 Y30.612
X114.14 Y30.607
X114.02 Y29.812
X114.019 Y29.804
X113.892 Y28.99
X113.891 Y28.987
X113.759 Y28.154
X113.758 Y28.146
X113.619 Y27.295
X113.618 Y27.291
X113.474 Y26.421
X113.473 Y26.416
X113.323 Y25.529
Y25.527
X113.169 Y24.623
X113.168 Y24.618
X113.008 Y23.697
Y23.695
X112.844 Y22.759
X112.843 Y22.755
X112.674 Y21.804
Y21.802
X112.501 Y20.836
X112.5 Y20.834
X112.323 Y19.855
Y19.852
X112.142 Y18.86
Y18.859
X111.958 Y17.855
X111.957 Y17.852
X111.769 Y16.836
Y16.835
X111.578 Y15.808
X111.385 Y14.772
X111.384 Y14.769
X110.989 Y12.67
Y12.668
X110.586 Y10.539
X110.585 Y10.538
X110.175 Y8.386
X109.761 Y6.218
Y6.216
X108.924 Y1.862
X108.506 Y-0.311
X108.089 Y-2.472
X107.675 Y-4.614
X107.266 Y-6.729
X106.863 Y-8.812
X106.664 Y-9.839
X106.663 Y-9.841
X106.465 Y-10.857
X106.27 Y-11.861
X106.077 Y-12.855
X105.886 Y-13.835
X105.698 Y-14.801
Y-14.804
X105.511 Y-15.756
X105.328 Y-16.692
Y-16.694
X105.147 Y-17.616
X105.146 Y-17.617
X104.967 Y-18.523
X104.791 Y-19.412
X104.618 Y-20.284
Y-20.285
X104.448 Y-21.138
Y-21.139
X104.281 Y-21.973
X104.28 Y-21.977
X104.115 Y-22.792
X103.954 Y-23.587
X103.953 Y-23.591
X103.794 Y-24.366
Y-24.369
X103.638 Y-25.123
X103.637 Y-25.126
X103.484 Y-25.859
X103.483 Y-25.862
X103.333 Y-26.574
Y-26.578
X103.186 Y-27.268
X103.185 Y-27.271
X103.041 Y-27.94
X103.039 Y-27.946
X102.897 Y-28.592
X102.896 Y-28.597
X102.757 Y-29.22
X102.756 Y-29.227
X102.619 Y-29.828
X102.617 Y-29.833
X102.483 Y-30.411
X102.481 Y-30.42
X102.349 Y-30.975
X102.347 Y-30.984
X102.217 Y-31.517
X102.215 Y-31.524
X102.088 Y-32.034
X102.084 Y-32.05
X101.957 Y-32.537
X101.955 Y-32.546
X101.831 Y-33.01
X101.826 Y-33.03
X101.702 Y-33.472
X101.698 Y-33.486
X101.576 Y-33.906
X101.57 Y-33.926
X101.448 Y-34.326
X101.441 Y-34.348
X101.32 Y-34.726
X101.312 Y-34.75
X101.191 Y-35.107
X101.181 Y-35.135
X101.06 Y-35.472
X101.049 Y-35.503
X100.927 Y-35.821
X100.914 Y-35.855
X100.791 Y-36.154
X100.775 Y-36.193
X100.651 Y-36.474
X100.632 Y-36.516
X100.506 Y-36.779
X100.484 Y-36.824
X100.357 Y-37.072
X100.33 Y-37.121
X100.2 Y-37.353
X100.17 Y-37.405
X100.038 Y-37.621
X100.002 Y-37.677
X99.866 Y-37.88
X99.827 Y-37.935
X99.688 Y-38.125
X99.644 Y-38.182
X99.5 Y-38.361
X99.453 Y-38.417
X99.305 Y-38.584
X99.255 Y-38.638
X99.102 Y-38.795
X99.051 Y-38.846
X98.892 Y-38.995
X98.816 Y-39.062
X98.481 Y-39.338
X98.386 Y-39.411
X98.025 Y-39.666
X97.946 Y-39.718
X97.555 Y-39.96
X97.497 Y-39.995
X97.073 Y-40.233
X97.035 Y-40.254
X96.577 Y-40.495
X96.556 Y-40.506
X96.061 Y-40.758
X96.053 Y-40.762
X95.791 Y-40.893
X95.79 Y-40.894
X95.518 Y-41.03
X95.238 Y-41.17
X94.949 Y-41.316
X94.651 Y-41.466
X94.344 Y-41.622
X94.028 Y-41.783
X93.703 Y-41.951
X93.368 Y-42.124
X93.025 Y-42.303
X92.672 Y-42.489
X92.311 Y-42.679
X91.561 Y-43.078
X90.779 Y-43.495
X89.968 Y-43.929
X89.967 Y-43.93
X89.131 Y-44.377
X89.127 Y-44.379
X88.269 Y-44.834
X88.264 Y-44.837
X87.387 Y-45.298
X87.378 Y-45.303
X86.486 Y-45.765
X86.474 Y-45.771
X85.569 Y-46.231
X85.555 Y-46.238
X84.64 Y-46.692
X84.623 Y-46.7
X83.701 Y-47.144
X83.681 Y-47.154
X82.755 Y-47.583
X82.731 Y-47.594
X81.804 Y-48.006
X81.775 Y-48.018
X80.85 Y-48.407
X80.817 Y-48.421
X79.897 Y-48.784
X79.859 Y-48.799
X78.945 Y-49.133
X78.901 Y-49.148
X77.997 Y-49.449
X77.947 Y-49.464
X77.053 Y-49.729
X77.012 Y-49.741
X76.57 Y-49.859
X76.541 Y-49.867
X76.102 Y-49.975
X76.071 Y-49.983
X75.635 Y-50.081
X75.603 Y-50.088
X75.171 Y-50.177
X75.138 Y-50.183
X74.71 Y-50.261
X74.675 Y-50.267
X74.25 Y-50.335
G2 X73.75 Y-50.335 I-0.25 J1.568
G1 X73.325 Y-50.267
X73.29 Y-50.261
X72.862 Y-50.183
X72.829 Y-50.177
X72.397 Y-50.088
X72.365 Y-50.081
X71.929 Y-49.983
X71.898 Y-49.975
X71.459 Y-49.867
X71.43 Y-49.859
X70.988 Y-49.741
X70.947 Y-49.729
X70.053 Y-49.464
X70.003 Y-49.449
X69.099 Y-49.148
X69.055 Y-49.133
X68.141 Y-48.799
X68.103 Y-48.784
X67.183 Y-48.421
X67.15 Y-48.407
X66.225 Y-48.018
X66.196 Y-48.006
X65.269 Y-47.594
X65.245 Y-47.583
X64.319 Y-47.154
X64.299 Y-47.144
X63.377 Y-46.7
X63.36 Y-46.692
X62.445 Y-46.238
X62.431 Y-46.231
X61.526 Y-45.771
X61.514 Y-45.765
X60.622 Y-45.303
X60.613 Y-45.298
X59.736 Y-44.837
X59.731 Y-44.834
X58.873 Y-44.379
X58.869 Y-44.377
X58.033 Y-43.93
X58.032 Y-43.929
X57.221 Y-43.495
X56.439 Y-43.078
X55.689 Y-42.679
X55.328 Y-42.489
X54.975 Y-42.303
X54.632 Y-42.124
X54.297 Y-41.951
X53.972 Y-41.783
X53.656 Y-41.622
X53.349 Y-41.466
X53.051 Y-41.316
X52.762 Y-41.17
X52.482 Y-41.03
X52.21 Y-40.894
X52.209 Y-40.893
X51.947 Y-40.762
X51.939 Y-40.758
X51.444 Y-40.506
X51.423 Y-40.495
X50.965 Y-40.254
X50.927 Y-40.233
X50.503 Y-39.995
X50.445 Y-39.96
X50.054 Y-39.718
X49.975 Y-39.666
X49.614 Y-39.411
X49.519 Y-39.338
X49.184 Y-39.062
X49.108 Y-38.995
X48.949 Y-38.846
X48.898 Y-38.795
X48.745 Y-38.638
X48.695 Y-38.584
X48.547 Y-38.417
X48.5 Y-38.361
X48.356 Y-38.182
X48.312 Y-38.125
X48.173 Y-37.935
X48.134 Y-37.88
X47.998 Y-37.677
X47.962 Y-37.621
X47.83 Y-37.405
X47.8 Y-37.353
X47.67 Y-37.121
X47.643 Y-37.072
X47.516 Y-36.824
X47.494 Y-36.779
X47.368 Y-36.516
X47.349 Y-36.474
X47.225 Y-36.193
X47.209 Y-36.154
X47.086 Y-35.855
X47.073 Y-35.821
X46.951 Y-35.503
X46.94 Y-35.472
X46.819 Y-35.135
X46.809 Y-35.107
X46.688 Y-34.75
X46.68 Y-34.726
X46.559 Y-34.348
X46.552 Y-34.326
X46.43 Y-33.926
X46.425 Y-33.907
X46.302 Y-33.487
X46.298 Y-33.47
X46.174 Y-33.028
X46.17 Y-33.013
X46.045 Y-32.548
X46.042 Y-32.535
X45.916 Y-32.048
X45.913 Y-32.036
X45.785 Y-31.527
X45.782 Y-31.516
X45.652 Y-30.984
X45.65 Y-30.975
X45.518 Y-30.42
X45.516 Y-30.412
X45.382 Y-29.834
X45.381 Y-29.827
X45.244 Y-29.226
X45.243 Y-29.22
X45.104 Y-28.597
X45.102 Y-28.591
X44.961 Y-27.945
X44.96 Y-27.941
X44.815 Y-27.272
X44.814 Y-27.268
X44.667 Y-26.578
X44.666 Y-26.574
X44.516 Y-25.862
X44.515 Y-25.859
X44.363 Y-25.125
X44.362 Y-25.122
X44.206 Y-24.368
Y-24.366
X44.047 Y-23.59
X44.046 Y-23.588
X43.885 Y-22.793
X43.884 Y-22.791
X43.72 Y-21.976
Y-21.974
X43.552 Y-21.14
Y-21.138
X43.382 Y-20.285
Y-20.284
X43.208 Y-19.413
Y-19.411
X43.032 Y-18.523
X42.854 Y-17.617
Y-17.616
X42.672 Y-16.694
X42.489 Y-15.756
X42.302 Y-14.803
X42.114 Y-13.836
X41.923 Y-12.855
X41.729 Y-11.862
X41.534 Y-10.856
X41.337 Y-9.84
X41.138 Y-8.812
X40.734 Y-6.73
X40.325 Y-4.614
X39.912 Y-2.473
X39.495 Y-0.312
X39.076 Y1.861
X38.698 Y3.825
G3 X38.327 Y4.077 I-0.312 J-0.06
G1 X38.015 Y4.017
X37.946 Y4.004 Z-0.992
X37.88 Y3.991 Z-0.969
X37.821 Y3.98 Z-0.931
X37.771 Y3.97 Z-0.88
X37.734 Y3.963 Z-0.82
X37.711 Y3.959 Z-0.753
X37.703 Y3.957 Z-0.683
G0 Z5
X-114.579 Y27.266
G1 Z1 F333.3
Z-0.683
X-114.571 Y27.267 Z-0.753 F762
X-114.548 Y27.271 Z-0.82
X-114.511 Y27.277 Z-0.88
X-114.461 Y27.285 Z-0.931
X-114.402 Y27.295 Z-0.969
X-114.336 Y27.306 Z-0.992
X-114.266 Y27.317 Z-1
X-113.952 Y27.368
G3 X-113.69 Y27.733 I-0.051 J0.313
G1 X-113.758 Y28.146
X-113.759 Y28.154
X-113.891 Y28.987
X-113.892 Y28.99
X-114.019 Y29.804
X-114.02 Y29.812
X-114.14 Y30.607
X-114.141 Y30.612
X-114.255 Y31.387
X-114.256 Y31.395
X-114.363 Y32.15
X-114.364 Y32.158
X-114.464 Y32.892
X-114.465 Y32.901
X-114.558 Y33.613
X-114.559 Y33.623
X-114.645 Y34.314
X-114.647 Y34.327
X-114.725 Y34.996
X-114.726 Y35.01
X-114.796 Y35.658
X-114.798 Y35.672
X-114.86 Y36.298
X-114.861 Y36.313
X-114.915 Y36.917
X-114.917 Y36.934
X-114.963 Y37.516
X-114.964 Y37.536
X-115.001 Y38.096
X-115.002 Y38.116
X-115.031 Y38.654
X-115.032 Y38.681
X-115.051 Y39.197
X-115.052 Y39.22
X-115.063 Y39.714
Y39.743
X-115.065 Y40.216
Y40.25
X-115.057 Y40.702
X-115.056 Y40.736
X-115.039 Y41.166
X-115.037 Y41.208
X-115.01 Y41.617
X-115.007 Y41.659
X-114.971 Y42.048
X-114.965 Y42.102
X-114.918 Y42.471
X-114.911 Y42.522
X-114.855 Y42.872
X-114.844 Y42.931
X-114.778 Y43.262
X-114.764 Y43.326
X-114.688 Y43.639
X-114.668 Y43.713
X-114.581 Y44.008
X-114.559 Y44.077
X-114.463 Y44.355
X-114.432 Y44.437
X-114.325 Y44.699
X-114.289 Y44.78
X-114.172 Y45.026
X-114.128 Y45.113
X-114 Y45.345
X-113.951 Y45.427
X-113.813 Y45.645
X-113.755 Y45.73
X-113.606 Y45.934
X-113.545 Y46.012
X-113.386 Y46.204
X-113.318 Y46.281
X-113.148 Y46.461
X-113.08 Y46.528
X-112.9 Y46.697
X-112.827 Y46.762
X-112.636 Y46.92
X-112.564 Y46.977
X-112.362 Y47.125
X-112.294 Y47.173
X-112.082 Y47.312
X-112.013 Y47.355
X-111.79 Y47.486
X-111.727 Y47.521
X-111.494 Y47.644
X-111.431 Y47.676
X-111.186 Y47.792
X-111.13 Y47.817
X-110.875 Y47.925
X-110.824 Y47.946
X-110.559 Y48.048
X-110.51 Y48.066
X-110.234 Y48.162
X-110.189 Y48.177
X-109.902 Y48.268
X-109.862 Y48.28
X-109.564 Y48.365
X-109.528 Y48.375
X-109.22 Y48.455
X-109.186 Y48.464
X-108.867 Y48.54
X-108.837 Y48.547
X-108.507 Y48.618
X-108.48 Y48.624
X-108.14 Y48.692
X-108.116 Y48.696
X-107.766 Y48.76
X-107.743 Y48.764
X-107.381 Y48.825
X-107.362 Y48.828
X-106.991 Y48.886
X-106.973 Y48.889
X-106.591 Y48.944
X-106.574 Y48.946
X-106.181 Y48.998
X-106.167 Y49
X-105.764 Y49.05
X-105.75 Y49.051
X-105.337 Y49.099
X-105.325 Y49.1
X-104.901 Y49.146
X-104.891 Y49.147
X-104.457 Y49.19
X-104.447 Y49.191
X-104.002 Y49.233
X-103.994 Y49.234
X-103.54 Y49.274
X-103.532 Y49.275
X-103.067 Y49.314
X-103.06 Y49.315
X-102.585 Y49.353
X-102.579
X-102.095 Y49.39
X-102.089
X-101.594 Y49.426
X-101.587
X-100.567 Y49.495
X-100.559 Y49.496
X-99.499 Y49.562
X-99.493
X-98.394 Y49.626
X-98.389 Y49.627
X-97.251 Y49.689
X-97.246
X-96.071 Y49.749
X-96.066 Y49.75
X-94.853 Y49.809
X-94.849
X-93.597 Y49.866
X-93.593
X-92.305 Y49.922
X-92.301
X-90.976 Y49.976
X-90.972 Y49.977
X-89.61 Y50.028
X-89.606
X-88.209 Y50.078
X-88.204
X-86.771 Y50.124
X-86.766 Y50.125
X-85.298 Y50.168
X-85.293
X-83.789 Y50.208
X-83.784
X-82.246 Y50.244
X-82.241
X-80.667 Y50.275
X-80.662
X-79.055 Y50.302
X-79.05 Y50.303
X-77.408 Y50.325
X-77.403
X-75.727 Y50.342
X-75.722
X-74.011 Y50.355
X-73.989
X-72.278 Y50.342
X-72.273
X-70.597 Y50.325
X-70.592
X-68.95 Y50.303
X-68.945 Y50.302
X-67.338 Y50.275
X-67.333
X-65.759 Y50.244
X-65.754
X-64.216 Y50.208
X-64.211
X-62.707 Y50.168
X-62.702
X-61.234 Y50.125
X-61.229 Y50.124
X-59.796 Y50.078
X-59.791
X-58.394 Y50.028
X-58.39
X-57.028 Y49.977
X-57.024 Y49.976
X-55.699 Y49.922
X-55.695
X-54.407 Y49.866
X-54.403
X-53.151 Y49.809
X-53.147
X-51.934 Y49.75
X-51.929 Y49.749
X-50.754 Y49.689
X-50.749
X-49.611 Y49.627
X-49.606 Y49.626
X-48.507 Y49.562
X-48.501
X-47.441 Y49.496
X-47.433 Y49.495
X-46.413 Y49.426
X-46.406
X-45.911 Y49.39
X-45.906
X-45.421 Y49.353
X-45.414
X-44.939 Y49.315
X-44.933 Y49.314
X-44.468 Y49.275
X-44.461 Y49.274
X-44.006 Y49.234
X-43.997 Y49.233
X-43.553 Y49.191
X-43.544 Y49.19
X-43.11 Y49.147
X-43.099 Y49.146
X-42.675 Y49.1
X-42.663 Y49.099
X-42.25 Y49.051
X-42.236 Y49.05
X-41.833 Y49
X-41.819 Y48.998
X-41.427 Y48.946
X-41.41 Y48.944
X-41.028 Y48.889
X-41.01 Y48.886
X-40.638 Y48.828
X-40.618 Y48.825
X-40.257 Y48.764
X-40.235 Y48.761
X-39.884 Y48.696
X-39.859 Y48.692
X-39.519 Y48.624
X-39.492 Y48.618
X-39.163 Y48.547
X-39.133 Y48.54
X-38.814 Y48.464
X-38.78 Y48.455
X-38.472 Y48.375
X-38.436 Y48.365
X-38.138 Y48.28
X-38.098 Y48.268
X-37.811 Y48.177
X-37.767 Y48.162
X-37.49 Y48.066
X-37.442 Y48.049
X-37.177 Y47.946
X-37.124 Y47.925
X-36.869 Y47.817
X-36.812 Y47.791
X-36.568 Y47.675
X-36.508 Y47.645
X-36.274 Y47.522
X-36.209 Y47.486
X-35.986 Y47.355
X-35.918 Y47.313
X-35.706 Y47.173
X-35.636 Y47.124
X-35.435 Y46.976
X-35.364 Y46.92
X-35.173 Y46.762
X-35.101 Y46.699
X-34.921 Y46.53
X-34.851 Y46.46
X-34.681 Y46.28
X-34.614 Y46.205
X-34.455 Y46.013
X-34.393 Y45.932
X-34.244 Y45.728
X-34.188 Y45.645
X-34.05 Y45.428
X-34 Y45.343
X-33.872 Y45.112
X-33.829 Y45.028
X-33.712 Y44.781
X-33.675 Y44.699
X-33.568 Y44.437
X-33.538 Y44.358
X-33.442 Y44.08
X-33.418 Y44.005
X-33.332 Y43.71
X-33.313 Y43.64
X-33.237 Y43.327
X-33.222 Y43.262
X-33.156 Y42.932
X-33.145 Y42.872
X-33.089 Y42.522
X-33.082 Y42.469
X-33.035 Y42.1
X-33.03 Y42.05
X-32.993 Y41.661
X-32.99 Y41.616
X-32.963 Y41.207
X-32.961 Y41.167
X-32.944 Y40.737
X-32.943 Y40.701
X-32.935 Y40.25
Y40.217
X-32.936 Y39.744
X-32.937 Y39.715
X-32.947 Y39.221
X-32.948 Y39.195
X-32.968 Y38.679
X-32.969 Y38.655
X-32.998 Y38.117
X-32.999 Y38.096
X-33.036 Y37.536
X-33.037 Y37.517
X-33.083 Y36.934
X-33.085 Y36.917
X-33.139 Y36.313
X-33.14 Y36.297
X-33.203 Y35.671
X-33.204 Y35.657
X-33.274 Y35.009
X-33.276 Y34.997
X-33.354 Y34.327
X-33.355 Y34.315
X-33.441 Y33.624
X-33.442 Y33.614
X-33.535 Y32.901
X-33.536 Y32.892
X-33.636 Y32.158
X-33.637 Y32.15
X-33.744 Y31.395
X-33.745 Y31.388
X-33.859 Y30.613
X-33.86 Y30.606
X-33.98 Y29.811
X-33.981 Y29.805
X-34.108 Y28.991
X-34.109 Y28.985
X-34.242 Y28.152
Y28.147
X-34.381 Y27.296
X-34.382 Y27.291
X-34.526 Y26.421
X-34.527 Y26.417
X-34.676 Y25.53
X-34.677 Y25.526
X-34.831 Y24.622
X-34.832 Y24.618
X-34.992 Y23.698
Y23.695
X-35.157 Y22.759
Y22.756
X-35.326 Y21.804
Y21.802
X-35.5 Y20.836
Y20.834
X-35.677 Y19.855
Y19.853
X-35.858 Y18.86
X-35.859 Y18.858
X-36.043 Y17.854
Y17.852
X-36.231 Y16.837
Y16.835
X-36.422 Y15.809
Y15.807
X-36.616 Y14.771
Y14.769
X-37.011 Y12.67
Y12.668
X-37.414 Y10.539
Y10.538
X-37.824 Y8.386
Y8.385
X-38.239 Y6.218
Y6.216
X-39.076 Y1.862
X-39.495 Y-0.312
X-39.912 Y-2.472
X-40.325 Y-4.614
X-40.734 Y-6.729
X-41.138 Y-8.812
X-41.337 Y-9.839
X-41.534 Y-10.856
X-41.729 Y-11.861
X-41.923 Y-12.855
X-42.113 Y-13.835
X-42.302 Y-14.802
X-42.489 Y-15.755
X-42.672 Y-16.693
X-42.854 Y-17.616
Y-17.617
X-43.032 Y-18.522
X-43.208 Y-19.411
Y-19.413
X-43.382 Y-20.284
Y-20.285
X-43.552 Y-21.138
Y-21.14
X-43.72 Y-21.974
Y-21.976
X-43.884 Y-22.791
X-43.885 Y-22.793
X-44.046 Y-23.588
X-44.047 Y-23.59
X-44.206 Y-24.366
Y-24.368
X-44.362 Y-25.122
X-44.363 Y-25.125
X-44.515 Y-25.859
X-44.516 Y-25.862
X-44.666 Y-26.574
X-44.667 Y-26.578
X-44.814 Y-27.268
X-44.815 Y-27.272
X-44.96 Y-27.941
X-44.961 Y-27.945
X-45.102 Y-28.591
X-45.104 Y-28.597
X-45.243 Y-29.22
X-45.244 Y-29.226
X-45.381 Y-29.827
X-45.382 Y-29.834
X-45.516 Y-30.412
X-45.518 Y-30.42
X-45.65 Y-30.975
X-45.652 Y-30.984
X-45.782 Y-31.516
X-45.785 Y-31.527
X-45.913 Y-32.036
X-45.916 Y-32.048
X-46.042 Y-32.535
X-46.045 Y-32.548
X-46.17 Y-33.013
X-46.174 Y-33.028
X-46.298 Y-33.47
X-46.302 Y-33.487
X-46.425 Y-33.907
X-46.43 Y-33.926
X-46.552 Y-34.326
X-46.559 Y-34.348
X-46.68 Y-34.726
X-46.688 Y-34.75
X-46.809 Y-35.107
X-46.819 Y-35.135
X-46.94 Y-35.472
X-46.951 Y-35.503
X-47.073 Y-35.821
X-47.086 Y-35.855
X-47.209 Y-36.154
X-47.225 Y-36.193
X-47.349 Y-36.474
X-47.368 Y-36.516
X-47.494 Y-36.779
X-47.516 Y-36.824
X-47.643 Y-37.072
X-47.67 Y-37.121
X-47.8 Y-37.353
X-47.83 Y-37.405
X-47.962 Y-37.621
X-47.998 Y-37.677
X-48.134 Y-37.88
X-48.173 Y-37.935
X-48.312 Y-38.125
X-48.356 Y-38.182
X-48.5 Y-38.361
X-48.547 Y-38.417
X-48.695 Y-38.584
X-48.745 Y-38.638
X-48.898 Y-38.795
X-48.949 Y-38.846
X-49.108 Y-38.995
X-49.184 Y-39.062
X-49.519 Y-39.338
X-49.614 Y-39.411
X-49.975 Y-39.666
X-50.054 Y-39.718
X-50.445 Y-39.96
X-50.503 Y-39.995
X-50.927 Y-40.233
X-50.965 Y-40.254
X-51.423 Y-40.495
X-51.444 Y-40.506
X-51.939 Y-40.758
X-51.947 Y-40.762
X-52.209 Y-40.893
X-52.21 Y-40.894
X-52.482 Y-41.03
X-52.762 Y-41.17
X-53.051 Y-41.316
X-53.349 Y-41.466
X-53.656 Y-41.622
X-53.972 Y-41.783
X-54.297 Y-41.951
X-54.632 Y-42.124
X-54.975 Y-42.303
X-55.328 Y-42.489
X-55.689 Y-42.679
X-56.439 Y-43.078
X-57.221 Y-43.495
X-58.032 Y-43.929
X-58.033 Y-43.93
X-58.869 Y-44.377
X-58.873 Y-44.379
X-59.731 Y-44.834
X-59.736 Y-44.837
X-60.613 Y-45.298
X-60.622 Y-45.303
X-61.514 Y-45.765
X-61.526 Y-45.771
X-62.431 Y-46.231
X-62.445 Y-46.238
X-63.36 Y-46.692
X-63.377 Y-46.7
X-64.299 Y-47.144
X-64.319 Y-47.154
X-65.245 Y-47.583
X-65.269 Y-47.594
X-66.196 Y-48.006
X-66.225 Y-48.018
X-67.15 Y-48.407
X-67.183 Y-48.421
X-68.103 Y-48.784
X-68.141 Y-48.799
X-69.055 Y-49.133
X-69.099 Y-49.148
X-70.003 Y-49.449
X-70.053 Y-49.464
X-70.947 Y-49.729
X-70.988 Y-49.741
X-71.43 Y-49.859
X-71.459 Y-49.867
X-71.898 Y-49.975
X-71.929 Y-49.983
X-72.365 Y-50.081
X-72.397 Y-50.088
X-72.829 Y-50.177
X-72.862 Y-50.183
X-73.29 Y-50.261
X-73.325 Y-50.267
X-73.75 Y-50.335
G2 X-74.25 Y-50.335 I-0.25 J1.568
G1 X-74.675 Y-50.267
X-74.71 Y-50.261
X-75.138 Y-50.183
X-75.171 Y-50.177
X-75.603 Y-50.088
X-75.635 Y-50.081
X-76.071 Y-49.983
X-76.102 Y-49.975
X-76.541 Y-49.867
X-76.57 Y-49.859
X-77.012 Y-49.741
X-77.053 Y-49.729
X-77.947 Y-49.464
X-77.997 Y-49.449
X-78.901 Y-49.148
X-78.945 Y-49.133
X-79.859 Y-48.799
X-79.897 Y-48.784
X-80.817 Y-48.421
X-80.85 Y-48.407
X-81.775 Y-48.018
X-81.804 Y-48.006
X-82.731 Y-47.594
X-82.755 Y-47.583
X-83.681 Y-47.154
X-83.701 Y-47.144
X-84.623 Y-46.7
X-84.64 Y-46.692
X-85.555 Y-46.238
X-85.569 Y-46.231
X-86.474 Y-45.771
X-86.486 Y-45.765
X-87.378 Y-45.303
X-87.387 Y-45.298
X-88.264 Y-44.837
X-88.269 Y-44.834
X-89.127 Y-44.379
X-89.131 Y-44.377
X-89.967 Y-43.93
X-89.968 Y-43.929
X-90.779 Y-43.495
X-91.561 Y-43.078
X-92.311 Y-42.679
X-92.672 Y-42.489
X-93.025 Y-42.303
X-93.368 Y-42.124
X-93.703 Y-41.951
X-94.028 Y-41.783
X-94.344 Y-41.622
X-94.651 Y-41.466
X-94.949 Y-41.316
X-95.238 Y-41.17
X-95.518 Y-41.03
X-95.79 Y-40.894
X-95.791 Y-40.893
X-96.053 Y-40.762
X-96.061 Y-40.758
X-96.556 Y-40.506
X-96.577 Y-40.495
X-97.035 Y-40.254
X-97.073 Y-40.233
X-97.497 Y-39.995
X-97.555 Y-39.96
X-97.946 Y-39.718
X-98.025 Y-39.666
X-98.386 Y-39.411
X-98.481 Y-39.338
X-98.816 Y-39.062
X-98.892 Y-38.995
X-99.051 Y-38.846
X-99.102 Y-38.795
X-99.255 Y-38.638
X-99.305 Y-38.584
X-99.453 Y-38.417
X-99.5 Y-38.361
X-99.644 Y-38.182
X-99.688 Y-38.125
X-99.827 Y-37.935
X-99.866 Y-37.88
X-100.002 Y-37.677
X-100.038 Y-37.621
X-100.17 Y-37.405
X-100.2 Y-37.353
X-100.33 Y-37.121
X-100.357 Y-37.072
X-100.484 Y-36.824
X-100.506 Y-36.779
X-100.632 Y-36.516
X-100.651 Y-36.474
X-100.775 Y-36.193
X-100.791 Y-36.154
X-100.914 Y-35.855
X-100.927 Y-35.821
X-101.049 Y-35.503
X-101.06 Y-35.472
X-101.181 Y-35.135
X-101.191 Y-35.107
X-101.312 Y-34.75
X-101.32 Y-34.726
X-101.441 Y-34.348
X-101.448 Y-34.326
X-101.57 Y-33.926
X-101.576 Y-33.906
X-101.698 Y-33.486
X-101.702 Y-33.472
X-101.826 Y-33.03
X-101.831 Y-33.01
X-101.955 Y-32.546
X-101.957 Y-32.537
X-102.084 Y-32.05
X-102.088 Y-32.034
X-102.215 Y-31.524
X-102.217 Y-31.517
X-102.347 Y-30.984
X-102.349 Y-30.975
X-102.481 Y-30.42
X-102.483 Y-30.411
X-102.617 Y-29.833
X-102.619 Y-29.828
X-102.756 Y-29.227
X-102.757 Y-29.22
X-102.896 Y-28.597
X-102.897 Y-28.592
X-103.039 Y-27.946
X-103.041 Y-27.94
X-103.185 Y-27.271
X-103.186 Y-27.268
X-103.333 Y-26.578
Y-26.574
X-103.483 Y-25.862
X-103.484 Y-25.859
X-103.637 Y-25.126
X-103.638 Y-25.123
X-103.794 Y-24.369
Y-24.366
X-103.953 Y-23.591
X-103.954 Y-23.587
X-104.115 Y-22.792
X-104.28 Y-21.977
X-104.281 Y-21.973
X-104.448 Y-21.139
Y-21.138
X-104.618 Y-20.285
Y-20.284
X-104.791 Y-19.413
X-104.967 Y-18.523
X-105.146 Y-17.617
X-105.147 Y-17.616
X-105.328 Y-16.694
Y-16.692
X-105.511 Y-15.756
X-105.698 Y-14.804
Y-14.801
X-105.886 Y-13.835
X-106.077 Y-12.855
X-106.27 Y-11.862
X-106.465 Y-10.857
X-106.663 Y-9.841
X-106.664 Y-9.839
X-106.863 Y-8.812
X-107.266 Y-6.729
X-107.675 Y-4.614
X-108.089 Y-2.473
X-108.506 Y-0.312
X-108.924 Y1.862
X-109.761 Y6.216
Y6.218
X-110.175 Y8.385
X-110.585 Y10.538
X-110.586 Y10.539
X-110.989 Y12.668
Y12.67
X-111.384 Y14.769
X-111.385 Y14.772
X-111.578 Y15.808
X-111.769 Y16.835
Y16.836
X-111.957 Y17.852
X-111.958 Y17.855
X-112.142 Y18.859
Y18.86
X-112.323 Y19.852
Y19.855
X-112.5 Y20.834
X-112.501 Y20.836
X-112.674 Y21.802
Y21.804
X-112.843 Y22.755
X-112.844 Y22.759
X-113.008 Y23.695
Y23.697
X-113.168 Y24.618
X-113.169 Y24.623
X-113.323 Y25.527
Y25.529
X-113.473 Y26.416
X-113.474 Y26.421
X-113.618 Y27.291
X-113.619 Y27.295
X-113.69 Y27.733
X-113.758 Y28.146
X-113.759 Y28.154
X-113.891 Y28.987
X-113.892 Y28.99
X-114.003 Y29.708
G3 X-114.366 Y29.973 I-0.314 J-0.049
G1 X-114.68 Y29.924
X-114.75 Y29.913 Z-0.992
X-114.816 Y29.902 Z-0.969
X-114.875 Y29.893 Z-0.931
X-114.925 Y29.885 Z-0.88
X-114.962 Y29.88 Z-0.82
X-114.986 Y29.876 Z-0.753
X-114.994 Y29.875 Z-0.683
G0 Z15
M5
M30
