(1001)
(Machine)
(  vendor: AliExpress)
(  description: Gold CNC Machine)
(T1  D=3.175 CR=0 - ZMIN=-1 - flat end mill)
G90 G94
G17
G21

(2D Contour4)
S11000 M3
G54
G0 X4.382 Y-20.356
Z15
Z5
G1 Z1 F333.3
Z-0.683
X4.374 Y-20.357 Z-0.753 F381
X4.351 Y-20.361 Z-0.82
X4.314 Y-20.368 Z-0.88
X4.264 Y-20.377 Z-0.931
X4.205 Y-20.387 Z-0.969
X4.139 Y-20.399 Z-0.992
X4.069 Y-20.412 Z-1
X3.757 Y-20.468
G3 X3.5 Y-20.836 I0.056 J-0.313
G1 X3.674 Y-21.802
Y-21.804
X3.843 Y-22.756
Y-22.758
X4.008 Y-23.694
Y-23.698
X4.168 Y-24.618
X4.169 Y-24.622
X4.323 Y-25.526
X4.324 Y-25.53
X4.473 Y-26.417
X4.474 Y-26.421
X4.618 Y-27.291
X4.619 Y-27.296
X4.758 Y-28.147
Y-28.152
X4.891 Y-28.985
X4.892 Y-28.991
X5.019 Y-29.805
X5.02 Y-29.811
X5.14 Y-30.606
X5.141 Y-30.613
X5.255 Y-31.388
X5.256 Y-31.395
X5.363 Y-32.149
X5.364 Y-32.158
X5.464 Y-32.892
X5.465 Y-32.901
X5.558 Y-33.614
X5.559 Y-33.624
X5.645 Y-34.315
X5.646 Y-34.327
X5.724 Y-34.996
X5.726 Y-35.009
X5.796 Y-35.657
X5.797 Y-35.671
X5.86 Y-36.297
X5.861 Y-36.313
X5.915 Y-36.917
X5.917 Y-36.934
X5.962 Y-37.517
X5.964 Y-37.536
X6.001 Y-38.096
X6.002 Y-38.117
X6.031 Y-38.655
X6.032 Y-38.679
X6.052 Y-39.195
X6.053 Y-39.221
X6.063 Y-39.715
X6.064 Y-39.744
X6.065 Y-40.217
Y-40.25
X6.057 Y-40.701
X6.056 Y-40.737
X6.039 Y-41.167
X6.037 Y-41.207
X6.01 Y-41.616
X6.007 Y-41.661
X5.97 Y-42.05
X5.965 Y-42.099
X5.919 Y-42.468
X5.911 Y-42.523
X5.855 Y-42.872
X5.844 Y-42.932
X5.778 Y-43.262
X5.763 Y-43.327
X5.687 Y-43.64
X5.668 Y-43.71
X5.582 Y-44.005
X5.558 Y-44.08
X5.461 Y-44.358
X5.432 Y-44.437
X5.325 Y-44.699
X5.288 Y-44.781
X5.171 Y-45.028
X5.128 Y-45.111
X5 Y-45.343
X4.95 Y-45.428
X4.812 Y-45.645
X4.756 Y-45.728
X4.607 Y-45.933
X4.545 Y-46.013
X4.386 Y-46.205
X4.319 Y-46.28
X4.149 Y-46.46
X4.08 Y-46.53
X3.899 Y-46.698
X3.828 Y-46.762
X3.637 Y-46.92
X3.565 Y-46.976
X3.364 Y-47.124
X3.294 Y-47.173
X3.082 Y-47.313
X3.013 Y-47.355
X2.791 Y-47.486
X2.726 Y-47.522
X2.492 Y-47.645
X2.432 Y-47.675
X2.188 Y-47.791
X2.131 Y-47.817
X1.876 Y-47.925
X1.823 Y-47.946
X1.558 Y-48.049
X1.51 Y-48.066
X1.234 Y-48.162
X1.189 Y-48.177
X0.902 Y-48.268
X0.862 Y-48.28
X0.564 Y-48.365
X0.528 Y-48.375
X0.22 Y-48.455
X0.186 Y-48.464
X-0.133 Y-48.54
X-0.163 Y-48.546
X-0.492 Y-48.618
X-0.519 Y-48.624
X-0.859 Y-48.692
X-0.884 Y-48.696
X-1.235 Y-48.761
X-1.257 Y-48.764
X-1.618 Y-48.825
X-1.638 Y-48.828
X-2.01 Y-48.886
X-2.028 Y-48.889
X-2.41 Y-48.944
X-2.427 Y-48.946
X-2.819 Y-48.998
X-2.833 Y-49
X-3.236 Y-49.05
X-3.25 Y-49.051
X-3.663 Y-49.099
X-3.675 Y-49.1
X-4.099 Y-49.146
X-4.11 Y-49.147
X-4.544 Y-49.19
X-4.553 Y-49.191
X-4.997 Y-49.233
X-5.006 Y-49.234
X-5.461 Y-49.274
X-5.468 Y-49.275
X-5.933 Y-49.314
X-5.939 Y-49.315
X-6.414 Y-49.353
X-6.421
X-6.906 Y-49.39
X-6.911
X-7.406 Y-49.426
X-7.413
X-8.433 Y-49.495
X-8.441 Y-49.496
X-9.501 Y-49.562
X-9.507
X-10.606 Y-49.626
X-10.611 Y-49.627
X-11.749 Y-49.689
X-11.754
X-12.929 Y-49.749
X-12.934 Y-49.75
X-14.147 Y-49.809
X-14.151
X-15.403 Y-49.866
X-15.407
X-16.695 Y-49.922
X-16.699
X-18.024 Y-49.976
X-18.028 Y-49.977
X-19.39 Y-50.028
X-19.394
X-20.791 Y-50.078
X-20.796
X-22.229 Y-50.124
X-22.234 Y-50.125
X-23.702 Y-50.168
X-23.707
X-25.211 Y-50.208
X-25.216
X-26.754 Y-50.244
X-26.759
X-28.333 Y-50.275
X-28.338
X-29.945 Y-50.302
X-29.95 Y-50.303
X-31.592 Y-50.325
X-31.597
X-33.273 Y-50.342
X-33.278
X-34.989 Y-50.355
X-35.011
X-36.722 Y-50.342
X-36.727
X-38.403 Y-50.325
X-38.408
X-40.05 Y-50.303
X-40.055 Y-50.302
X-41.662 Y-50.275
X-41.667
X-43.241 Y-50.244
X-43.246
X-44.784 Y-50.208
X-44.789
X-46.293 Y-50.168
X-46.298
X-47.766 Y-50.125
X-47.771 Y-50.124
X-49.204 Y-50.078
X-49.209
X-50.606 Y-50.028
X-50.61
X-51.972 Y-49.977
X-51.976 Y-49.976
X-53.301 Y-49.922
X-53.305
X-54.593 Y-49.866
X-54.597
X-55.849 Y-49.809
X-55.853
X-57.066 Y-49.75
X-57.071 Y-49.749
X-58.246 Y-49.689
X-58.251
X-59.389 Y-49.627
X-59.394 Y-49.626
X-60.493 Y-49.562
X-60.499
X-61.559 Y-49.496
X-61.567 Y-49.495
X-62.587 Y-49.426
X-62.594
X-63.089 Y-49.39
X-63.094
X-63.579 Y-49.353
X-63.586
X-64.061 Y-49.315
X-64.067 Y-49.314
X-64.532 Y-49.275
X-64.539 Y-49.274
X-64.994 Y-49.234
X-65.003 Y-49.233
X-65.447 Y-49.191
X-65.456 Y-49.19
X-65.89 Y-49.147
X-65.901 Y-49.146
X-66.325 Y-49.1
X-66.337 Y-49.099
X-66.75 Y-49.051
X-66.764 Y-49.05
X-67.167 Y-49
X-67.181 Y-48.998
X-67.573 Y-48.946
X-67.59 Y-48.944
X-67.972 Y-48.889
X-67.99 Y-48.886
X-68.362 Y-48.828
X-68.382 Y-48.825
X-68.743 Y-48.764
X-68.765 Y-48.761
X-69.116 Y-48.696
X-69.141 Y-48.692
X-69.481 Y-48.624
X-69.508 Y-48.618
X-69.837 Y-48.547
X-69.867 Y-48.54
X-70.186 Y-48.464
X-70.22 Y-48.455
X-70.528 Y-48.375
X-70.564 Y-48.365
X-70.862 Y-48.28
X-70.902 Y-48.268
X-71.189 Y-48.177
X-71.233 Y-48.162
X-71.51 Y-48.066
X-71.558 Y-48.049
X-71.823 Y-47.946
X-71.876 Y-47.925
X-72.131 Y-47.817
X-72.188 Y-47.791
X-72.432 Y-47.675
X-72.492 Y-47.645
X-72.726 Y-47.522
X-72.791 Y-47.486
X-73.014 Y-47.355
X-73.082 Y-47.313
X-73.294 Y-47.173
X-73.364 Y-47.124
X-73.565 Y-46.976
X-73.636 Y-46.92
X-73.827 Y-46.762
X-73.899 Y-46.699
X-74.079 Y-46.53
X-74.149 Y-46.46
X-74.319 Y-46.28
X-74.386 Y-46.205
X-74.545 Y-46.013
X-74.607 Y-45.932
X-74.756 Y-45.728
X-74.812 Y-45.645
X-74.95 Y-45.428
X-75 Y-45.343
X-75.128 Y-45.112
X-75.171 Y-45.028
X-75.288 Y-44.781
X-75.325 Y-44.699
X-75.432 Y-44.437
X-75.462 Y-44.358
X-75.558 Y-44.08
X-75.582 Y-44.005
X-75.668 Y-43.71
X-75.687 Y-43.64
X-75.763 Y-43.327
X-75.778 Y-43.262
X-75.844 Y-42.932
X-75.855 Y-42.872
X-75.911 Y-42.522
X-75.918 Y-42.469
X-75.965 Y-42.1
X-75.97 Y-42.05
X-76.007 Y-41.661
X-76.01 Y-41.616
X-76.037 Y-41.207
X-76.039 Y-41.167
X-76.056 Y-40.737
X-76.057 Y-40.701
X-76.065 Y-40.25
Y-40.217
X-76.064 Y-39.744
X-76.063 Y-39.715
X-76.053 Y-39.221
X-76.052 Y-39.195
X-76.032 Y-38.679
X-76.031 Y-38.655
X-76.002 Y-38.117
X-76.001 Y-38.096
X-75.964 Y-37.536
X-75.963 Y-37.517
X-75.917 Y-36.934
X-75.915 Y-36.917
X-75.861 Y-36.313
X-75.86 Y-36.297
X-75.797 Y-35.671
X-75.796 Y-35.657
X-75.726 Y-35.009
X-75.724 Y-34.997
X-75.646 Y-34.327
X-75.645 Y-34.315
X-75.559 Y-33.624
X-75.558 Y-33.614
X-75.465 Y-32.901
X-75.464 Y-32.892
X-75.364 Y-32.158
X-75.363 Y-32.15
X-75.256 Y-31.395
X-75.255 Y-31.388
X-75.141 Y-30.613
X-75.14 Y-30.606
X-75.02 Y-29.811
X-75.019 Y-29.805
X-74.892 Y-28.991
X-74.891 Y-28.985
X-74.758 Y-28.152
Y-28.147
X-74.619 Y-27.296
X-74.618 Y-27.291
X-74.474 Y-26.421
X-74.473 Y-26.417
X-74.324 Y-25.53
X-74.323 Y-25.526
X-74.169 Y-24.622
X-74.168 Y-24.618
X-74.008 Y-23.698
Y-23.695
X-73.843 Y-22.759
Y-22.756
X-73.674 Y-21.804
Y-21.802
X-73.5 Y-20.836
Y-20.834
X-73.323 Y-19.855
Y-19.853
X-73.142 Y-18.86
X-73.141 Y-18.858
X-72.957 Y-17.854
Y-17.852
X-72.769 Y-16.837
Y-16.835
X-72.578 Y-15.809
Y-15.807
X-72.384 Y-14.771
Y-14.769
X-71.989 Y-12.67
Y-12.668
X-71.586 Y-10.539
Y-10.538
X-71.176 Y-8.386
Y-8.385
X-70.761 Y-6.218
Y-6.216
X-69.924 Y-1.862
X-69.505 Y0.312
X-69.088 Y2.472
X-68.675 Y4.614
X-68.266 Y6.729
X-67.862 Y8.812
X-67.663 Y9.839
X-67.466 Y10.856
X-67.271 Y11.861
X-67.077 Y12.855
X-66.887 Y13.835
X-66.698 Y14.802
X-66.511 Y15.755
X-66.328 Y16.693
X-66.146 Y17.616
Y17.617
X-65.968 Y18.522
X-65.792 Y19.411
Y19.413
X-65.618 Y20.284
Y20.285
X-65.448 Y21.138
Y21.14
X-65.28 Y21.974
Y21.976
X-65.116 Y22.791
X-65.115 Y22.793
X-64.954 Y23.588
X-64.953 Y23.59
X-64.794 Y24.366
Y24.368
X-64.638 Y25.122
X-64.637 Y25.125
X-64.485 Y25.859
X-64.484 Y25.862
X-64.334 Y26.574
X-64.333 Y26.578
X-64.186 Y27.268
X-64.185 Y27.272
X-64.04 Y27.941
X-64.039 Y27.945
X-63.898 Y28.591
X-63.896 Y28.597
X-63.757 Y29.22
X-63.756 Y29.226
X-63.619 Y29.827
X-63.618 Y29.834
X-63.484 Y30.412
X-63.482 Y30.42
X-63.35 Y30.975
X-63.348 Y30.984
X-63.218 Y31.516
X-63.215 Y31.527
X-63.087 Y32.036
X-63.084 Y32.048
X-62.958 Y32.535
X-62.955 Y32.548
X-62.83 Y33.013
X-62.826 Y33.028
X-62.702 Y33.47
X-62.698 Y33.487
X-62.575 Y33.907
X-62.57 Y33.926
X-62.448 Y34.326
X-62.441 Y34.348
X-62.32 Y34.726
X-62.312 Y34.75
X-62.191 Y35.107
X-62.181 Y35.135
X-62.06 Y35.472
X-62.049 Y35.503
X-61.927 Y35.821
X-61.914 Y35.855
X-61.791 Y36.154
X-61.775 Y36.193
X-61.651 Y36.474
X-61.632 Y36.516
X-61.506 Y36.779
X-61.484 Y36.824
X-61.357 Y37.072
X-61.33 Y37.121
X-61.2 Y37.353
X-61.17 Y37.405
X-61.038 Y37.621
X-61.002 Y37.677
X-60.866 Y37.88
X-60.827 Y37.935
X-60.688 Y38.125
X-60.644 Y38.182
X-60.5 Y38.361
X-60.453 Y38.417
X-60.305 Y38.584
X-60.255 Y38.638
X-60.102 Y38.795
X-60.051 Y38.846
X-59.892 Y38.995
X-59.816 Y39.062
X-59.481 Y39.338
X-59.386 Y39.411
X-59.025 Y39.666
X-58.946 Y39.718
X-58.555 Y39.96
X-58.497 Y39.995
X-58.073 Y40.233
X-58.035 Y40.254
X-57.577 Y40.495
X-57.556 Y40.506
X-57.061 Y40.758
X-57.053 Y40.762
X-56.791 Y40.893
X-56.79 Y40.894
X-56.518 Y41.03
X-56.238 Y41.17
X-55.949 Y41.316
X-55.651 Y41.466
X-55.344 Y41.622
X-55.028 Y41.783
X-54.703 Y41.951
X-54.368 Y42.124
X-54.025 Y42.303
X-53.672 Y42.489
X-53.311 Y42.679
X-52.561 Y43.078
X-51.779 Y43.495
X-50.968 Y43.929
X-50.967 Y43.93
X-50.131 Y44.377
X-50.127 Y44.379
X-49.269 Y44.834
X-49.264 Y44.837
X-48.387 Y45.298
X-48.378 Y45.303
X-47.486 Y45.765
X-47.474 Y45.771
X-46.569 Y46.231
X-46.555 Y46.238
X-45.64 Y46.692
X-45.623 Y46.7
X-44.701 Y47.144
X-44.681 Y47.154
X-43.755 Y47.583
X-43.731 Y47.594
X-42.804 Y48.006
X-42.775 Y48.018
X-41.85 Y48.407
X-41.817 Y48.421
X-40.897 Y48.784
X-40.859 Y48.799
X-39.945 Y49.133
X-39.901 Y49.148
X-38.997 Y49.449
X-38.947 Y49.464
X-38.053 Y49.729
X-38.012 Y49.741
X-37.57 Y49.859
X-37.541 Y49.867
X-37.102 Y49.975
X-37.071 Y49.983
X-36.635 Y50.081
X-36.603 Y50.088
X-36.171 Y50.177
X-36.138 Y50.183
X-35.71 Y50.261
X-35.675 Y50.267
X-35.25 Y50.335
G2 X-34.75 Y50.335 I0.25 J-1.568
G1 X-34.325 Y50.267
X-34.29 Y50.261
X-33.862 Y50.183
X-33.829 Y50.177
X-33.397 Y50.088
X-33.365 Y50.081
X-32.929 Y49.983
X-32.898 Y49.975
X-32.459 Y49.867
X-32.43 Y49.859
X-31.988 Y49.741
X-31.947 Y49.729
X-31.053 Y49.464
X-31.003 Y49.449
X-30.099 Y49.148
X-30.055 Y49.133
X-29.141 Y48.799
X-29.103 Y48.784
X-28.183 Y48.421
X-28.15 Y48.407
X-27.225 Y48.018
X-27.196 Y48.006
X-26.269 Y47.594
X-26.245 Y47.583
X-25.319 Y47.154
X-25.299 Y47.144
X-24.377 Y46.7
X-24.36 Y46.692
X-23.445 Y46.238
X-23.431 Y46.231
X-22.526 Y45.771
X-22.514 Y45.765
X-21.622 Y45.303
X-21.613 Y45.298
X-20.736 Y44.837
X-20.731 Y44.834
X-19.873 Y44.379
X-19.869 Y44.377
X-19.033 Y43.93
X-19.032 Y43.929
X-18.221 Y43.495
X-17.439 Y43.078
X-16.689 Y42.679
X-16.328 Y42.489
X-15.975 Y42.303
X-15.632 Y42.124
X-15.297 Y41.951
X-14.972 Y41.783
X-14.656 Y41.622
X-14.349 Y41.466
X-14.051 Y41.316
X-13.762 Y41.17
X-13.482 Y41.03
X-13.21 Y40.894
X-13.209 Y40.893
X-12.947 Y40.762
X-12.939 Y40.758
X-12.444 Y40.506
X-12.423 Y40.495
X-11.965 Y40.254
X-11.927 Y40.233
X-11.503 Y39.995
X-11.445 Y39.96
X-11.054 Y39.718
X-10.975 Y39.666
X-10.614 Y39.411
X-10.519 Y39.338
X-10.184 Y39.062
X-10.108 Y38.995
X-9.949 Y38.846
X-9.898 Y38.795
X-9.745 Y38.638
X-9.695 Y38.584
X-9.547 Y38.417
X-9.5 Y38.361
X-9.356 Y38.182
X-9.312 Y38.125
X-9.173 Y37.935
X-9.134 Y37.88
X-8.998 Y37.677
X-8.962 Y37.621
X-8.83 Y37.405
X-8.8 Y37.353
X-8.67 Y37.121
X-8.643 Y37.072
X-8.516 Y36.825
X-8.494 Y36.779
X-8.368 Y36.516
X-8.349 Y36.474
X-8.225 Y36.193
X-8.209 Y36.155
X-8.087 Y35.855
X-8.073 Y35.821
X-7.951 Y35.503
X-7.94 Y35.472
X-7.819 Y35.135
X-7.809 Y35.107
X-7.688 Y34.75
X-7.68 Y34.725
X-7.559 Y34.347
X-7.552 Y34.326
X-7.43 Y33.927
X-7.425 Y33.907
X-7.302 Y33.487
X-7.298 Y33.47
X-7.174 Y33.028
X-7.17 Y33.012
X-7.045 Y32.548
X-7.042 Y32.535
X-6.916 Y32.048
X-6.913 Y32.036
X-6.785 Y31.527
X-6.782 Y31.516
X-6.652 Y30.984
X-6.65 Y30.975
X-6.518 Y30.42
X-6.516 Y30.412
X-6.382 Y29.834
X-6.381 Y29.827
X-6.244 Y29.226
X-6.243 Y29.22
X-6.104 Y28.597
X-6.102 Y28.591
X-5.961 Y27.945
X-5.96 Y27.941
X-5.815 Y27.272
X-5.814 Y27.268
X-5.667 Y26.578
X-5.666 Y26.574
X-5.516 Y25.862
X-5.515 Y25.859
X-5.363 Y25.125
X-5.362 Y25.123
X-5.206 Y24.368
Y24.365
X-5.047 Y23.59
X-5.046 Y23.588
X-4.885 Y22.793
X-4.884 Y22.791
X-4.72 Y21.976
Y21.974
X-4.552 Y21.14
Y21.138
X-4.382 Y20.285
X-4.381 Y20.284
X-4.208 Y19.413
Y19.412
X-4.032 Y18.523
Y18.522
X-3.854 Y17.617
X-3.672 Y16.694
X-3.489 Y15.756
X-3.302 Y14.803
X-3.114 Y13.836
X-2.923 Y12.855
X-2.729 Y11.862
X-2.534 Y10.856
X-2.337 Y9.84
X-2.138 Y8.812
X-1.734 Y6.73
X-1.325 Y4.614
X-0.912 Y2.473
X-0.495 Y0.312
X-0.076 Y-1.861
X0.761 Y-6.216
Y-6.218
X1.176 Y-8.385
Y-8.386
X1.586 Y-10.538
Y-10.539
X1.989 Y-12.668
Y-12.67
X2.384 Y-14.769
Y-14.771
X2.578 Y-15.807
Y-15.809
X2.769 Y-16.835
Y-16.837
X2.957 Y-17.852
Y-17.854
X3.141 Y-18.858
X3.142 Y-18.86
X3.323 Y-19.853
Y-19.855
X3.5 Y-20.834
Y-20.836
G3 X3.869 Y-21.093 I0.313 J0.056
G1 X4.182 Y-21.037
X4.251 Y-21.024 Z-0.992
X4.317 Y-21.012 Z-0.969
X4.376 Y-21.002 Z-0.931
X4.426 Y-20.993 Z-0.88
X4.463 Y-20.986 Z-0.82
X4.486 Y-20.982 Z-0.753
X4.494 Y-20.981 Z-0.683
G0 Z5
X-4.382 Y20.356
G1 Z1 F333.3
Z-0.683
X-4.374 Y20.357 Z-0.753 F381
X-4.351 Y20.361 Z-0.82
X-4.314 Y20.368 Z-0.88
X-4.264 Y20.377 Z-0.931
X-4.205 Y20.387 Z-0.969
X-4.139 Y20.399 Z-0.992
X-4.069 Y20.412 Z-1
X-3.757 Y20.468
G3 X-3.5 Y20.836 I-0.056 J0.313
G1 X-3.674 Y21.802
Y21.804
X-3.843 Y22.756
Y22.758
X-4.008 Y23.694
Y23.698
X-4.168 Y24.618
X-4.169 Y24.622
X-4.323 Y25.526
X-4.324 Y25.53
X-4.473 Y26.417
X-4.474 Y26.421
X-4.618 Y27.291
X-4.619 Y27.296
X-4.758 Y28.147
Y28.152
X-4.891 Y28.985
X-4.892 Y28.991
X-5.019 Y29.805
X-5.02 Y29.811
X-5.14 Y30.606
X-5.141 Y30.613
X-5.255 Y31.388
X-5.256 Y31.395
X-5.363 Y32.149
X-5.364 Y32.158
X-5.464 Y32.892
X-5.465 Y32.901
X-5.558 Y33.614
X-5.559 Y33.624
X-5.645 Y34.315
X-5.646 Y34.327
X-5.724 Y34.996
X-5.726 Y35.009
X-5.796 Y35.657
X-5.797 Y35.671
X-5.86 Y36.297
X-5.861 Y36.313
X-5.915 Y36.917
X-5.917 Y36.934
X-5.962 Y37.517
X-5.964 Y37.536
X-6.001 Y38.096
X-6.002 Y38.117
X-6.031 Y38.655
X-6.032 Y38.679
X-6.052 Y39.195
X-6.053 Y39.221
X-6.063 Y39.715
X-6.064 Y39.744
X-6.065 Y40.217
Y40.25
X-6.057 Y40.701
X-6.056 Y40.737
X-6.039 Y41.167
X-6.037 Y41.207
X-6.01 Y41.616
X-6.007 Y41.661
X-5.97 Y42.05
X-5.965 Y42.099
X-5.919 Y42.468
X-5.911 Y42.523
X-5.855 Y42.872
X-5.844 Y42.932
X-5.778 Y43.262
X-5.763 Y43.327
X-5.687 Y43.64
X-5.668 Y43.71
X-5.582 Y44.005
X-5.558 Y44.08
X-5.461 Y44.358
X-5.432 Y44.437
X-5.325 Y44.699
X-5.288 Y44.781
X-5.171 Y45.028
X-5.128 Y45.111
X-5 Y45.343
X-4.95 Y45.428
X-4.812 Y45.645
X-4.756 Y45.728
X-4.607 Y45.933
X-4.545 Y46.013
X-4.386 Y46.205
X-4.319 Y46.28
X-4.149 Y46.46
X-4.08 Y46.53
X-3.899 Y46.698
X-3.828 Y46.762
X-3.637 Y46.92
X-3.565 Y46.976
X-3.364 Y47.124
X-3.294 Y47.173
X-3.082 Y47.313
X-3.013 Y47.355
X-2.791 Y47.486
X-2.726 Y47.522
X-2.492 Y47.645
X-2.432 Y47.675
X-2.188 Y47.791
X-2.131 Y47.817
X-1.876 Y47.925
X-1.823 Y47.946
X-1.558 Y48.049
X-1.51 Y48.066
X-1.234 Y48.162
X-1.189 Y48.177
X-0.902 Y48.268
X-0.862 Y48.28
X-0.564 Y48.365
X-0.528 Y48.375
X-0.22 Y48.455
X-0.186 Y48.464
X0.133 Y48.54
X0.163 Y48.546
X0.492 Y48.618
X0.519 Y48.624
X0.859 Y48.692
X0.884 Y48.696
X1.235 Y48.761
X1.257 Y48.764
X1.618 Y48.825
X1.638 Y48.828
X2.01 Y48.886
X2.028 Y48.889
X2.41 Y48.944
X2.427 Y48.946
X2.819 Y48.998
X2.833 Y49
X3.236 Y49.05
X3.25 Y49.051
X3.663 Y49.099
X3.675 Y49.1
X4.099 Y49.146
X4.11 Y49.147
X4.544 Y49.19
X4.553 Y49.191
X4.997 Y49.233
X5.006 Y49.234
X5.461 Y49.274
X5.468 Y49.275
X5.933 Y49.314
X5.939 Y49.315
X6.414 Y49.353
X6.421
X6.906 Y49.39
X6.911
X7.406 Y49.426
X7.413
X8.433 Y49.495
X8.441 Y49.496
X9.501 Y49.562
X9.507
X10.606 Y49.626
X10.611 Y49.627
X11.749 Y49.689
X11.754
X12.929 Y49.749
X12.934 Y49.75
X14.147 Y49.809
X14.151
X15.403 Y49.866
X15.407
X16.695 Y49.922
X16.699
X18.024 Y49.976
X18.028 Y49.977
X19.39 Y50.028
X19.394
X20.791 Y50.078
X20.796
X22.229 Y50.124
X22.234 Y50.125
X23.702 Y50.168
X23.707
X25.211 Y50.208
X25.216
X26.754 Y50.244
X26.759
X28.333 Y50.275
X28.338
X29.945 Y50.302
X29.95 Y50.303
X31.592 Y50.325
X31.597
X33.273 Y50.342
X33.278
X34.989 Y50.355
X35.011
X36.722 Y50.342
X36.727
X38.403 Y50.325
X38.408
X40.05 Y50.303
X40.055 Y50.302
X41.662 Y50.275
X41.667
X43.241 Y50.244
X43.246
X44.784 Y50.208
X44.789
X46.293 Y50.168
X46.298
X47.766 Y50.125
X47.771 Y50.124
X49.204 Y50.078
X49.209
X50.606 Y50.028
X50.61
X51.972 Y49.977
X51.976 Y49.976
X53.301 Y49.922
X53.305
X54.593 Y49.866
X54.597
X55.849 Y49.809
X55.853
X57.066 Y49.75
X57.071 Y49.749
X58.246 Y49.689
X58.251
X59.389 Y49.627
X59.394 Y49.626
X60.493 Y49.562
X60.499
X61.559 Y49.496
X61.567 Y49.495
X62.587 Y49.426
X62.594
X63.089 Y49.39
X63.094
X63.579 Y49.353
X63.586
X64.061 Y49.315
X64.067 Y49.314
X64.532 Y49.275
X64.539 Y49.274
X64.994 Y49.234
X65.003 Y49.233
X65.447 Y49.191
X65.456 Y49.19
X65.89 Y49.147
X65.901 Y49.146
X66.325 Y49.1
X66.337 Y49.099
X66.75 Y49.051
X66.764 Y49.05
X67.167 Y49
X67.181 Y48.998
X67.573 Y48.946
X67.59 Y48.944
X67.972 Y48.889
X67.99 Y48.886
X68.362 Y48.828
X68.382 Y48.825
X68.743 Y48.764
X68.765 Y48.761
X69.116 Y48.696
X69.141 Y48.692
X69.481 Y48.624
X69.508 Y48.618
X69.837 Y48.547
X69.867 Y48.54
X70.186 Y48.464
X70.22 Y48.455
X70.528 Y48.375
X70.564 Y48.365
X70.862 Y48.28
X70.902 Y48.268
X71.189 Y48.177
X71.233 Y48.162
X71.51 Y48.066
X71.558 Y48.049
X71.823 Y47.946
X71.876 Y47.925
X72.131 Y47.817
X72.188 Y47.791
X72.432 Y47.675
X72.492 Y47.645
X72.726 Y47.522
X72.791 Y47.486
X73.014 Y47.355
X73.082 Y47.313
X73.294 Y47.173
X73.364 Y47.124
X73.565 Y46.976
X73.636 Y46.92
X73.827 Y46.762
X73.899 Y46.699
X74.079 Y46.53
X74.149 Y46.46
X74.319 Y46.28
X74.386 Y46.205
X74.545 Y46.013
X74.607 Y45.932
X74.756 Y45.728
X74.812 Y45.645
X74.95 Y45.428
X75 Y45.343
X75.128 Y45.112
X75.171 Y45.028
X75.288 Y44.781
X75.325 Y44.699
X75.432 Y44.437
X75.462 Y44.358
X75.558 Y44.08
X75.582 Y44.005
X75.668 Y43.71
X75.687 Y43.64
X75.763 Y43.327
X75.778 Y43.262
X75.844 Y42.932
X75.855 Y42.872
X75.911 Y42.522
X75.918 Y42.469
X75.965 Y42.1
X75.97 Y42.05
X76.007 Y41.661
X76.01 Y41.616
X76.037 Y41.207
X76.039 Y41.167
X76.056 Y40.737
X76.057 Y40.701
X76.065 Y40.25
Y40.217
X76.064 Y39.744
X76.063 Y39.715
X76.053 Y39.221
X76.052 Y39.195
X76.032 Y38.679
X76.031 Y38.655
X76.002 Y38.117
X76.001 Y38.096
X75.964 Y37.536
X75.963 Y37.517
X75.917 Y36.934
X75.915 Y36.917
X75.861 Y36.313
X75.86 Y36.297
X75.797 Y35.671
X75.796 Y35.657
X75.726 Y35.009
X75.724 Y34.997
X75.646 Y34.327
X75.645 Y34.315
X75.559 Y33.624
X75.558 Y33.614
X75.465 Y32.901
X75.464 Y32.892
X75.364 Y32.158
X75.363 Y32.15
X75.256 Y31.395
X75.255 Y31.388
X75.141 Y30.613
X75.14 Y30.606
X75.02 Y29.811
X75.019 Y29.805
X74.892 Y28.991
X74.891 Y28.985
X74.758 Y28.152
Y28.147
X74.619 Y27.296
X74.618 Y27.291
X74.474 Y26.421
X74.473 Y26.417
X74.324 Y25.53
X74.323 Y25.526
X74.169 Y24.622
X74.168 Y24.618
X74.008 Y23.698
Y23.695
X73.843 Y22.759
Y22.756
X73.674 Y21.804
Y21.802
X73.5 Y20.836
Y20.834
X73.323 Y19.855
Y19.853
X73.142 Y18.86
X73.141 Y18.858
X72.957 Y17.854
Y17.852
X72.769 Y16.837
Y16.835
X72.578 Y15.809
Y15.807
X72.384 Y14.771
Y14.769
X71.989 Y12.67
Y12.668
X71.586 Y10.539
Y10.538
X71.176 Y8.386
Y8.385
X70.761 Y6.218
Y6.216
X69.924 Y1.862
X69.505 Y-0.312
X69.088 Y-2.472
X68.675 Y-4.614
X68.266 Y-6.729
X67.862 Y-8.812
X67.663 Y-9.839
X67.466 Y-10.856
X67.271 Y-11.861
X67.077 Y-12.855
X66.887 Y-13.835
X66.698 Y-14.802
X66.511 Y-15.755
X66.328 Y-16.693
X66.146 Y-17.616
Y-17.617
X65.968 Y-18.522
X65.792 Y-19.411
Y-19.413
X65.618 Y-20.284
Y-20.285
X65.448 Y-21.138
Y-21.14
X65.28 Y-21.974
Y-21.976
X65.116 Y-22.791
X65.115 Y-22.793
X64.954 Y-23.588
X64.953 Y-23.59
X64.794 Y-24.366
Y-24.368
X64.638 Y-25.122
X64.637 Y-25.125
X64.485 Y-25.859
X64.484 Y-25.862
X64.334 Y-26.574
X64.333 Y-26.578
X64.186 Y-27.268
X64.185 Y-27.272
X64.04 Y-27.941
X64.039 Y-27.945
X63.898 Y-28.591
X63.896 Y-28.597
X63.757 Y-29.22
X63.756 Y-29.226
X63.619 Y-29.827
X63.618 Y-29.834
X63.484 Y-30.412
X63.482 Y-30.42
X63.35 Y-30.975
X63.348 Y-30.984
X63.218 Y-31.516
X63.215 Y-31.527
X63.087 Y-32.036
X63.084 Y-32.048
X62.958 Y-32.535
X62.955 Y-32.548
X62.83 Y-33.013
X62.826 Y-33.028
X62.702 Y-33.47
X62.698 Y-33.487
X62.575 Y-33.907
X62.57 Y-33.926
X62.448 Y-34.326
X62.441 Y-34.348
X62.32 Y-34.726
X62.312 Y-34.75
X62.191 Y-35.107
X62.181 Y-35.135
X62.06 Y-35.472
X62.049 Y-35.503
X61.927 Y-35.821
X61.914 Y-35.855
X61.791 Y-36.154
X61.775 Y-36.193
X61.651 Y-36.474
X61.632 Y-36.516
X61.506 Y-36.779
X61.484 Y-36.824
X61.357 Y-37.072
X61.33 Y-37.121
X61.2 Y-37.353
X61.17 Y-37.405
X61.038 Y-37.621
X61.002 Y-37.677
X60.866 Y-37.88
X60.827 Y-37.935
X60.688 Y-38.125
X60.644 Y-38.182
X60.5 Y-38.361
X60.453 Y-38.417
X60.305 Y-38.584
X60.255 Y-38.638
X60.102 Y-38.795
X60.051 Y-38.846
X59.892 Y-38.995
X59.816 Y-39.062
X59.481 Y-39.338
X59.386 Y-39.411
X59.025 Y-39.666
X58.946 Y-39.718
X58.555 Y-39.96
X58.497 Y-39.995
X58.073 Y-40.233
X58.035 Y-40.254
X57.577 Y-40.495
X57.556 Y-40.506
X57.061 Y-40.758
X57.053 Y-40.762
X56.791 Y-40.893
X56.79 Y-40.894
X56.518 Y-41.03
X56.238 Y-41.17
X55.949 Y-41.316
X55.651 Y-41.466
X55.344 Y-41.622
X55.028 Y-41.783
X54.703 Y-41.951
X54.368 Y-42.124
X54.025 Y-42.303
X53.672 Y-42.489
X53.311 Y-42.679
X52.561 Y-43.078
X51.779 Y-43.495
X50.968 Y-43.929
X50.967 Y-43.93
X50.131 Y-44.377
X50.127 Y-44.379
X49.269 Y-44.834
X49.264 Y-44.837
X48.387 Y-45.298
X48.378 Y-45.303
X47.486 Y-45.765
X47.474 Y-45.771
X46.569 Y-46.231
X46.555 Y-46.238
X45.64 Y-46.692
X45.623 Y-46.7
X44.701 Y-47.144
X44.681 Y-47.154
X43.755 Y-47.583
X43.731 Y-47.594
X42.804 Y-48.006
X42.775 Y-48.018
X41.85 Y-48.407
X41.817 Y-48.421
X40.897 Y-48.784
X40.859 Y-48.799
X39.945 Y-49.133
X39.901 Y-49.148
X38.997 Y-49.449
X38.947 Y-49.464
X38.053 Y-49.729
X38.012 Y-49.741
X37.57 Y-49.859
X37.541 Y-49.867
X37.102 Y-49.975
X37.071 Y-49.983
X36.635 Y-50.081
X36.603 Y-50.088
X36.171 Y-50.177
X36.138 Y-50.183
X35.71 Y-50.261
X35.675 Y-50.267
X35.25 Y-50.335
G2 X34.75 Y-50.335 I-0.25 J1.568
G1 X34.325 Y-50.267
X34.29 Y-50.261
X33.862 Y-50.183
X33.829 Y-50.177
X33.397 Y-50.088
X33.365 Y-50.081
X32.929 Y-49.983
X32.898 Y-49.975
X32.459 Y-49.867
X32.43 Y-49.859
X31.988 Y-49.741
X31.947 Y-49.729
X31.053 Y-49.464
X31.003 Y-49.449
X30.099 Y-49.148
X30.055 Y-49.133
X29.141 Y-48.799
X29.103 Y-48.784
X28.183 Y-48.421
X28.15 Y-48.407
X27.225 Y-48.018
X27.196 Y-48.006
X26.269 Y-47.594
X26.245 Y-47.583
X25.319 Y-47.154
X25.299 Y-47.144
X24.377 Y-46.7
X24.36 Y-46.692
X23.445 Y-46.238
X23.431 Y-46.231
X22.526 Y-45.771
X22.514 Y-45.765
X21.622 Y-45.303
X21.613 Y-45.298
X20.736 Y-44.837
X20.731 Y-44.834
X19.873 Y-44.379
X19.869 Y-44.377
X19.033 Y-43.93
X19.032 Y-43.929
X18.221 Y-43.495
X17.439 Y-43.078
X16.689 Y-42.679
X16.328 Y-42.489
X15.975 Y-42.303
X15.632 Y-42.124
X15.297 Y-41.951
X14.972 Y-41.783
X14.656 Y-41.622
X14.349 Y-41.466
X14.051 Y-41.316
X13.762 Y-41.17
X13.482 Y-41.03
X13.21 Y-40.894
X13.209 Y-40.893
X12.947 Y-40.762
X12.939 Y-40.758
X12.444 Y-40.506
X12.423 Y-40.495
X11.965 Y-40.254
X11.927 Y-40.233
X11.503 Y-39.995
X11.445 Y-39.96
X11.054 Y-39.718
X10.975 Y-39.666
X10.614 Y-39.411
X10.519 Y-39.338
X10.184 Y-39.062
X10.108 Y-38.995
X9.949 Y-38.846
X9.898 Y-38.795
X9.745 Y-38.638
X9.695 Y-38.584
X9.547 Y-38.417
X9.5 Y-38.361
X9.356 Y-38.182
X9.312 Y-38.125
X9.173 Y-37.935
X9.134 Y-37.88
X8.998 Y-37.677
X8.962 Y-37.621
X8.83 Y-37.405
X8.8 Y-37.353
X8.67 Y-37.121
X8.643 Y-37.072
X8.516 Y-36.825
X8.494 Y-36.779
X8.368 Y-36.516
X8.349 Y-36.474
X8.225 Y-36.193
X8.209 Y-36.155
X8.087 Y-35.855
X8.073 Y-35.821
X7.951 Y-35.503
X7.94 Y-35.472
X7.819 Y-35.135
X7.809 Y-35.107
X7.688 Y-34.75
X7.68 Y-34.725
X7.559 Y-34.347
X7.552 Y-34.326
X7.43 Y-33.927
X7.425 Y-33.907
X7.302 Y-33.487
X7.298 Y-33.47
X7.174 Y-33.028
X7.17 Y-33.012
X7.045 Y-32.548
X7.042 Y-32.535
X6.916 Y-32.048
X6.913 Y-32.036
X6.785 Y-31.527
X6.782 Y-31.516
X6.652 Y-30.984
X6.65 Y-30.975
X6.518 Y-30.42
X6.516 Y-30.412
X6.382 Y-29.834
X6.381 Y-29.827
X6.244 Y-29.226
X6.243 Y-29.22
X6.104 Y-28.597
X6.102 Y-28.591
X5.961 Y-27.945
X5.96 Y-27.941
X5.815 Y-27.272
X5.814 Y-27.268
X5.667 Y-26.578
X5.666 Y-26.574
X5.516 Y-25.862
X5.515 Y-25.859
X5.363 Y-25.125
X5.362 Y-25.123
X5.206 Y-24.368
Y-24.365
X5.047 Y-23.59
X5.046 Y-23.588
X4.885 Y-22.793
X4.884 Y-22.791
X4.72 Y-21.976
Y-21.974
X4.552 Y-21.14
Y-21.138
X4.382 Y-20.285
X4.381 Y-20.284
X4.208 Y-19.413
Y-19.412
X4.032 Y-18.523
Y-18.522
X3.854 Y-17.617
X3.672 Y-16.694
X3.489 Y-15.756
X3.302 Y-14.803
X3.114 Y-13.836
X2.923 Y-12.855
X2.729 Y-11.862
X2.534 Y-10.856
X2.337 Y-9.84
X2.138 Y-8.812
X1.734 Y-6.73
X1.325 Y-4.614
X0.912 Y-2.473
X0.495 Y-0.312
X0.076 Y1.861
X-0.761 Y6.216
Y6.218
X-1.176 Y8.385
Y8.386
X-1.586 Y10.538
Y10.539
X-1.989 Y12.668
Y12.67
X-2.384 Y14.769
Y14.771
X-2.578 Y15.807
Y15.809
X-2.769 Y16.835
Y16.837
X-2.957 Y17.852
Y17.854
X-3.141 Y18.858
X-3.142 Y18.86
X-3.323 Y19.853
Y19.855
X-3.5 Y20.834
Y20.836
G3 X-3.869 Y21.093 I-0.313 J-0.056
G1 X-4.182 Y21.037
X-4.251 Y21.024 Z-0.992
X-4.317 Y21.012 Z-0.969
X-4.376 Y21.002 Z-0.931
X-4.426 Y20.993 Z-0.88
X-4.463 Y20.986 Z-0.82
X-4.486 Y20.982 Z-0.753
X-4.494 Y20.981 Z-0.683
G0 Z5
X-146.037 Y30.16
G1 Z1 F333.3
Z-0.683
X-146.029 Y30.161 Z-0.753 F381
X-146.006 Y30.164 Z-0.82
X-145.968 Y30.17 Z-0.88
X-145.918 Y30.177 Z-0.931
X-145.859 Y30.186 Z-0.969
X-145.792 Y30.196 Z-0.992
X-145.723 Y30.206 Z-1
X-145.408 Y30.252
G3 X-145.141 Y30.612 I-0.046 J0.314
G1 X-145.255 Y31.387
X-145.256 Y31.395
X-145.363 Y32.15
X-145.364 Y32.158
X-145.464 Y32.892
X-145.465 Y32.901
X-145.558 Y33.613
X-145.559 Y33.623
X-145.645 Y34.314
X-145.647 Y34.327
X-145.725 Y34.996
X-145.726 Y35.01
X-145.796 Y35.658
X-145.798 Y35.672
X-145.86 Y36.298
X-145.861 Y36.313
X-145.915 Y36.917
X-145.917 Y36.934
X-145.963 Y37.516
X-145.964 Y37.536
X-146.001 Y38.096
X-146.002 Y38.116
X-146.031 Y38.654
X-146.032 Y38.681
X-146.051 Y39.197
X-146.052 Y39.22
X-146.063 Y39.714
Y39.743
X-146.065 Y40.216
Y40.25
X-146.057 Y40.702
X-146.056 Y40.736
X-146.039 Y41.166
X-146.037 Y41.208
X-146.01 Y41.617
X-146.007 Y41.659
X-145.971 Y42.048
X-145.965 Y42.102
X-145.918 Y42.471
X-145.911 Y42.522
X-145.855 Y42.872
X-145.844 Y42.931
X-145.778 Y43.262
X-145.764 Y43.326
X-145.688 Y43.639
X-145.668 Y43.713
X-145.581 Y44.008
X-145.559 Y44.077
X-145.463 Y44.355
X-145.432 Y44.437
X-145.325 Y44.699
X-145.289 Y44.78
X-145.172 Y45.026
X-145.128 Y45.113
X-145 Y45.345
X-144.951 Y45.427
X-144.813 Y45.645
X-144.755 Y45.73
X-144.606 Y45.934
X-144.545 Y46.012
X-144.386 Y46.204
X-144.318 Y46.281
X-144.148 Y46.461
X-144.08 Y46.528
X-143.9 Y46.697
X-143.827 Y46.762
X-143.636 Y46.92
X-143.564 Y46.977
X-143.362 Y47.125
X-143.294 Y47.173
X-143.082 Y47.312
X-143.013 Y47.355
X-142.79 Y47.486
X-142.727 Y47.521
X-142.494 Y47.644
X-142.431 Y47.676
X-142.186 Y47.792
X-142.13 Y47.817
X-141.875 Y47.925
X-141.824 Y47.946
X-141.559 Y48.048
X-141.51 Y48.066
X-141.234 Y48.162
X-141.189 Y48.177
X-140.902 Y48.268
X-140.862 Y48.28
X-140.564 Y48.365
X-140.528 Y48.375
X-140.22 Y48.455
X-140.186 Y48.464
X-139.867 Y48.54
X-139.837 Y48.547
X-139.507 Y48.618
X-139.48 Y48.624
X-139.14 Y48.692
X-139.116 Y48.696
X-138.766 Y48.76
X-138.743 Y48.764
X-138.381 Y48.825
X-138.362 Y48.828
X-137.991 Y48.886
X-137.973 Y48.889
X-137.591 Y48.944
X-137.574 Y48.946
X-137.181 Y48.998
X-137.167 Y49
X-136.764 Y49.05
X-136.75 Y49.051
X-136.337 Y49.099
X-136.325 Y49.1
X-135.901 Y49.146
X-135.891 Y49.147
X-135.457 Y49.19
X-135.447 Y49.191
X-135.002 Y49.233
X-134.994 Y49.234
X-134.54 Y49.274
X-134.532 Y49.275
X-134.067 Y49.314
X-134.06 Y49.315
X-133.585 Y49.353
X-133.579
X-133.095 Y49.39
X-133.089
X-132.594 Y49.426
X-132.587
X-131.567 Y49.495
X-131.559 Y49.496
X-130.5 Y49.562
X-130.493
X-129.394 Y49.626
X-129.389 Y49.627
X-128.252 Y49.689
X-128.247
X-127.071 Y49.749
X-127.066 Y49.75
X-125.853 Y49.809
X-125.849
X-124.598 Y49.866
X-124.594
X-123.305 Y49.922
X-123.301
X-121.976 Y49.976
X-121.971 Y49.977
X-120.61 Y50.028
X-120.606
X-119.209 Y50.078
X-119.204
X-117.77 Y50.124
X-117.766 Y50.125
X-116.298 Y50.168
X-116.293
X-114.789 Y50.208
X-114.784
X-113.246 Y50.244
X-113.241
X-111.668 Y50.275
X-111.663
X-110.055 Y50.302
X-110.05 Y50.303
X-108.408 Y50.325
X-108.402
X-106.726 Y50.342
X-106.721
X-105.011 Y50.355
X-104.989
X-103.279 Y50.342
X-103.274
X-101.598 Y50.325
X-101.592
X-99.95 Y50.303
X-99.945 Y50.302
X-98.338 Y50.275
X-98.333
X-96.759 Y50.244
X-96.754
X-95.216 Y50.208
X-95.211
X-93.707 Y50.168
X-93.702
X-92.234 Y50.125
X-92.229 Y50.124
X-90.796 Y50.078
X-90.791
X-89.394 Y50.028
X-89.39
X-88.028 Y49.977
X-88.024 Y49.976
X-86.699 Y49.922
X-86.695
X-85.407 Y49.866
X-85.403
X-84.151 Y49.809
X-84.147
X-82.934 Y49.75
X-82.929 Y49.749
X-81.754 Y49.689
X-81.749
X-80.611 Y49.627
X-80.606 Y49.626
X-79.507 Y49.562
X-79.501
X-78.441 Y49.496
X-78.433 Y49.495
X-77.413 Y49.426
X-77.406
X-76.911 Y49.39
X-76.906
X-76.421 Y49.353
X-76.414
X-75.939 Y49.315
X-75.933 Y49.314
X-75.468 Y49.275
X-75.461 Y49.274
X-75.006 Y49.234
X-74.997 Y49.233
X-74.553 Y49.191
X-74.544 Y49.19
X-74.11 Y49.147
X-74.099 Y49.146
X-73.675 Y49.1
X-73.663 Y49.099
X-73.25 Y49.051
X-73.236 Y49.05
X-72.833 Y49
X-72.819 Y48.998
X-72.427 Y48.946
X-72.41 Y48.944
X-72.028 Y48.889
X-72.01 Y48.886
X-71.638 Y48.828
X-71.618 Y48.825
X-71.257 Y48.764
X-71.235 Y48.761
X-70.884 Y48.696
X-70.859 Y48.692
X-70.519 Y48.624
X-70.492 Y48.618
X-70.163 Y48.547
X-70.133 Y48.54
X-69.814 Y48.464
X-69.78 Y48.455
X-69.472 Y48.375
X-69.436 Y48.365
X-69.138 Y48.28
X-69.098 Y48.268
X-68.811 Y48.177
X-68.767 Y48.162
X-68.49 Y48.066
X-68.442 Y48.049
X-68.177 Y47.946
X-68.124 Y47.925
X-67.869 Y47.817
X-67.812 Y47.791
X-67.568 Y47.675
X-67.508 Y47.645
X-67.274 Y47.522
X-67.209 Y47.486
X-66.986 Y47.355
X-66.918 Y47.313
X-66.706 Y47.173
X-66.636 Y47.124
X-66.435 Y46.976
X-66.364 Y46.92
X-66.173 Y46.762
X-66.101 Y46.699
X-65.921 Y46.53
X-65.851 Y46.46
X-65.681 Y46.28
X-65.614 Y46.205
X-65.455 Y46.013
X-65.393 Y45.932
X-65.244 Y45.728
X-65.188 Y45.645
X-65.05 Y45.428
X-65 Y45.343
X-64.872 Y45.112
X-64.829 Y45.028
X-64.712 Y44.781
X-64.675 Y44.699
X-64.568 Y44.437
X-64.538 Y44.358
X-64.442 Y44.08
X-64.418 Y44.005
X-64.332 Y43.71
X-64.313 Y43.64
X-64.237 Y43.327
X-64.222 Y43.262
X-64.156 Y42.932
X-64.145 Y42.872
X-64.089 Y42.522
X-64.082 Y42.469
X-64.035 Y42.1
X-64.03 Y42.05
X-63.993 Y41.661
X-63.99 Y41.616
X-63.963 Y41.207
X-63.961 Y41.167
X-63.944 Y40.737
X-63.943 Y40.701
X-63.935 Y40.25
Y40.217
X-63.936 Y39.744
X-63.937 Y39.715
X-63.947 Y39.221
X-63.948 Y39.195
X-63.968 Y38.679
X-63.969 Y38.655
X-63.998 Y38.117
X-63.999 Y38.096
X-64.036 Y37.536
X-64.037 Y37.517
X-64.083 Y36.934
X-64.085 Y36.917
X-64.139 Y36.313
X-64.14 Y36.297
X-64.203 Y35.671
X-64.204 Y35.657
X-64.274 Y35.009
X-64.276 Y34.997
X-64.354 Y34.327
X-64.355 Y34.315
X-64.441 Y33.624
X-64.442 Y33.614
X-64.535 Y32.901
X-64.536 Y32.892
X-64.636 Y32.158
X-64.637 Y32.15
X-64.744 Y31.395
X-64.745 Y31.388
X-64.859 Y30.613
X-64.86 Y30.606
X-64.98 Y29.811
X-64.981 Y29.805
X-65.108 Y28.991
X-65.109 Y28.985
X-65.242 Y28.152
Y28.147
X-65.381 Y27.296
X-65.382 Y27.291
X-65.526 Y26.421
X-65.527 Y26.417
X-65.676 Y25.53
X-65.677 Y25.526
X-65.831 Y24.622
X-65.832 Y24.618
X-65.992 Y23.698
Y23.695
X-66.157 Y22.759
Y22.756
X-66.326 Y21.804
Y21.802
X-66.5 Y20.836
Y20.834
X-66.677 Y19.855
Y19.853
X-66.858 Y18.86
X-66.859 Y18.858
X-67.043 Y17.854
Y17.852
X-67.231 Y16.837
Y16.835
X-67.422 Y15.809
Y15.807
X-67.616 Y14.771
Y14.769
X-68.011 Y12.67
Y12.668
X-68.414 Y10.539
Y10.538
X-68.824 Y8.386
Y8.385
X-69.239 Y6.218
Y6.216
X-70.076 Y1.862
X-70.495 Y-0.312
X-70.912 Y-2.472
X-71.325 Y-4.614
X-71.734 Y-6.729
X-72.138 Y-8.812
X-72.337 Y-9.839
X-72.534 Y-10.856
X-72.729 Y-11.861
X-72.923 Y-12.855
X-73.113 Y-13.835
X-73.302 Y-14.802
X-73.489 Y-15.755
X-73.672 Y-16.693
X-73.854 Y-17.616
Y-17.617
X-74.032 Y-18.522
X-74.208 Y-19.411
Y-19.413
X-74.382 Y-20.284
Y-20.285
X-74.552 Y-21.138
Y-21.14
X-74.72 Y-21.974
Y-21.976
X-74.884 Y-22.791
X-74.885 Y-22.793
X-75.046 Y-23.588
X-75.047 Y-23.59
X-75.206 Y-24.366
Y-24.368
X-75.362 Y-25.122
X-75.363 Y-25.125
X-75.515 Y-25.859
X-75.516 Y-25.862
X-75.666 Y-26.574
X-75.667 Y-26.578
X-75.814 Y-27.268
X-75.815 Y-27.272
X-75.96 Y-27.941
X-75.961 Y-27.945
X-76.102 Y-28.591
X-76.104 Y-28.597
X-76.243 Y-29.22
X-76.244 Y-29.226
X-76.381 Y-29.827
X-76.382 Y-29.834
X-76.516 Y-30.412
X-76.518 Y-30.42
X-76.65 Y-30.975
X-76.652 Y-30.984
X-76.782 Y-31.516
X-76.785 Y-31.527
X-76.913 Y-32.036
X-76.916 Y-32.048
X-77.042 Y-32.535
X-77.045 Y-32.548
X-77.17 Y-33.013
X-77.174 Y-33.028
X-77.298 Y-33.47
X-77.302 Y-33.487
X-77.425 Y-33.907
X-77.43 Y-33.926
X-77.552 Y-34.326
X-77.559 Y-34.348
X-77.68 Y-34.726
X-77.688 Y-34.75
X-77.809 Y-35.107
X-77.819 Y-35.135
X-77.94 Y-35.472
X-77.951 Y-35.503
X-78.073 Y-35.821
X-78.086 Y-35.855
X-78.209 Y-36.154
X-78.225 Y-36.193
X-78.349 Y-36.474
X-78.368 Y-36.516
X-78.494 Y-36.779
X-78.516 Y-36.824
X-78.643 Y-37.072
X-78.67 Y-37.121
X-78.8 Y-37.353
X-78.83 Y-37.405
X-78.962 Y-37.621
X-78.998 Y-37.677
X-79.134 Y-37.88
X-79.173 Y-37.935
X-79.312 Y-38.125
X-79.356 Y-38.182
X-79.5 Y-38.361
X-79.547 Y-38.417
X-79.695 Y-38.584
X-79.745 Y-38.638
X-79.898 Y-38.795
X-79.949 Y-38.846
X-80.108 Y-38.995
X-80.184 Y-39.062
X-80.519 Y-39.338
X-80.614 Y-39.411
X-80.975 Y-39.666
X-81.054 Y-39.718
X-81.445 Y-39.96
X-81.503 Y-39.995
X-81.927 Y-40.233
X-81.965 Y-40.254
X-82.423 Y-40.495
X-82.444 Y-40.506
X-82.939 Y-40.758
X-82.947 Y-40.762
X-83.209 Y-40.893
X-83.21 Y-40.894
X-83.482 Y-41.03
X-83.762 Y-41.17
X-84.051 Y-41.316
X-84.349 Y-41.466
X-84.656 Y-41.622
X-84.972 Y-41.783
X-85.297 Y-41.951
X-85.632 Y-42.124
X-85.975 Y-42.303
X-86.328 Y-42.489
X-86.689 Y-42.679
X-87.439 Y-43.078
X-88.221 Y-43.495
X-89.032 Y-43.929
X-89.033 Y-43.93
X-89.869 Y-44.377
X-89.873 Y-44.379
X-90.731 Y-44.834
X-90.736 Y-44.837
X-91.613 Y-45.298
X-91.622 Y-45.303
X-92.514 Y-45.765
X-92.526 Y-45.771
X-93.431 Y-46.231
X-93.445 Y-46.238
X-94.36 Y-46.692
X-94.377 Y-46.7
X-95.299 Y-47.144
X-95.319 Y-47.154
X-96.245 Y-47.583
X-96.269 Y-47.594
X-97.196 Y-48.006
X-97.225 Y-48.018
X-98.15 Y-48.407
X-98.183 Y-48.421
X-99.103 Y-48.784
X-99.141 Y-48.799
X-100.055 Y-49.133
X-100.099 Y-49.148
X-101.003 Y-49.449
X-101.053 Y-49.464
X-101.947 Y-49.729
X-101.987 Y-49.741
X-102.429 Y-49.859
X-102.459 Y-49.867
X-102.898 Y-49.975
X-102.929 Y-49.983
X-103.365 Y-50.081
X-103.397 Y-50.088
X-103.829 Y-50.177
X-103.862 Y-50.183
X-104.29 Y-50.261
X-104.325 Y-50.267
X-104.75 Y-50.335
G2 X-105.25 Y-50.335 I-0.25 J1.568
G1 X-105.675 Y-50.267
X-105.71 Y-50.261
X-106.138 Y-50.183
X-106.171 Y-50.177
X-106.603 Y-50.088
X-106.635 Y-50.081
X-107.071 Y-49.983
X-107.102 Y-49.975
X-107.541 Y-49.867
X-107.571 Y-49.859
X-108.013 Y-49.741
X-108.053 Y-49.729
X-108.947 Y-49.464
X-108.997 Y-49.449
X-109.901 Y-49.148
X-109.945 Y-49.133
X-110.859 Y-48.799
X-110.897 Y-48.784
X-111.818 Y-48.421
X-111.851 Y-48.407
X-112.776 Y-48.018
X-112.804 Y-48.006
X-113.731 Y-47.594
X-113.756 Y-47.583
X-114.681 Y-47.154
X-114.701 Y-47.144
X-115.623 Y-46.7
X-115.639 Y-46.692
X-116.555 Y-46.238
X-116.57 Y-46.231
X-117.475 Y-45.771
X-117.485 Y-45.765
X-118.378 Y-45.303
X-118.387 Y-45.298
X-119.264 Y-44.837
X-119.27 Y-44.834
X-120.128 Y-44.379
X-120.131 Y-44.377
X-120.967 Y-43.93
X-120.969 Y-43.929
X-121.779 Y-43.495
X-122.56 Y-43.078
X-123.31 Y-42.68
X-123.672 Y-42.489
X-124.026 Y-42.303
X-124.368 Y-42.124
X-124.703 Y-41.951
X-125.029 Y-41.783
X-125.345 Y-41.622
X-125.652 Y-41.466
X-125.949 Y-41.315
X-126.239 Y-41.17
X-126.518 Y-41.03
X-126.789 Y-40.894
X-126.791 Y-40.893
X-127.053 Y-40.762
X-127.06 Y-40.758
X-127.556 Y-40.506
X-127.578 Y-40.495
X-128.036 Y-40.253
X-128.073 Y-40.233
X-128.497 Y-39.995
X-128.557 Y-39.96
X-128.947 Y-39.717
X-129.023 Y-39.667
X-129.385 Y-39.412
X-129.482 Y-39.338
X-129.816 Y-39.061
X-129.893 Y-38.994
X-130.051 Y-38.845
X-130.101 Y-38.796
X-130.254 Y-38.638
X-130.305 Y-38.584
X-130.453 Y-38.417
X-130.498 Y-38.363
X-130.642 Y-38.185
X-130.689 Y-38.124
X-130.828 Y-37.934
X-130.865 Y-37.881
X-131.001 Y-37.678
X-131.036 Y-37.624
X-131.169 Y-37.407
X-131.203 Y-37.349
X-131.332 Y-37.118
X-131.355 Y-37.075
X-131.483 Y-36.828
X-131.508 Y-36.778
X-131.633 Y-36.514
X-131.65 Y-36.475
X-131.774 Y-36.194
X-131.792 Y-36.152
X-131.914 Y-35.853
X-131.926 Y-35.822
X-132.048 Y-35.504
X-132.06 Y-35.472
X-132.181 Y-35.134
X-132.191 Y-35.107
X-132.312 Y-34.75
X-132.32 Y-34.725
X-132.441 Y-34.347
X-132.447 Y-34.327
X-132.569 Y-33.928
X-132.576 Y-33.906
X-132.698 Y-33.486
X-132.702 Y-33.472
X-132.826 Y-33.03
X-132.831 Y-33.01
X-132.955 Y-32.546
X-132.957 Y-32.537
X-133.084 Y-32.05
X-133.088 Y-32.034
X-133.215 Y-31.524
X-133.217 Y-31.517
X-133.347 Y-30.984
X-133.349 Y-30.975
X-133.481 Y-30.42
X-133.483 Y-30.411
X-133.617 Y-29.833
X-133.619 Y-29.828
X-133.756 Y-29.227
X-133.757 Y-29.22
X-133.896 Y-28.597
X-133.897 Y-28.592
X-134.039 Y-27.946
X-134.041 Y-27.94
X-134.185 Y-27.271
X-134.186 Y-27.268
X-134.333 Y-26.578
Y-26.574
X-134.483 Y-25.862
X-134.484 Y-25.859
X-134.637 Y-25.126
X-134.638 Y-25.123
X-134.794 Y-24.369
Y-24.366
X-134.953 Y-23.591
X-134.954 Y-23.587
X-135.115 Y-22.792
X-135.28 Y-21.977
X-135.281 Y-21.973
X-135.448 Y-21.139
Y-21.138
X-135.618 Y-20.285
Y-20.284
X-135.791 Y-19.413
X-135.967 Y-18.523
X-136.146 Y-17.617
X-136.147 Y-17.616
X-136.328 Y-16.694
Y-16.692
X-136.511 Y-15.756
X-136.698 Y-14.804
Y-14.801
X-136.886 Y-13.835
X-137.077 Y-12.855
X-137.27 Y-11.862
X-137.465 Y-10.857
X-137.663 Y-9.841
X-137.664 Y-9.839
X-137.863 Y-8.812
X-138.266 Y-6.729
X-138.675 Y-4.614
X-139.089 Y-2.473
X-139.506 Y-0.312
X-139.924 Y1.862
X-140.761 Y6.216
Y6.218
X-141.175 Y8.385
X-141.585 Y10.538
X-141.586 Y10.539
X-141.989 Y12.668
Y12.67
X-142.384 Y14.769
X-142.385 Y14.772
X-142.578 Y15.808
X-142.769 Y16.835
Y16.836
X-142.957 Y17.852
X-142.958 Y17.855
X-143.142 Y18.859
Y18.86
X-143.323 Y19.852
Y19.855
X-143.5 Y20.834
X-143.501 Y20.836
X-143.674 Y21.802
Y21.804
X-143.843 Y22.755
X-143.844 Y22.759
X-144.008 Y23.695
Y23.697
X-144.168 Y24.618
X-144.169 Y24.623
X-144.323 Y25.527
Y25.529
X-144.473 Y26.416
X-144.474 Y26.421
X-144.618 Y27.291
X-144.619 Y27.295
X-144.758 Y28.146
X-144.759 Y28.154
X-144.891 Y28.987
X-144.892 Y28.99
X-145.019 Y29.804
X-145.02 Y29.812
X-145.14 Y30.607
X-145.141 Y30.612
G3 X-145.501 Y30.88 I-0.314 J-0.046
G1 X-145.815 Y30.834
X-145.885 Y30.824 Z-0.992
X-145.951 Y30.814 Z-0.969
X-146.011 Y30.805 Z-0.931
X-146.061 Y30.798 Z-0.88
X-146.098 Y30.793 Z-0.82
X-146.121 Y30.789 Z-0.753
X-146.129 Y30.788 Z-0.683
G0 Z5
X73.386 Y20.16
G1 Z1 F333.3
Z-0.683
X73.393 Y20.159 Z-0.753 F381
X73.416 Y20.154 Z-0.82
X73.454 Y20.147 Z-0.88
X73.503 Y20.137 Z-0.931
X73.562 Y20.125 Z-0.969
X73.628 Y20.112 Z-0.992
X73.697 Y20.098 Z-1
X74.008 Y20.036
G3 X74.382 Y20.285 I0.062 J0.311
G1 X74.552 Y21.138
Y21.14
X74.72 Y21.974
Y21.976
X74.884 Y22.791
X74.885 Y22.793
X75.046 Y23.588
X75.047 Y23.59
X75.206 Y24.366
Y24.368
X75.362 Y25.122
X75.363 Y25.125
X75.515 Y25.859
X75.516 Y25.862
X75.666 Y26.574
X75.667 Y26.578
X75.814 Y27.268
X75.815 Y27.272
X75.96 Y27.941
X75.961 Y27.945
X76.102 Y28.591
X76.104 Y28.597
X76.243 Y29.22
X76.244 Y29.226
X76.381 Y29.827
X76.382 Y29.834
X76.516 Y30.412
X76.518 Y30.42
X76.65 Y30.975
X76.652 Y30.984
X76.782 Y31.516
X76.785 Y31.527
X76.913 Y32.036
X76.916 Y32.048
X77.042 Y32.535
X77.045 Y32.548
X77.17 Y33.013
X77.174 Y33.028
X77.298 Y33.47
X77.302 Y33.487
X77.425 Y33.907
X77.43 Y33.926
X77.552 Y34.326
X77.559 Y34.348
X77.68 Y34.726
X77.688 Y34.75
X77.809 Y35.107
X77.819 Y35.135
X77.94 Y35.472
X77.951 Y35.503
X78.073 Y35.821
X78.086 Y35.855
X78.209 Y36.154
X78.225 Y36.193
X78.349 Y36.474
X78.368 Y36.516
X78.494 Y36.779
X78.516 Y36.824
X78.643 Y37.072
X78.67 Y37.121
X78.8 Y37.353
X78.83 Y37.405
X78.962 Y37.621
X78.998 Y37.677
X79.134 Y37.88
X79.173 Y37.935
X79.312 Y38.125
X79.356 Y38.182
X79.5 Y38.361
X79.547 Y38.417
X79.695 Y38.584
X79.745 Y38.638
X79.898 Y38.795
X79.949 Y38.846
X80.108 Y38.995
X80.184 Y39.062
X80.519 Y39.338
X80.614 Y39.411
X80.975 Y39.666
X81.054 Y39.718
X81.445 Y39.96
X81.503 Y39.995
X81.927 Y40.233
X81.965 Y40.254
X82.423 Y40.495
X82.444 Y40.506
X82.939 Y40.758
X82.947 Y40.762
X83.209 Y40.893
X83.21 Y40.894
X83.482 Y41.03
X83.762 Y41.17
X84.051 Y41.316
X84.349 Y41.466
X84.656 Y41.622
X84.972 Y41.783
X85.297 Y41.951
X85.632 Y42.124
X85.975 Y42.303
X86.328 Y42.489
X86.689 Y42.679
X87.439 Y43.078
X88.221 Y43.495
X89.032 Y43.929
X89.033 Y43.93
X89.869 Y44.377
X89.873 Y44.379
X90.731 Y44.834
X90.736 Y44.837
X91.613 Y45.298
X91.622 Y45.303
X92.514 Y45.765
X92.526 Y45.771
X93.431 Y46.231
X93.445 Y46.238
X94.36 Y46.692
X94.377 Y46.7
X95.299 Y47.144
X95.319 Y47.154
X96.245 Y47.583
X96.269 Y47.594
X97.196 Y48.006
X97.225 Y48.018
X98.15 Y48.407
X98.183 Y48.421
X99.103 Y48.784
X99.141 Y48.799
X100.055 Y49.133
X100.099 Y49.148
X101.003 Y49.449
X101.053 Y49.464
X101.947 Y49.729
X101.987 Y49.741
X102.429 Y49.859
X102.459 Y49.867
X102.898 Y49.975
X102.929 Y49.983
X103.365 Y50.081
X103.397 Y50.088
X103.829 Y50.177
X103.862 Y50.183
X104.29 Y50.261
X104.325 Y50.267
X104.75 Y50.335
G2 X105.25 Y50.335 I0.25 J-1.568
G1 X105.675 Y50.267
X105.71 Y50.261
X106.138 Y50.183
X106.171 Y50.177
X106.603 Y50.088
X106.635 Y50.081
X107.071 Y49.983
X107.102 Y49.975
X107.541 Y49.867
X107.571 Y49.859
X108.013 Y49.741
X108.053 Y49.729
X108.947 Y49.464
X108.997 Y49.449
X109.901 Y49.148
X109.945 Y49.133
X110.859 Y48.799
X110.897 Y48.784
X111.818 Y48.421
X111.851 Y48.407
X112.776 Y48.018
X112.804 Y48.006
X113.731 Y47.594
X113.756 Y47.583
X114.681 Y47.154
X114.701 Y47.144
X115.623 Y46.7
X115.639 Y46.692
X116.555 Y46.238
X116.57 Y46.231
X117.475 Y45.771
X117.485 Y45.765
X118.378 Y45.303
X118.387 Y45.298
X119.264 Y44.837
X119.27 Y44.834
X120.128 Y44.379
X120.131 Y44.377
X120.967 Y43.93
X120.969 Y43.929
X121.779 Y43.495
X122.56 Y43.078
X123.31 Y42.68
X123.672 Y42.489
X124.026 Y42.303
X124.368 Y42.124
X124.703 Y41.951
X125.029 Y41.783
X125.345 Y41.622
X125.652 Y41.466
X125.949 Y41.315
X126.239 Y41.17
X126.518 Y41.03
X126.789 Y40.894
X126.791 Y40.893
X127.053 Y40.762
X127.06 Y40.758
X127.556 Y40.506
X127.578 Y40.495
X128.036 Y40.253
X128.073 Y40.233
X128.497 Y39.995
X128.557 Y39.96
X128.947 Y39.717
X129.023 Y39.667
X129.385 Y39.412
X129.482 Y39.338
X129.816 Y39.061
X129.893 Y38.994
X130.051 Y38.845
X130.101 Y38.796
X130.254 Y38.638
X130.305 Y38.584
X130.453 Y38.417
X130.498 Y38.363
X130.642 Y38.185
X130.689 Y38.124
X130.828 Y37.934
X130.865 Y37.881
X131.001 Y37.678
X131.036 Y37.624
X131.169 Y37.407
X131.203 Y37.349
X131.332 Y37.118
X131.355 Y37.075
X131.483 Y36.828
X131.508 Y36.778
X131.633 Y36.514
X131.65 Y36.475
X131.774 Y36.194
X131.792 Y36.152
X131.914 Y35.853
X131.926 Y35.822
X132.048 Y35.504
X132.06 Y35.472
X132.181 Y35.134
X132.191 Y35.107
X132.312 Y34.75
X132.32 Y34.725
X132.441 Y34.347
X132.447 Y34.327
X132.569 Y33.928
X132.576 Y33.906
X132.698 Y33.486
X132.702 Y33.472
X132.826 Y33.03
X132.831 Y33.01
X132.955 Y32.546
X132.957 Y32.537
X133.084 Y32.05
X133.088 Y32.034
X133.215 Y31.524
X133.217 Y31.517
X133.347 Y30.984
X133.349 Y30.975
X133.481 Y30.42
X133.483 Y30.411
X133.617 Y29.833
X133.619 Y29.828
X133.756 Y29.227
X133.757 Y29.22
X133.896 Y28.597
X133.897 Y28.592
X134.039 Y27.946
X134.041 Y27.94
X134.185 Y27.271
X134.186 Y27.268
X134.333 Y26.578
Y26.574
X134.483 Y25.862
X134.484 Y25.859
X134.637 Y25.126
X134.638 Y25.123
X134.794 Y24.369
Y24.366
X134.953 Y23.591
X134.954 Y23.587
X135.115 Y22.792
X135.28 Y21.977
X135.281 Y21.973
X135.448 Y21.139
Y21.138
X135.618 Y20.285
Y20.284
X135.791 Y19.413
X135.967 Y18.523
X136.146 Y17.617
X136.147 Y17.616
X136.328 Y16.694
Y16.692
X136.511 Y15.756
X136.698 Y14.804
Y14.801
X136.886 Y13.835
X137.077 Y12.855
X137.27 Y11.862
X137.465 Y10.857
X137.663 Y9.841
X137.664 Y9.839
X137.863 Y8.812
X138.266 Y6.729
X138.675 Y4.614
X139.089 Y2.473
X139.506 Y0.312
X139.924 Y-1.862
X140.761 Y-6.216
Y-6.218
X141.175 Y-8.385
X141.585 Y-10.538
X141.586 Y-10.539
X141.989 Y-12.668
Y-12.67
X142.384 Y-14.769
X142.385 Y-14.772
X142.578 Y-15.808
X142.769 Y-16.835
Y-16.836
X142.957 Y-17.852
X142.958 Y-17.855
X143.142 Y-18.859
Y-18.86
X143.323 Y-19.852
Y-19.855
X143.5 Y-20.834
X143.501 Y-20.836
X143.674 Y-21.802
Y-21.804
X143.843 Y-22.755
X143.844 Y-22.759
X144.008 Y-23.695
Y-23.697
X144.168 Y-24.618
X144.169 Y-24.623
X144.323 Y-25.527
Y-25.529
X144.473 Y-26.416
X144.474 Y-26.421
X144.618 Y-27.291
X144.619 Y-27.295
X144.758 Y-28.146
X144.759 Y-28.154
X144.891 Y-28.987
X144.892 Y-28.99
X145.019 Y-29.804
X145.02 Y-29.812
X145.14 Y-30.607
X145.141 Y-30.612
X145.255 Y-31.387
X145.256 Y-31.395
X145.363 Y-32.15
X145.364 Y-32.158
X145.464 Y-32.892
X145.465 Y-32.901
X145.558 Y-33.613
X145.559 Y-33.623
X145.645 Y-34.314
X145.647 Y-34.327
X145.725 Y-34.996
X145.726 Y-35.01
X145.796 Y-35.658
X145.798 Y-35.672
X145.86 Y-36.298
X145.861 Y-36.313
X145.915 Y-36.917
X145.917 Y-36.934
X145.963 Y-37.516
X145.964 Y-37.536
X146.001 Y-38.096
X146.002 Y-38.116
X146.031 Y-38.654
X146.032 Y-38.681
X146.051 Y-39.197
X146.052 Y-39.22
X146.063 Y-39.714
Y-39.743
X146.065 Y-40.216
Y-40.25
X146.057 Y-40.702
X146.056 Y-40.736
X146.039 Y-41.166
X146.037 Y-41.208
X146.01 Y-41.617
X146.007 Y-41.659
X145.971 Y-42.048
X145.965 Y-42.102
X145.918 Y-42.471
X145.911 Y-42.522
X145.855 Y-42.872
X145.844 Y-42.931
X145.778 Y-43.262
X145.764 Y-43.326
X145.688 Y-43.639
X145.668 Y-43.713
X145.581 Y-44.008
X145.559 Y-44.077
X145.463 Y-44.355
X145.432 Y-44.437
X145.325 Y-44.699
X145.289 Y-44.78
X145.172 Y-45.026
X145.128 Y-45.113
X145 Y-45.345
X144.951 Y-45.427
X144.813 Y-45.645
X144.755 Y-45.73
X144.606 Y-45.934
X144.545 Y-46.012
X144.386 Y-46.204
X144.318 Y-46.281
X144.148 Y-46.461
X144.08 Y-46.528
X143.9 Y-46.697
X143.827 Y-46.762
X143.636 Y-46.92
X143.564 Y-46.977
X143.362 Y-47.125
X143.294 Y-47.173
X143.082 Y-47.312
X143.013 Y-47.355
X142.79 Y-47.486
X142.727 Y-47.521
X142.494 Y-47.644
X142.431 Y-47.676
X142.186 Y-47.792
X142.13 Y-47.817
X141.875 Y-47.925
X141.824 Y-47.946
X141.559 Y-48.048
X141.51 Y-48.066
X141.234 Y-48.162
X141.189 Y-48.177
X140.902 Y-48.268
X140.862 Y-48.28
X140.564 Y-48.365
X140.528 Y-48.375
X140.22 Y-48.455
X140.186 Y-48.464
X139.867 Y-48.54
X139.837 Y-48.547
X139.507 Y-48.618
X139.48 Y-48.624
X139.14 Y-48.692
X139.116 Y-48.696
X138.766 Y-48.76
X138.743 Y-48.764
X138.381 Y-48.825
X138.362 Y-48.828
X137.991 Y-48.886
X137.973 Y-48.889
X137.591 Y-48.944
X137.574 Y-48.946
X137.181 Y-48.998
X137.167 Y-49
X136.764 Y-49.05
X136.75 Y-49.051
X136.337 Y-49.099
X136.325 Y-49.1
X135.901 Y-49.146
X135.891 Y-49.147
X135.457 Y-49.19
X135.447 Y-49.191
X135.002 Y-49.233
X134.994 Y-49.234
X134.54 Y-49.274
X134.532 Y-49.275
X134.067 Y-49.314
X134.06 Y-49.315
X133.585 Y-49.353
X133.579
X133.095 Y-49.39
X133.089
X132.594 Y-49.426
X132.587
X131.567 Y-49.495
X131.559 Y-49.496
X130.5 Y-49.562
X130.493
X129.394 Y-49.626
X129.389 Y-49.627
X128.252 Y-49.689
X128.247
X127.071 Y-49.749
X127.066 Y-49.75
X125.853 Y-49.809
X125.849
X124.598 Y-49.866
X124.594
X123.305 Y-49.922
X123.301
X121.976 Y-49.976
X121.971 Y-49.977
X120.61 Y-50.028
X120.606
X119.209 Y-50.078
X119.204
X117.77 Y-50.124
X117.766 Y-50.125
X116.298 Y-50.168
X116.293
X114.789 Y-50.208
X114.784
X113.246 Y-50.244
X113.241
X111.668 Y-50.275
X111.663
X110.055 Y-50.302
X110.05 Y-50.303
X108.408 Y-50.325
X108.402
X106.726 Y-50.342
X106.721
X105.011 Y-50.355
X104.989
X103.279 Y-50.342
X103.274
X101.598 Y-50.325
X101.592
X99.95 Y-50.303
X99.945 Y-50.302
X98.338 Y-50.275
X98.333
X96.759 Y-50.244
X96.754
X95.216 Y-50.208
X95.211
X93.707 Y-50.168
X93.702
X92.234 Y-50.125
X92.229 Y-50.124
X90.796 Y-50.078
X90.791
X89.394 Y-50.028
X89.39
X88.028 Y-49.977
X88.024 Y-49.976
X86.699 Y-49.922
X86.695
X85.407 Y-49.866
X85.403
X84.151 Y-49.809
X84.147
X82.934 Y-49.75
X82.929 Y-49.749
X81.754 Y-49.689
X81.749
X80.611 Y-49.627
X80.606 Y-49.626
X79.507 Y-49.562
X79.501
X78.441 Y-49.496
X78.433 Y-49.495
X77.413 Y-49.426
X77.406
X76.911 Y-49.39
X76.906
X76.421 Y-49.353
X76.414
X75.939 Y-49.315
X75.933 Y-49.314
X75.468 Y-49.275
X75.461 Y-49.274
X75.006 Y-49.234
X74.997 Y-49.233
X74.553 Y-49.191
X74.544 Y-49.19
X74.11 Y-49.147
X74.099 Y-49.146
X73.675 Y-49.1
X73.663 Y-49.099
X73.25 Y-49.051
X73.236 Y-49.05
X72.833 Y-49
X72.819 Y-48.998
X72.427 Y-48.946
X72.41 Y-48.944
X72.028 Y-48.889
X72.01 Y-48.886
X71.638 Y-48.828
X71.618 Y-48.825
X71.257 Y-48.764
X71.235 Y-48.761
X70.884 Y-48.696
X70.859 Y-48.692
X70.519 Y-48.624
X70.492 Y-48.618
X70.163 Y-48.547
X70.133 Y-48.54
X69.814 Y-48.464
X69.78 Y-48.455
X69.472 Y-48.375
X69.436 Y-48.365
X69.138 Y-48.28
X69.098 Y-48.268
X68.811 Y-48.177
X68.767 Y-48.162
X68.49 Y-48.066
X68.442 Y-48.049
X68.177 Y-47.946
X68.124 Y-47.925
X67.869 Y-47.817
X67.812 Y-47.791
X67.568 Y-47.675
X67.508 Y-47.645
X67.274 Y-47.522
X67.209 Y-47.486
X66.986 Y-47.355
X66.918 Y-47.313
X66.706 Y-47.173
X66.636 Y-47.124
X66.435 Y-46.976
X66.364 Y-46.92
X66.173 Y-46.762
X66.101 Y-46.699
X65.921 Y-46.53
X65.851 Y-46.46
X65.681 Y-46.28
X65.614 Y-46.205
X65.455 Y-46.013
X65.393 Y-45.932
X65.244 Y-45.728
X65.188 Y-45.645
X65.05 Y-45.428
X65 Y-45.343
X64.872 Y-45.112
X64.829 Y-45.028
X64.712 Y-44.781
X64.675 Y-44.699
X64.568 Y-44.437
X64.538 Y-44.358
X64.442 Y-44.08
X64.418 Y-44.005
X64.332 Y-43.71
X64.313 Y-43.64
X64.237 Y-43.327
X64.222 Y-43.262
X64.156 Y-42.932
X64.145 Y-42.872
X64.089 Y-42.522
X64.082 Y-42.469
X64.035 Y-42.1
X64.03 Y-42.05
X63.993 Y-41.661
X63.99 Y-41.616
X63.963 Y-41.207
X63.961 Y-41.167
X63.944 Y-40.737
X63.943 Y-40.701
X63.935 Y-40.25
Y-40.217
X63.936 Y-39.744
X63.937 Y-39.715
X63.947 Y-39.221
X63.948 Y-39.195
X63.968 Y-38.679
X63.969 Y-38.655
X63.998 Y-38.117
X63.999 Y-38.096
X64.036 Y-37.536
X64.037 Y-37.517
X64.083 Y-36.934
X64.085 Y-36.917
X64.139 Y-36.313
X64.14 Y-36.297
X64.203 Y-35.671
X64.204 Y-35.657
X64.274 Y-35.009
X64.276 Y-34.997
X64.354 Y-34.327
X64.355 Y-34.315
X64.441 Y-33.624
X64.442 Y-33.614
X64.535 Y-32.901
X64.536 Y-32.892
X64.636 Y-32.158
X64.637 Y-32.15
X64.744 Y-31.395
X64.745 Y-31.388
X64.859 Y-30.613
X64.86 Y-30.606
X64.98 Y-29.811
X64.981 Y-29.805
X65.108 Y-28.991
X65.109 Y-28.985
X65.242 Y-28.152
Y-28.147
X65.381 Y-27.296
X65.382 Y-27.291
X65.526 Y-26.421
X65.527 Y-26.417
X65.676 Y-25.53
X65.677 Y-25.526
X65.831 Y-24.622
X65.832 Y-24.618
X65.992 Y-23.698
Y-23.695
X66.157 Y-22.759
Y-22.756
X66.326 Y-21.804
Y-21.802
X66.5 Y-20.836
Y-20.834
X66.677 Y-19.855
Y-19.853
X66.858 Y-18.86
X66.859 Y-18.858
X67.043 Y-17.854
Y-17.852
X67.231 Y-16.837
Y-16.835
X67.422 Y-15.809
Y-15.807
X67.616 Y-14.771
Y-14.769
X68.011 Y-12.67
Y-12.668
X68.414 Y-10.539
Y-10.538
X68.824 Y-8.386
Y-8.385
X69.239 Y-6.218
Y-6.216
X70.076 Y-1.862
X70.495 Y0.312
X70.912 Y2.472
X71.325 Y4.614
X71.734 Y6.729
X72.138 Y8.812
X72.337 Y9.839
X72.534 Y10.856
X72.729 Y11.861
X72.923 Y12.855
X73.113 Y13.835
X73.302 Y14.802
X73.489 Y15.755
X73.672 Y16.693
X73.854 Y17.616
Y17.617
X74.032 Y18.522
X74.208 Y19.411
Y19.413
X74.382 Y20.284
Y20.285
G3 X74.133 Y20.659 I-0.311 J0.062
G1 X73.821 Y20.721
X73.752 Y20.735 Z-0.992
X73.686 Y20.748 Z-0.969
X73.627 Y20.76 Z-0.931
X73.578 Y20.769 Z-0.88
X73.541 Y20.777 Z-0.82
X73.518 Y20.781 Z-0.753
X73.51 Y20.783 Z-0.683
G0 Z15
M5
M30
