(1001)
(Machine)
(  vendor: AliExpress)
(  description: Gold CNC Machine)
(T1  D=3.175 CR=0 - ZMIN=-1 - flat end mill)
G90 G94
G17
G21
G28 G91 Z0
G90

(2D Contour5)
T1
S11000 M3
G54
G0 X-0.318 Y51.307
Z15
Z5
G1 Z1 F333.3
Z-0.683
G19 G2 Y50.99 Z-1 J-0.318 K0 F508
G1 Y50.672
G17 G3 X0 Y50.355 I0.317 J0
G1 X0.011
X1.722 Y50.342
X1.727
X3.403 Y50.325
X3.408
X5.05 Y50.303
X5.055 Y50.302
X6.662 Y50.275
X6.667
X8.241 Y50.244
X8.246
X9.784 Y50.208
X9.789
X11.293 Y50.168
X11.298
X12.766 Y50.125
X12.771 Y50.124
X14.204 Y50.078
X14.209
X15.606 Y50.028
X15.61
X16.972 Y49.977
X16.976 Y49.976
X18.301 Y49.922
X18.305
X19.593 Y49.866
X19.597
X20.849 Y49.809
X20.853
X22.066 Y49.75
X22.071 Y49.749
X23.246 Y49.689
X23.251
X24.389 Y49.627
X24.394 Y49.626
X25.493 Y49.562
X25.499
X26.559 Y49.496
X26.567 Y49.495
X27.587 Y49.426
X27.594
X28.089 Y49.39
X28.094
X28.579 Y49.353
X28.586
X29.061 Y49.315
X29.067 Y49.314
X29.532 Y49.275
X29.539 Y49.274
X29.994 Y49.234
X30.003 Y49.233
X30.447 Y49.191
X30.456 Y49.19
X30.89 Y49.147
X30.901 Y49.146
X31.325 Y49.1
X31.337 Y49.099
X31.75 Y49.051
X31.764 Y49.05
X32.167 Y49
X32.181 Y48.998
X32.573 Y48.946
X32.59 Y48.944
X32.972 Y48.889
X32.99 Y48.886
X33.362 Y48.828
X33.382 Y48.825
X33.743 Y48.764
X33.765 Y48.761
X34.116 Y48.696
X34.141 Y48.692
X34.481 Y48.624
X34.508 Y48.618
X34.837 Y48.547
X34.867 Y48.54
X35.186 Y48.464
X35.22 Y48.455
X35.528 Y48.375
X35.564 Y48.365
X35.862 Y48.28
X35.902 Y48.268
X36.189 Y48.177
X36.233 Y48.162
X36.51 Y48.066
X36.558 Y48.049
X36.823 Y47.946
X36.876 Y47.925
X37.131 Y47.817
X37.188 Y47.791
X37.432 Y47.675
X37.492 Y47.645
X37.726 Y47.522
X37.791 Y47.486
X38.014 Y47.355
X38.082 Y47.313
X38.294 Y47.173
X38.364 Y47.124
X38.565 Y46.976
X38.636 Y46.92
X38.827 Y46.762
X38.899 Y46.699
X39.079 Y46.53
X39.149 Y46.46
X39.319 Y46.28
X39.386 Y46.205
X39.545 Y46.013
X39.607 Y45.932
X39.756 Y45.728
X39.812 Y45.645
X39.95 Y45.428
X40 Y45.343
X40.128 Y45.112
X40.171 Y45.028
X40.288 Y44.781
X40.325 Y44.699
X40.432 Y44.437
X40.462 Y44.358
X40.558 Y44.08
X40.582 Y44.005
X40.668 Y43.71
X40.687 Y43.64
X40.763 Y43.327
X40.778 Y43.262
X40.844 Y42.932
X40.855 Y42.872
X40.911 Y42.522
X40.918 Y42.469
X40.965 Y42.1
X40.97 Y42.05
X41.007 Y41.661
X41.01 Y41.616
X41.037 Y41.207
X41.039 Y41.167
X41.056 Y40.737
X41.057 Y40.701
X41.065 Y40.25
Y40.217
X41.064 Y39.744
X41.063 Y39.715
X41.053 Y39.221
X41.052 Y39.195
X41.032 Y38.679
X41.031 Y38.655
X41.002 Y38.117
X41.001 Y38.096
X40.964 Y37.536
X40.963 Y37.517
X40.917 Y36.934
X40.915 Y36.917
X40.861 Y36.313
X40.86 Y36.297
X40.797 Y35.671
X40.796 Y35.657
X40.726 Y35.009
X40.724 Y34.997
X40.646 Y34.327
X40.645 Y34.315
X40.559 Y33.624
X40.558 Y33.614
X40.465 Y32.901
X40.464 Y32.892
X40.364 Y32.158
X40.363 Y32.15
X40.256 Y31.395
X40.255 Y31.388
X40.141 Y30.613
X40.14 Y30.606
X40.02 Y29.811
X40.019 Y29.805
X39.892 Y28.991
X39.891 Y28.985
X39.758 Y28.152
Y28.147
X39.619 Y27.296
X39.618 Y27.291
X39.474 Y26.421
X39.473 Y26.417
X39.324 Y25.53
X39.323 Y25.526
X39.169 Y24.622
X39.168 Y24.618
X39.008 Y23.698
Y23.695
X38.843 Y22.759
Y22.756
X38.674 Y21.804
Y21.802
X38.5 Y20.836
Y20.834
X38.323 Y19.855
Y19.853
X38.142 Y18.86
X38.141 Y18.858
X37.957 Y17.854
Y17.852
X37.769 Y16.837
Y16.835
X37.578 Y15.809
Y15.807
X37.384 Y14.771
Y14.769
X36.989 Y12.67
Y12.668
X36.586 Y10.539
Y10.538
X36.176 Y8.386
Y8.385
X35.761 Y6.218
Y6.216
X34.924 Y1.862
X34.505 Y-0.312
X34.088 Y-2.472
X33.675 Y-4.614
X33.266 Y-6.729
X32.862 Y-8.812
X32.663 Y-9.839
X32.466 Y-10.856
X32.271 Y-11.861
X32.077 Y-12.855
X31.887 Y-13.835
X31.698 Y-14.802
X31.511 Y-15.755
X31.328 Y-16.693
X31.146 Y-17.616
Y-17.617
X30.968 Y-18.522
X30.792 Y-19.411
Y-19.413
X30.618 Y-20.284
Y-20.285
X30.448 Y-21.138
Y-21.14
X30.28 Y-21.974
Y-21.976
X30.116 Y-22.791
X30.115 Y-22.793
X29.954 Y-23.588
X29.953 Y-23.59
X29.794 Y-24.366
Y-24.368
X29.638 Y-25.122
X29.637 Y-25.125
X29.485 Y-25.859
X29.484 Y-25.862
X29.334 Y-26.574
X29.333 Y-26.578
X29.186 Y-27.268
X29.185 Y-27.272
X29.04 Y-27.941
X29.039 Y-27.945
X28.898 Y-28.591
X28.896 Y-28.597
X28.757 Y-29.22
X28.756 Y-29.226
X28.619 Y-29.827
X28.618 Y-29.834
X28.484 Y-30.412
X28.482 Y-30.42
X28.35 Y-30.975
X28.348 Y-30.984
X28.218 Y-31.516
X28.215 Y-31.527
X28.087 Y-32.036
X28.084 Y-32.048
X27.958 Y-32.535
X27.955 Y-32.548
X27.83 Y-33.013
X27.826 Y-33.028
X27.702 Y-33.47
X27.698 Y-33.487
X27.575 Y-33.907
X27.57 Y-33.926
X27.448 Y-34.326
X27.441 Y-34.348
X27.32 Y-34.726
X27.312 Y-34.75
X27.191 Y-35.107
X27.181 Y-35.135
X27.06 Y-35.472
X27.049 Y-35.503
X26.927 Y-35.821
X26.914 Y-35.855
X26.791 Y-36.154
X26.775 Y-36.193
X26.651 Y-36.474
X26.632 Y-36.516
X26.506 Y-36.779
X26.484 Y-36.824
X26.357 Y-37.072
X26.33 Y-37.121
X26.2 Y-37.353
X26.17 Y-37.405
X26.038 Y-37.621
X26.002 Y-37.677
X25.866 Y-37.88
X25.827 Y-37.935
X25.688 Y-38.125
X25.644 Y-38.182
X25.5 Y-38.361
X25.453 Y-38.417
X25.305 Y-38.584
X25.255 Y-38.638
X25.102 Y-38.795
X25.051 Y-38.846
X24.892 Y-38.995
X24.816 Y-39.062
X24.481 Y-39.338
X24.386 Y-39.411
X24.025 Y-39.666
X23.946 Y-39.718
X23.555 Y-39.96
X23.497 Y-39.995
X23.073 Y-40.233
X23.035 Y-40.254
X22.577 Y-40.495
X22.556 Y-40.506
X22.061 Y-40.758
X22.053 Y-40.762
X21.791 Y-40.893
X21.79 Y-40.894
X21.518 Y-41.03
X21.238 Y-41.17
X20.949 Y-41.316
X20.651 Y-41.466
X20.344 Y-41.622
X20.028 Y-41.783
X19.703 Y-41.951
X19.368 Y-42.124
X19.025 Y-42.303
X18.672 Y-42.489
X18.311 Y-42.679
X17.561 Y-43.078
X16.779 Y-43.495
X15.968 Y-43.929
X15.967 Y-43.93
X15.131 Y-44.377
X15.127 Y-44.379
X14.269 Y-44.834
X14.264 Y-44.837
X13.387 Y-45.298
X13.378 Y-45.303
X12.486 Y-45.765
X12.474 Y-45.771
X11.569 Y-46.231
X11.555 Y-46.238
X10.64 Y-46.692
X10.623 Y-46.7
X9.701 Y-47.144
X9.681 Y-47.154
X8.755 Y-47.583
X8.731 Y-47.594
X7.804 Y-48.006
X7.775 Y-48.018
X6.85 Y-48.407
X6.818 Y-48.421
X5.897 Y-48.784
X5.859 Y-48.799
X4.945 Y-49.133
X4.901 Y-49.148
X3.997 Y-49.449
X3.947 Y-49.464
X3.053 Y-49.729
X3.012 Y-49.741
X2.57 Y-49.859
X2.541 Y-49.867
X2.102 Y-49.975
X2.071 Y-49.983
X1.635 Y-50.081
X1.603 Y-50.088
X1.171 Y-50.177
X1.138 Y-50.183
X0.71 Y-50.261
X0.675 Y-50.267
X0.25 Y-50.335
G2 X-0.25 Y-50.335 I-0.25 J1.568
G1 X-0.675 Y-50.267
X-0.71 Y-50.261
X-1.138 Y-50.183
X-1.171 Y-50.177
X-1.603 Y-50.088
X-1.635 Y-50.081
X-2.071 Y-49.983
X-2.102 Y-49.975
X-2.541 Y-49.867
X-2.57 Y-49.859
X-3.012 Y-49.741
X-3.053 Y-49.729
X-3.947 Y-49.464
X-3.997 Y-49.449
X-4.901 Y-49.148
X-4.945 Y-49.133
X-5.859 Y-48.799
X-5.897 Y-48.784
X-6.818 Y-48.421
X-6.85 Y-48.407
X-7.775 Y-48.018
X-7.804 Y-48.006
X-8.731 Y-47.594
X-8.755 Y-47.583
X-9.681 Y-47.154
X-9.701 Y-47.144
X-10.623 Y-46.7
X-10.64 Y-46.692
X-11.555 Y-46.238
X-11.569 Y-46.231
X-12.474 Y-45.771
X-12.486 Y-45.765
X-13.378 Y-45.303
X-13.387 Y-45.298
X-14.264 Y-44.837
X-14.269 Y-44.834
X-15.127 Y-44.379
X-15.131 Y-44.377
X-15.967 Y-43.93
X-15.968 Y-43.929
X-16.779 Y-43.495
X-17.561 Y-43.078
X-18.311 Y-42.679
X-18.672 Y-42.489
X-19.025 Y-42.303
X-19.368 Y-42.124
X-19.703 Y-41.951
X-20.028 Y-41.783
X-20.344 Y-41.622
X-20.651 Y-41.466
X-20.949 Y-41.316
X-21.238 Y-41.17
X-21.518 Y-41.03
X-21.79 Y-40.894
X-21.791 Y-40.893
X-22.053 Y-40.762
X-22.061 Y-40.758
X-22.556 Y-40.506
X-22.577 Y-40.495
X-23.035 Y-40.254
X-23.073 Y-40.233
X-23.497 Y-39.995
X-23.555 Y-39.96
X-23.946 Y-39.718
X-24.025 Y-39.666
X-24.386 Y-39.411
X-24.481 Y-39.338
X-24.816 Y-39.062
X-24.892 Y-38.995
X-25.051 Y-38.846
X-25.102 Y-38.795
X-25.255 Y-38.638
X-25.305 Y-38.584
X-25.453 Y-38.417
X-25.5 Y-38.361
X-25.644 Y-38.182
X-25.688 Y-38.125
X-25.827 Y-37.935
X-25.866 Y-37.88
X-26.002 Y-37.677
X-26.038 Y-37.621
X-26.17 Y-37.405
X-26.2 Y-37.353
X-26.33 Y-37.121
X-26.357 Y-37.072
X-26.484 Y-36.824
X-26.506 Y-36.779
X-26.632 Y-36.516
X-26.651 Y-36.474
X-26.775 Y-36.193
X-26.791 Y-36.154
X-26.914 Y-35.855
X-26.927 Y-35.821
X-27.049 Y-35.503
X-27.06 Y-35.472
X-27.181 Y-35.135
X-27.191 Y-35.107
X-27.312 Y-34.75
X-27.32 Y-34.726
X-27.441 Y-34.348
X-27.448 Y-34.326
X-27.57 Y-33.926
X-27.575 Y-33.907
X-27.698 Y-33.487
X-27.702 Y-33.47
X-27.826 Y-33.028
X-27.83 Y-33.013
X-27.955 Y-32.548
X-27.958 Y-32.535
X-28.084 Y-32.048
X-28.087 Y-32.036
X-28.215 Y-31.527
X-28.218 Y-31.516
X-28.348 Y-30.984
X-28.35 Y-30.975
X-28.482 Y-30.42
X-28.484 Y-30.412
X-28.618 Y-29.834
X-28.619 Y-29.827
X-28.756 Y-29.226
X-28.757 Y-29.22
X-28.896 Y-28.597
X-28.898 Y-28.591
X-29.039 Y-27.945
X-29.04 Y-27.941
X-29.185 Y-27.272
X-29.186 Y-27.268
X-29.333 Y-26.578
X-29.334 Y-26.574
X-29.484 Y-25.862
X-29.485 Y-25.859
X-29.637 Y-25.125
X-29.638 Y-25.122
X-29.794 Y-24.368
Y-24.366
X-29.953 Y-23.59
X-29.954 Y-23.588
X-30.115 Y-22.793
X-30.116 Y-22.791
X-30.28 Y-21.976
Y-21.974
X-30.448 Y-21.14
Y-21.138
X-30.618 Y-20.285
Y-20.284
X-30.792 Y-19.413
Y-19.411
X-30.968 Y-18.523
X-31.146 Y-17.617
Y-17.616
X-31.328 Y-16.694
X-31.511 Y-15.756
X-31.698 Y-14.803
X-31.886 Y-13.836
X-32.077 Y-12.855
X-32.271 Y-11.862
X-32.466 Y-10.856
X-32.663 Y-9.84
X-32.862 Y-8.812
X-33.266 Y-6.73
X-33.675 Y-4.614
X-34.088 Y-2.473
X-34.505 Y-0.312
X-34.924 Y1.861
X-35.761 Y6.216
Y6.218
X-36.176 Y8.385
Y8.386
X-36.586 Y10.538
Y10.539
X-36.989 Y12.668
Y12.67
X-37.384 Y14.769
Y14.771
X-37.578 Y15.807
Y15.809
X-37.769 Y16.835
Y16.837
X-37.957 Y17.852
Y17.854
X-38.141 Y18.858
X-38.142 Y18.86
X-38.323 Y19.853
Y19.855
X-38.5 Y20.834
Y20.836
X-38.674 Y21.802
Y21.804
X-38.843 Y22.756
Y22.759
X-39.008 Y23.695
Y23.698
X-39.168 Y24.618
X-39.169 Y24.622
X-39.323 Y25.526
X-39.324 Y25.53
X-39.473 Y26.417
X-39.474 Y26.421
X-39.618 Y27.291
X-39.619 Y27.296
X-39.758 Y28.147
Y28.152
X-39.891 Y28.985
X-39.892 Y28.991
X-40.019 Y29.805
X-40.02 Y29.811
X-40.14 Y30.606
X-40.141 Y30.613
X-40.255 Y31.388
X-40.256 Y31.395
X-40.363 Y32.15
X-40.364 Y32.158
X-40.464 Y32.892
X-40.465 Y32.901
X-40.558 Y33.614
X-40.559 Y33.624
X-40.645 Y34.315
X-40.646 Y34.327
X-40.724 Y34.997
X-40.726 Y35.009
X-40.796 Y35.657
X-40.797 Y35.671
X-40.86 Y36.297
X-40.861 Y36.313
X-40.915 Y36.917
X-40.917 Y36.934
X-40.963 Y37.517
X-40.964 Y37.536
X-41.001 Y38.096
X-41.002 Y38.117
X-41.031 Y38.655
X-41.032 Y38.679
X-41.052 Y39.195
X-41.053 Y39.221
X-41.063 Y39.715
X-41.064 Y39.744
X-41.065 Y40.217
Y40.25
X-41.057 Y40.701
X-41.056 Y40.737
X-41.039 Y41.167
X-41.037 Y41.207
X-41.01 Y41.616
X-41.007 Y41.661
X-40.97 Y42.05
X-40.965 Y42.1
X-40.918 Y42.469
X-40.911 Y42.522
X-40.855 Y42.872
X-40.844 Y42.932
X-40.778 Y43.262
X-40.763 Y43.327
X-40.687 Y43.64
X-40.668 Y43.71
X-40.582 Y44.005
X-40.558 Y44.08
X-40.462 Y44.358
X-40.432 Y44.437
X-40.325 Y44.699
X-40.288 Y44.781
X-40.171 Y45.028
X-40.128 Y45.112
X-40 Y45.343
X-39.95 Y45.428
X-39.812 Y45.645
X-39.756 Y45.728
X-39.607 Y45.932
X-39.545 Y46.013
X-39.386 Y46.205
X-39.319 Y46.28
X-39.149 Y46.46
X-39.079 Y46.53
X-38.899 Y46.699
X-38.827 Y46.762
X-38.636 Y46.92
X-38.565 Y46.976
X-38.364 Y47.124
X-38.294 Y47.173
X-38.082 Y47.313
X-38.014 Y47.355
X-37.791 Y47.486
X-37.726 Y47.522
X-37.492 Y47.645
X-37.432 Y47.675
X-37.188 Y47.791
X-37.131 Y47.817
X-36.876 Y47.925
X-36.823 Y47.946
X-36.558 Y48.049
X-36.51 Y48.066
X-36.233 Y48.162
X-36.189 Y48.177
X-35.902 Y48.268
X-35.862 Y48.28
X-35.564 Y48.365
X-35.528 Y48.375
X-35.22 Y48.455
X-35.186 Y48.464
X-34.867 Y48.54
X-34.837 Y48.547
X-34.508 Y48.618
X-34.481 Y48.624
X-34.141 Y48.692
X-34.116 Y48.696
X-33.765 Y48.761
X-33.743 Y48.764
X-33.382 Y48.825
X-33.362 Y48.828
X-32.99 Y48.886
X-32.972 Y48.889
X-32.59 Y48.944
X-32.573 Y48.946
X-32.181 Y48.998
X-32.167 Y49
X-31.764 Y49.05
X-31.75 Y49.051
X-31.337 Y49.099
X-31.325 Y49.1
X-30.901 Y49.146
X-30.89 Y49.147
X-30.456 Y49.19
X-30.447 Y49.191
X-30.003 Y49.233
X-29.994 Y49.234
X-29.539 Y49.274
X-29.532 Y49.275
X-29.067 Y49.314
X-29.061 Y49.315
X-28.586 Y49.353
X-28.579
X-28.094 Y49.39
X-28.089
X-27.594 Y49.426
X-27.587
X-26.567 Y49.495
X-26.559 Y49.496
X-25.499 Y49.562
X-25.493
X-24.394 Y49.626
X-24.389 Y49.627
X-23.251 Y49.689
X-23.246
X-22.071 Y49.749
X-22.066 Y49.75
X-20.853 Y49.809
X-20.849
X-19.597 Y49.866
X-19.593
X-18.305 Y49.922
X-18.301
X-16.976 Y49.976
X-16.972 Y49.977
X-15.61 Y50.028
X-15.606
X-14.209 Y50.078
X-14.204
X-12.771 Y50.124
X-12.766 Y50.125
X-11.298 Y50.168
X-11.293
X-9.789 Y50.208
X-9.784
X-8.246 Y50.244
X-8.241
X-6.667 Y50.275
X-6.662
X-5.055 Y50.302
X-5.05 Y50.303
X-3.408 Y50.325
X-3.403
X-1.727 Y50.342
X-1.722
X-0.011 Y50.355
X0
G3 X0.317 Y50.672 I0 J0.317
G1 Y50.99
G19 G3 Y51.307 Z-0.683 J0 K0.317
G0 Z15
G17
G28 G91 Z0
G90
G28 G91 X0 Y0
G90
M5
M30
