(1001)
(Machine)
(  vendor: AliExpress)
(  description: Gold CNC Machine)
(T1  D=3.175 CR=0 - ZMIN=-1 - flat end mill)
G90 G94
G17
G21
G28 G91 Z0
G90

(2D Contour1)
T1
S11000 M3
G54
G0 X-0.317 Y50.59
Z15
Z5
G1 Z1 F333.3
Z-0.683
G19 G2 Y50.272 Z-1 J-0.318 K0 F762
G1 Y49.955
G17 G3 X0 Y49.638 I0.318 J0
G2 X0.25 Y49.618 I0 J-1.588
G1 X0.675 Y49.55
X0.709 Y49.544
X1.138 Y49.466
X1.17 Y49.46
X1.602 Y49.371
X1.634 Y49.364
X2.07 Y49.266
X2.1 Y49.259
X2.539 Y49.151
X2.568 Y49.143
X3.01 Y49.025
X3.051 Y49.013
X3.944 Y48.749
X3.993 Y48.733
X4.898 Y48.433
X4.941 Y48.418
X5.854 Y48.085
X5.892 Y48.071
X6.812 Y47.708
X6.845 Y47.695
X7.77 Y47.307
X7.798 Y47.295
X8.724 Y46.884
X8.748 Y46.873
X9.674 Y46.445
X9.694 Y46.435
X10.615 Y45.993
X10.632 Y45.984
X11.547 Y45.531
X11.561 Y45.524
X12.466 Y45.065
X12.477 Y45.059
X13.37 Y44.598
X13.378 Y44.593
X14.254 Y44.133
X14.26 Y44.13
X15.118 Y43.675
X15.122 Y43.673
X15.958 Y43.226
X15.959 Y43.225
X16.77 Y42.792
X17.552 Y42.374
X18.302 Y41.975
X18.663 Y41.784
X19.016 Y41.599
X19.36 Y41.419
X19.695 Y41.245
X20.02 Y41.078
X20.337 Y40.916
X20.644 Y40.759
X20.942 Y40.608
X21.231 Y40.463
X21.512 Y40.321
X21.783 Y40.185
X21.785 Y40.184
X22.047 Y40.052
X22.054 Y40.048
X22.55 Y39.795
X22.571 Y39.785
X23.03 Y39.542
X23.067 Y39.521
X23.491 Y39.282
X23.549 Y39.248
X23.94 Y39.006
X24.017 Y38.954
X24.379 Y38.699
X24.473 Y38.627
X24.808 Y38.352
X24.884 Y38.285
X25.042 Y38.137
X25.094 Y38.086
X25.247 Y37.929
X25.296 Y37.876
X25.445 Y37.71
X25.492 Y37.654
X25.635 Y37.477
X25.679 Y37.42
X25.818 Y37.232
X25.858 Y37.176
X25.994 Y36.974
X26.029 Y36.92
X26.161 Y36.705
X26.192 Y36.652
X26.322 Y36.422
X26.348 Y36.373
X26.476 Y36.128
X26.499 Y36.082
X26.624 Y35.821
X26.643 Y35.779
X26.767 Y35.5
X26.783 Y35.462
X26.905 Y35.165
X26.919 Y35.131
X27.041 Y34.815
X27.052 Y34.785
X27.173 Y34.45
X27.183 Y34.422
X27.304 Y34.068
X27.312 Y34.044
X27.433 Y33.669
X27.44 Y33.647
X27.561 Y33.252
X27.567 Y33.233
X27.689 Y32.816
X27.694 Y32.799
X27.817 Y32.36
X27.821 Y32.345
X27.945 Y31.885
X27.949 Y31.872
X28.075 Y31.389
X28.078 Y31.378
X28.205 Y30.873
X28.208 Y30.862
X28.337 Y30.335
X28.339 Y30.326
X28.471 Y29.776
X28.473 Y29.768
X28.607 Y29.195
X28.608 Y29.188
X28.744 Y28.593
X28.746 Y28.586
X28.884 Y27.969
X28.886 Y27.963
X29.027 Y27.323
X29.028 Y27.318
X29.172 Y26.656
X29.173 Y26.651
X29.32 Y25.967
Y25.963
X29.47 Y25.257
X29.471 Y25.254
X29.623 Y24.526
X29.624 Y24.523
X29.779 Y23.775
Y23.772
X29.937 Y23.003
X29.938 Y23.001
X30.099 Y22.212
Y22.21
X30.263 Y21.401
X30.264 Y21.399
X30.431 Y20.571
Y20.569
X30.6 Y19.723
X30.601 Y19.721
X30.773 Y18.856
Y18.855
X30.949 Y17.973
Y17.972
X31.127 Y17.072
Y17.071
X31.308 Y16.156
X31.491 Y15.224
X31.677 Y14.277
X31.865 Y13.316
X32.055 Y12.341
X32.248 Y11.353
X32.443 Y10.353
X32.64 Y9.341
X32.838 Y8.319
X33.241 Y6.246
X33.649 Y4.14
X34.062 Y2.006
X34.479 Y-0.148
X34.897 Y-2.315
X35.734 Y-6.662
Y-6.664
X36.148 Y-8.829
X36.149 Y-8.83
X36.558 Y-10.981
X36.559 Y-10.982
X36.962 Y-13.112
Y-13.114
X37.358 Y-15.215
Y-15.217
X37.743 Y-17.284
Y-17.286
X37.931 Y-18.304
X37.932 Y-18.306
X38.117 Y-19.313
Y-19.315
X38.298 Y-20.31
X38.299 Y-20.312
X38.476 Y-21.295
X38.477 Y-21.297
X38.65 Y-22.266
X38.651 Y-22.269
X38.82 Y-23.224
X38.821 Y-23.227
X38.986 Y-24.168
Y-24.171
X39.147 Y-25.096
Y-25.099
X39.303 Y-26.009
Y-26.013
X39.454 Y-26.905
Y-26.91
X39.599 Y-27.785
X39.6 Y-27.79
X39.739 Y-28.647
X39.74 Y-28.652
X39.874 Y-29.492
X39.875 Y-29.497
X40.002 Y-30.318
X40.003 Y-30.324
X40.124 Y-31.126
X40.125 Y-31.133
X40.24 Y-31.914
X40.241 Y-31.922
X40.349 Y-32.683
X40.35 Y-32.692
X40.452 Y-33.433
X40.453 Y-33.442
X40.547 Y-34.162
X40.548 Y-34.173
X40.635 Y-34.872
X40.636 Y-34.883
X40.715 Y-35.561
X40.716 Y-35.573
X40.788 Y-36.229
X40.789 Y-36.243
X40.853 Y-36.877
X40.854 Y-36.892
X40.909 Y-37.505
X40.911 Y-37.521
X40.958 Y-38.112
X40.959 Y-38.131
X40.997 Y-38.699
X40.999 Y-38.719
X41.028 Y-39.266
X41.029 Y-39.289
X41.05 Y-39.813
X41.051 Y-39.838
X41.063 Y-40.34
Y-40.369
X41.066 Y-40.849
Y-40.881
X41.059 Y-41.339
X41.058 Y-41.375
X41.042 Y-41.811
X41.04 Y-41.851
X41.015 Y-42.267
X41.011 Y-42.311
X40.976 Y-42.706
X40.971 Y-42.754
X40.926 Y-43.129
X40.918 Y-43.182
X40.863 Y-43.537
X40.853 Y-43.597
X40.788 Y-43.932
X40.774 Y-43.996
X40.698 Y-44.313
X40.68 Y-44.383
X40.595 Y-44.682
X40.571 Y-44.757
X40.475 Y-45.038
X40.445 Y-45.118
X40.339 Y-45.382
X40.303 Y-45.465
X40.186 Y-45.713
X40.142 Y-45.8
X40.015 Y-46.032
X39.964 Y-46.119
X39.826 Y-46.336
X39.768 Y-46.423
X39.619 Y-46.626
X39.554 Y-46.71
X39.395 Y-46.899
X39.324 Y-46.978
X39.155 Y-47.155
X39.08 Y-47.228
X38.9 Y-47.393
X38.822 Y-47.459
X38.632 Y-47.612
X38.553 Y-47.671
X38.352 Y-47.813
X38.275 Y-47.864
X38.062 Y-47.997
X37.988 Y-48.04
X37.765 Y-48.163
X37.694 Y-48.199
X37.46 Y-48.313
X37.393 Y-48.344
X37.148 Y-48.449
X37.086 Y-48.474
X36.83 Y-48.571
X36.772 Y-48.592
X36.506 Y-48.681
X36.452 Y-48.698
X36.175 Y-48.781
X36.127 Y-48.794
X35.839 Y-48.87
X35.795 Y-48.881
X35.496 Y-48.95
X35.456 Y-48.959
X35.147 Y-49.022
X35.111 Y-49.029
X34.791 Y-49.087
X34.758 Y-49.093
X34.428 Y-49.145
X34.398 Y-49.15
X34.056 Y-49.198
X34.031 Y-49.201
X33.679 Y-49.245
X33.654 Y-49.247
X33.292 Y-49.286
X33.271 Y-49.288
X32.898 Y-49.324
X32.878 Y-49.325
X32.495 Y-49.357
X32.478 Y-49.358
X32.084 Y-49.386
X32.069 Y-49.387
X31.664 Y-49.412
X31.651 Y-49.413
X31.236 Y-49.435
X31.224
X30.798 Y-49.455
X30.788
X30.352 Y-49.472
X30.343
X29.897 Y-49.487
X29.889
X29.432 Y-49.5
X29.425
X28.959 Y-49.511
X28.953
X28.476 Y-49.52
X28.471
X27.984 Y-49.528
X27.98
X27.483 Y-49.534
X27.478 Y-49.535
X26.455 Y-49.544
X26.449
X25.387 Y-49.55
X25.383
X24.281 Y-49.554
X24.279
X23.139 Y-49.556
X23.138
X21.96 Y-49.558
X20.744 Y-49.559
X19.491 Y-49.56
X18.202 Y-49.562
X16.877 Y-49.564
X15.517 Y-49.567
X14.12 Y-49.571
X12.689 Y-49.576
X11.223 Y-49.581
X9.722 Y-49.587
X8.188 Y-49.594
X6.619 Y-49.602
X5.017 Y-49.61
X3.381 Y-49.619
X1.712 Y-49.628
X0.009 Y-49.637
X-0.009
X-1.712 Y-49.628
X-3.381 Y-49.619
X-5.017 Y-49.61
X-6.619 Y-49.602
X-8.188 Y-49.594
X-9.722 Y-49.587
X-11.223 Y-49.581
X-12.689 Y-49.576
X-14.12 Y-49.571
X-15.517 Y-49.567
X-16.877 Y-49.564
X-18.202 Y-49.562
X-19.491 Y-49.56
X-20.744 Y-49.559
X-21.959 Y-49.558
X-23.138 Y-49.556
X-23.139
X-24.279 Y-49.554
X-24.281
X-25.383 Y-49.55
X-25.387
X-26.449 Y-49.544
X-26.455
X-27.478 Y-49.535
X-27.483 Y-49.534
X-27.98 Y-49.528
X-27.984
X-28.471 Y-49.52
X-28.476
X-28.953 Y-49.511
X-28.959
X-29.425 Y-49.5
X-29.432
X-29.889 Y-49.487
X-29.897
X-30.343 Y-49.472
X-30.352
X-30.788 Y-49.455
X-30.798
X-31.224 Y-49.435
X-31.236
X-31.651 Y-49.413
X-31.664 Y-49.412
X-32.069 Y-49.387
X-32.084 Y-49.386
X-32.478 Y-49.358
X-32.495 Y-49.357
X-32.878 Y-49.325
X-32.898 Y-49.324
X-33.271 Y-49.288
X-33.292 Y-49.286
X-33.654 Y-49.247
X-33.679 Y-49.245
X-34.031 Y-49.201
X-34.056 Y-49.198
X-34.398 Y-49.15
X-34.428 Y-49.145
X-34.758 Y-49.093
X-34.791 Y-49.087
X-35.111 Y-49.029
X-35.147 Y-49.022
X-35.456 Y-48.959
X-35.496 Y-48.95
X-35.795 Y-48.881
X-35.839 Y-48.87
X-36.127 Y-48.794
X-36.175 Y-48.781
X-36.452 Y-48.698
X-36.506 Y-48.681
X-36.772 Y-48.592
X-36.83 Y-48.571
X-37.086 Y-48.474
X-37.148 Y-48.449
X-37.393 Y-48.344
X-37.46 Y-48.313
X-37.694 Y-48.199
X-37.765 Y-48.163
X-37.988 Y-48.04
X-38.062 Y-47.997
X-38.275 Y-47.864
X-38.352 Y-47.813
X-38.553 Y-47.671
X-38.632 Y-47.612
X-38.822 Y-47.459
X-38.9 Y-47.393
X-39.08 Y-47.228
X-39.155 Y-47.155
X-39.324 Y-46.978
X-39.395 Y-46.899
X-39.554 Y-46.71
X-39.619 Y-46.626
X-39.768 Y-46.423
X-39.826 Y-46.336
X-39.964 Y-46.119
X-40.015 Y-46.032
X-40.142 Y-45.8
X-40.186 Y-45.713
X-40.303 Y-45.465
X-40.339 Y-45.382
X-40.445 Y-45.118
X-40.475 Y-45.038
X-40.571 Y-44.757
X-40.595 Y-44.682
X-40.68 Y-44.383
X-40.698 Y-44.313
X-40.774 Y-43.996
X-40.788 Y-43.932
X-40.853 Y-43.597
X-40.863 Y-43.537
X-40.918 Y-43.182
X-40.926 Y-43.129
X-40.971 Y-42.754
X-40.976 Y-42.706
X-41.011 Y-42.311
X-41.015 Y-42.267
X-41.04 Y-41.851
X-41.042 Y-41.811
X-41.058 Y-41.375
X-41.059 Y-41.339
X-41.066 Y-40.881
Y-40.849
X-41.063 Y-40.369
Y-40.34
X-41.051 Y-39.838
X-41.05 Y-39.813
X-41.029 Y-39.289
X-41.028 Y-39.266
X-40.999 Y-38.719
X-40.997 Y-38.699
X-40.959 Y-38.131
X-40.958 Y-38.112
X-40.911 Y-37.521
X-40.909 Y-37.505
X-40.854 Y-36.892
X-40.853 Y-36.877
X-40.789 Y-36.243
X-40.788 Y-36.229
X-40.716 Y-35.573
X-40.715 Y-35.561
X-40.636 Y-34.883
X-40.635 Y-34.872
X-40.548 Y-34.173
X-40.547 Y-34.162
X-40.453 Y-33.442
X-40.452 Y-33.433
X-40.35 Y-32.692
X-40.349 Y-32.683
X-40.241 Y-31.922
X-40.24 Y-31.914
X-40.125 Y-31.133
X-40.124 Y-31.126
X-40.003 Y-30.324
X-40.002 Y-30.318
X-39.875 Y-29.497
X-39.874 Y-29.492
X-39.74 Y-28.652
X-39.739 Y-28.647
X-39.6 Y-27.79
X-39.599 Y-27.785
X-39.454 Y-26.91
Y-26.905
X-39.303 Y-26.013
Y-26.009
X-39.147 Y-25.099
Y-25.096
X-38.986 Y-24.171
Y-24.168
X-38.821 Y-23.227
X-38.82 Y-23.224
X-38.651 Y-22.269
X-38.65 Y-22.266
X-38.477 Y-21.297
X-38.476 Y-21.295
X-38.299 Y-20.312
X-38.298 Y-20.31
X-38.117 Y-19.315
Y-19.313
X-37.932 Y-18.306
X-37.931 Y-18.304
X-37.743 Y-17.286
Y-17.284
X-37.358 Y-15.217
Y-15.215
X-36.962 Y-13.114
Y-13.112
X-36.559 Y-10.982
X-36.558 Y-10.981
X-36.149 Y-8.83
X-36.148 Y-8.829
X-35.734 Y-6.664
Y-6.662
X-34.897 Y-2.316
X-34.479 Y-0.148
X-34.062 Y2.006
X-33.649 Y4.139
X-33.241 Y6.246
X-32.838 Y8.319
X-32.64 Y9.341
X-32.443 Y10.352
X-32.248 Y11.352
X-32.055 Y12.34
X-31.865 Y13.315
X-31.677 Y14.276
X-31.491 Y15.223
X-31.308 Y16.155
X-31.127 Y17.071
Y17.072
X-30.949 Y17.972
Y17.973
X-30.773 Y18.855
Y18.856
X-30.601 Y19.721
X-30.6 Y19.723
X-30.431 Y20.569
Y20.571
X-30.264 Y21.399
X-30.263 Y21.401
X-30.099 Y22.21
Y22.212
X-29.938 Y23.001
X-29.937 Y23.003
X-29.779 Y23.772
Y23.775
X-29.624 Y24.523
X-29.623 Y24.526
X-29.471 Y25.254
X-29.47 Y25.257
X-29.32 Y25.963
Y25.967
X-29.173 Y26.651
X-29.172 Y26.656
X-29.028 Y27.318
X-29.027 Y27.323
X-28.886 Y27.963
X-28.884 Y27.969
X-28.746 Y28.586
X-28.744 Y28.593
X-28.608 Y29.188
X-28.607 Y29.195
X-28.473 Y29.768
X-28.471 Y29.776
X-28.339 Y30.326
X-28.337 Y30.335
X-28.208 Y30.862
X-28.205 Y30.873
X-28.078 Y31.378
X-28.075 Y31.389
X-27.949 Y31.872
X-27.945 Y31.885
X-27.821 Y32.345
X-27.817 Y32.36
X-27.694 Y32.799
X-27.689 Y32.816
X-27.567 Y33.233
X-27.561 Y33.252
X-27.44 Y33.647
X-27.433 Y33.669
X-27.312 Y34.044
X-27.304 Y34.068
X-27.183 Y34.422
X-27.173 Y34.45
X-27.052 Y34.785
X-27.041 Y34.815
X-26.919 Y35.131
X-26.905 Y35.165
X-26.783 Y35.462
X-26.767 Y35.5
X-26.643 Y35.779
X-26.624 Y35.821
X-26.499 Y36.082
X-26.476 Y36.128
X-26.348 Y36.373
X-26.322 Y36.422
X-26.192 Y36.652
X-26.161 Y36.705
X-26.029 Y36.92
X-25.994 Y36.974
X-25.858 Y37.176
X-25.818 Y37.232
X-25.679 Y37.42
X-25.635 Y37.477
X-25.492 Y37.654
X-25.445 Y37.71
X-25.296 Y37.876
X-25.247 Y37.929
X-25.094 Y38.086
X-25.042 Y38.137
X-24.884 Y38.285
X-24.808 Y38.352
X-24.473 Y38.627
X-24.379 Y38.699
X-24.017 Y38.954
X-23.94 Y39.006
X-23.549 Y39.248
X-23.491 Y39.282
X-23.067 Y39.521
X-23.03 Y39.542
X-22.571 Y39.785
X-22.55 Y39.795
X-22.054 Y40.048
X-22.047 Y40.052
X-21.785 Y40.184
X-21.783 Y40.185
X-21.512 Y40.321
X-21.231 Y40.463
X-20.942 Y40.608
X-20.644 Y40.759
X-20.337 Y40.916
X-20.02 Y41.078
X-19.695 Y41.245
X-19.36 Y41.419
X-19.016 Y41.599
X-18.663 Y41.784
X-18.302 Y41.975
X-17.552 Y42.374
X-16.77 Y42.792
X-15.959 Y43.225
X-15.958 Y43.226
X-15.122 Y43.673
X-15.118 Y43.675
X-14.26 Y44.13
X-14.254 Y44.133
X-13.378 Y44.593
X-13.37 Y44.598
X-12.477 Y45.059
X-12.466 Y45.065
X-11.561 Y45.524
X-11.547 Y45.531
X-10.632 Y45.984
X-10.615 Y45.993
X-9.694 Y46.435
X-9.674 Y46.445
X-8.748 Y46.873
X-8.724 Y46.884
X-7.798 Y47.295
X-7.77 Y47.307
X-6.845 Y47.695
X-6.812 Y47.708
X-5.892 Y48.071
X-5.854 Y48.085
X-4.941 Y48.418
X-4.898 Y48.433
X-3.993 Y48.733
X-3.944 Y48.749
X-3.051 Y49.013
X-3.01 Y49.025
X-2.568 Y49.143
X-2.539 Y49.151
X-2.1 Y49.259
X-2.07 Y49.266
X-1.634 Y49.364
X-1.602 Y49.371
X-1.17 Y49.46
X-1.138 Y49.466
X-0.709 Y49.544
X-0.675 Y49.55
X-0.25 Y49.618
G2 X0 Y49.638 I0.25 J-1.568
G3 X0.318 Y49.955 I0 J0.318
G1 Y50.272
G19 G3 Y50.59 Z-0.683 J0 K0.317
G0 Z15
G17
G28 G91 Z0
G90
G28 G91 X0 Y0
G90
M5
M30
