(1001)
(Machine)
(  vendor: AliExpress)
(  description: Gold CNC Machine)
(T1  D=3.175 CR=0 - ZMIN=-1 - flat end mill)
G90 G94
G17
G21
G28 G91 Z0
G90

(2D Contour6)
T1
S11000 M3
G54
G0 X51.307 Y0.318
Z15
Z5
G1 Z1 F333.3
Z-0.683
G18 G3 X50.99 Z-1 I-0.318 K0 F508
G1 X50.672
G17 G3 X50.355 Y0 I0 J-0.318
G1 Y-0.011
X50.342 Y-1.722
Y-1.727
X50.325 Y-3.403
Y-3.408
X50.303 Y-5.05
X50.302 Y-5.055
X50.275 Y-6.662
Y-6.667
X50.244 Y-8.241
Y-8.246
X50.208 Y-9.784
Y-9.789
X50.168 Y-11.293
Y-11.298
X50.125 Y-12.766
X50.124 Y-12.771
X50.078 Y-14.204
Y-14.209
X50.028 Y-15.606
Y-15.61
X49.977 Y-16.972
X49.976 Y-16.976
X49.922 Y-18.301
Y-18.305
X49.866 Y-19.593
Y-19.597
X49.809 Y-20.849
Y-20.853
X49.75 Y-22.066
X49.749 Y-22.071
X49.689 Y-23.246
Y-23.251
X49.627 Y-24.389
X49.626 Y-24.394
X49.562 Y-25.493
Y-25.499
X49.496 Y-26.559
X49.495 Y-26.567
X49.426 Y-27.587
Y-27.594
X49.39 Y-28.089
Y-28.094
X49.353 Y-28.579
Y-28.586
X49.315 Y-29.061
X49.314 Y-29.067
X49.275 Y-29.532
X49.274 Y-29.539
X49.234 Y-29.994
X49.233 Y-30.003
X49.191 Y-30.447
X49.19 Y-30.456
X49.147 Y-30.89
X49.146 Y-30.901
X49.1 Y-31.325
X49.099 Y-31.337
X49.051 Y-31.75
X49.05 Y-31.764
X49 Y-32.167
X48.998 Y-32.181
X48.946 Y-32.573
X48.944 Y-32.59
X48.889 Y-32.972
X48.886 Y-32.99
X48.828 Y-33.362
X48.825 Y-33.382
X48.764 Y-33.743
X48.761 Y-33.765
X48.696 Y-34.116
X48.692 Y-34.141
X48.624 Y-34.481
X48.618 Y-34.508
X48.547 Y-34.837
X48.54 Y-34.867
X48.464 Y-35.186
X48.455 Y-35.22
X48.375 Y-35.528
X48.365 Y-35.564
X48.28 Y-35.862
X48.268 Y-35.902
X48.177 Y-36.189
X48.162 Y-36.233
X48.066 Y-36.51
X48.049 Y-36.558
X47.946 Y-36.823
X47.925 Y-36.876
X47.817 Y-37.131
X47.791 Y-37.188
X47.675 Y-37.432
X47.645 Y-37.492
X47.522 Y-37.726
X47.486 Y-37.791
X47.355 Y-38.014
X47.313 Y-38.082
X47.173 Y-38.294
X47.124 Y-38.364
X46.976 Y-38.565
X46.92 Y-38.636
X46.762 Y-38.827
X46.699 Y-38.899
X46.53 Y-39.079
X46.46 Y-39.149
X46.28 Y-39.319
X46.205 Y-39.386
X46.013 Y-39.545
X45.932 Y-39.607
X45.728 Y-39.756
X45.645 Y-39.812
X45.428 Y-39.95
X45.343 Y-40
X45.112 Y-40.128
X45.028 Y-40.171
X44.781 Y-40.288
X44.699 Y-40.325
X44.437 Y-40.432
X44.358 Y-40.462
X44.08 Y-40.558
X44.005 Y-40.582
X43.71 Y-40.668
X43.64 Y-40.687
X43.327 Y-40.763
X43.262 Y-40.778
X42.932 Y-40.844
X42.872 Y-40.855
X42.522 Y-40.911
X42.469 Y-40.918
X42.1 Y-40.965
X42.05 Y-40.97
X41.661 Y-41.007
X41.616 Y-41.01
X41.207 Y-41.037
X41.167 Y-41.039
X40.737 Y-41.056
X40.701 Y-41.057
X40.25 Y-41.065
X40.217
X39.744 Y-41.064
X39.715 Y-41.063
X39.221 Y-41.053
X39.195 Y-41.052
X38.679 Y-41.032
X38.655 Y-41.031
X38.117 Y-41.002
X38.096 Y-41.001
X37.536 Y-40.964
X37.517 Y-40.963
X36.934 Y-40.917
X36.917 Y-40.915
X36.313 Y-40.861
X36.297 Y-40.86
X35.671 Y-40.797
X35.657 Y-40.796
X35.009 Y-40.726
X34.997 Y-40.724
X34.327 Y-40.646
X34.315 Y-40.645
X33.624 Y-40.559
X33.614 Y-40.558
X32.901 Y-40.465
X32.892 Y-40.464
X32.158 Y-40.364
X32.15 Y-40.363
X31.395 Y-40.256
X31.388 Y-40.255
X30.613 Y-40.141
X30.606 Y-40.14
X29.811 Y-40.02
X29.805 Y-40.019
X28.991 Y-39.892
X28.985 Y-39.891
X28.152 Y-39.758
X28.147
X27.296 Y-39.619
X27.291 Y-39.618
X26.421 Y-39.474
X26.417 Y-39.473
X25.53 Y-39.324
X25.526 Y-39.323
X24.622 Y-39.169
X24.618 Y-39.168
X23.698 Y-39.008
X23.695
X22.759 Y-38.843
X22.756
X21.804 Y-38.674
X21.802
X20.836 Y-38.5
X20.834
X19.855 Y-38.323
X19.853
X18.86 Y-38.142
X18.858 Y-38.141
X17.854 Y-37.957
X17.852
X16.837 Y-37.769
X16.835
X15.809 Y-37.578
X15.807
X14.771 Y-37.384
X14.769
X12.67 Y-36.989
X12.668
X10.539 Y-36.586
X10.538
X8.386 Y-36.176
X8.385
X6.218 Y-35.761
X6.216
X1.862 Y-34.924
X-0.312 Y-34.505
X-2.472 Y-34.088
X-4.614 Y-33.675
X-6.729 Y-33.266
X-8.812 Y-32.862
X-9.839 Y-32.663
X-10.856 Y-32.466
X-11.861 Y-32.271
X-12.855 Y-32.077
X-13.835 Y-31.887
X-14.802 Y-31.698
X-15.755 Y-31.511
X-16.693 Y-31.328
X-17.616 Y-31.146
X-17.617
X-18.522 Y-30.968
X-19.411 Y-30.792
X-19.413
X-20.284 Y-30.618
X-20.285
X-21.138 Y-30.448
X-21.14
X-21.974 Y-30.28
X-21.976
X-22.791 Y-30.116
X-22.793 Y-30.115
X-23.588 Y-29.954
X-23.59 Y-29.953
X-24.366 Y-29.794
X-24.368
X-25.122 Y-29.638
X-25.125 Y-29.637
X-25.859 Y-29.485
X-25.862 Y-29.484
X-26.574 Y-29.334
X-26.578 Y-29.333
X-27.268 Y-29.186
X-27.272 Y-29.185
X-27.941 Y-29.04
X-27.945 Y-29.039
X-28.591 Y-28.898
X-28.597 Y-28.896
X-29.22 Y-28.757
X-29.226 Y-28.756
X-29.827 Y-28.619
X-29.834 Y-28.618
X-30.412 Y-28.484
X-30.42 Y-28.482
X-30.975 Y-28.35
X-30.984 Y-28.348
X-31.516 Y-28.218
X-31.527 Y-28.215
X-32.036 Y-28.087
X-32.048 Y-28.084
X-32.535 Y-27.958
X-32.548 Y-27.955
X-33.013 Y-27.83
X-33.028 Y-27.826
X-33.47 Y-27.702
X-33.487 Y-27.698
X-33.907 Y-27.575
X-33.926 Y-27.57
X-34.326 Y-27.448
X-34.348 Y-27.441
X-34.726 Y-27.32
X-34.75 Y-27.312
X-35.107 Y-27.191
X-35.135 Y-27.181
X-35.472 Y-27.06
X-35.503 Y-27.049
X-35.821 Y-26.927
X-35.855 Y-26.914
X-36.154 Y-26.791
X-36.193 Y-26.775
X-36.474 Y-26.651
X-36.516 Y-26.632
X-36.779 Y-26.506
X-36.824 Y-26.484
X-37.072 Y-26.357
X-37.121 Y-26.33
X-37.353 Y-26.2
X-37.405 Y-26.17
X-37.621 Y-26.038
X-37.677 Y-26.002
X-37.88 Y-25.866
X-37.935 Y-25.827
X-38.125 Y-25.688
X-38.182 Y-25.644
X-38.361 Y-25.5
X-38.417 Y-25.453
X-38.584 Y-25.305
X-38.638 Y-25.255
X-38.795 Y-25.102
X-38.846 Y-25.051
X-38.995 Y-24.892
X-39.062 Y-24.816
X-39.338 Y-24.481
X-39.411 Y-24.386
X-39.666 Y-24.025
X-39.718 Y-23.946
X-39.96 Y-23.555
X-39.995 Y-23.497
X-40.233 Y-23.073
X-40.254 Y-23.035
X-40.495 Y-22.577
X-40.506 Y-22.556
X-40.758 Y-22.061
X-40.762 Y-22.053
X-40.893 Y-21.791
X-40.894 Y-21.79
X-41.03 Y-21.518
X-41.17 Y-21.238
X-41.316 Y-20.949
X-41.466 Y-20.651
X-41.622 Y-20.344
X-41.783 Y-20.028
X-41.951 Y-19.703
X-42.124 Y-19.368
X-42.303 Y-19.025
X-42.489 Y-18.672
X-42.679 Y-18.311
X-43.078 Y-17.561
X-43.495 Y-16.779
X-43.929 Y-15.968
X-43.93 Y-15.967
X-44.377 Y-15.131
X-44.379 Y-15.127
X-44.834 Y-14.269
X-44.837 Y-14.264
X-45.298 Y-13.387
X-45.303 Y-13.378
X-45.765 Y-12.486
X-45.771 Y-12.474
X-46.231 Y-11.569
X-46.238 Y-11.555
X-46.692 Y-10.64
X-46.7 Y-10.623
X-47.144 Y-9.701
X-47.154 Y-9.681
X-47.583 Y-8.755
X-47.594 Y-8.731
X-48.006 Y-7.804
X-48.018 Y-7.775
X-48.407 Y-6.85
X-48.421 Y-6.818
X-48.784 Y-5.897
X-48.799 Y-5.859
X-49.133 Y-4.945
X-49.148 Y-4.901
X-49.449 Y-3.997
X-49.464 Y-3.947
X-49.729 Y-3.053
X-49.741 Y-3.012
X-49.859 Y-2.57
X-49.867 Y-2.541
X-49.975 Y-2.102
X-49.983 Y-2.071
X-50.081 Y-1.635
X-50.088 Y-1.603
X-50.177 Y-1.171
X-50.183 Y-1.138
X-50.261 Y-0.71
X-50.267 Y-0.675
X-50.335 Y-0.25
G2 X-50.335 Y0.25 I1.568 J0.25
G1 X-50.267 Y0.675
X-50.261 Y0.71
X-50.183 Y1.138
X-50.177 Y1.171
X-50.088 Y1.603
X-50.081 Y1.635
X-49.983 Y2.071
X-49.975 Y2.102
X-49.867 Y2.541
X-49.859 Y2.57
X-49.741 Y3.012
X-49.729 Y3.053
X-49.464 Y3.947
X-49.449 Y3.997
X-49.148 Y4.901
X-49.133 Y4.945
X-48.799 Y5.859
X-48.784 Y5.897
X-48.421 Y6.818
X-48.407 Y6.85
X-48.018 Y7.775
X-48.006 Y7.804
X-47.594 Y8.731
X-47.583 Y8.755
X-47.154 Y9.681
X-47.144 Y9.701
X-46.7 Y10.623
X-46.692 Y10.64
X-46.238 Y11.555
X-46.231 Y11.569
X-45.771 Y12.474
X-45.765 Y12.486
X-45.303 Y13.378
X-45.298 Y13.387
X-44.837 Y14.264
X-44.834 Y14.269
X-44.379 Y15.127
X-44.377 Y15.131
X-43.93 Y15.967
X-43.929 Y15.968
X-43.495 Y16.779
X-43.078 Y17.561
X-42.679 Y18.311
X-42.489 Y18.672
X-42.303 Y19.025
X-42.124 Y19.368
X-41.951 Y19.703
X-41.783 Y20.028
X-41.622 Y20.344
X-41.466 Y20.651
X-41.316 Y20.949
X-41.17 Y21.238
X-41.03 Y21.518
X-40.894 Y21.79
X-40.893 Y21.791
X-40.762 Y22.053
X-40.758 Y22.061
X-40.506 Y22.556
X-40.495 Y22.577
X-40.254 Y23.035
X-40.233 Y23.073
X-39.995 Y23.497
X-39.96 Y23.555
X-39.718 Y23.946
X-39.666 Y24.025
X-39.411 Y24.386
X-39.338 Y24.481
X-39.062 Y24.816
X-38.995 Y24.892
X-38.846 Y25.051
X-38.795 Y25.102
X-38.638 Y25.255
X-38.584 Y25.305
X-38.417 Y25.453
X-38.361 Y25.5
X-38.182 Y25.644
X-38.125 Y25.688
X-37.935 Y25.827
X-37.88 Y25.866
X-37.677 Y26.002
X-37.621 Y26.038
X-37.405 Y26.17
X-37.353 Y26.2
X-37.121 Y26.33
X-37.072 Y26.357
X-36.824 Y26.484
X-36.779 Y26.506
X-36.516 Y26.632
X-36.474 Y26.651
X-36.193 Y26.775
X-36.154 Y26.791
X-35.855 Y26.914
X-35.821 Y26.927
X-35.503 Y27.049
X-35.472 Y27.06
X-35.135 Y27.181
X-35.107 Y27.191
X-34.75 Y27.312
X-34.726 Y27.32
X-34.348 Y27.441
X-34.326 Y27.448
X-33.926 Y27.57
X-33.907 Y27.575
X-33.487 Y27.698
X-33.47 Y27.702
X-33.028 Y27.826
X-33.013 Y27.83
X-32.548 Y27.955
X-32.535 Y27.958
X-32.048 Y28.084
X-32.036 Y28.087
X-31.527 Y28.215
X-31.516 Y28.218
X-30.984 Y28.348
X-30.975 Y28.35
X-30.42 Y28.482
X-30.412 Y28.484
X-29.834 Y28.618
X-29.827 Y28.619
X-29.226 Y28.756
X-29.22 Y28.757
X-28.597 Y28.896
X-28.591 Y28.898
X-27.945 Y29.039
X-27.941 Y29.04
X-27.272 Y29.185
X-27.268 Y29.186
X-26.578 Y29.333
X-26.574 Y29.334
X-25.862 Y29.484
X-25.859 Y29.485
X-25.125 Y29.637
X-25.122 Y29.638
X-24.368 Y29.794
X-24.366
X-23.59 Y29.953
X-23.588 Y29.954
X-22.793 Y30.115
X-22.791 Y30.116
X-21.976 Y30.28
X-21.974
X-21.14 Y30.448
X-21.138
X-20.285 Y30.618
X-20.284
X-19.413 Y30.792
X-19.411
X-18.523 Y30.968
X-17.617 Y31.146
X-17.616
X-16.694 Y31.328
X-15.756 Y31.511
X-14.803 Y31.698
X-13.836 Y31.886
X-12.855 Y32.077
X-11.862 Y32.271
X-10.856 Y32.466
X-9.84 Y32.663
X-8.812 Y32.862
X-6.73 Y33.266
X-4.614 Y33.675
X-2.473 Y34.088
X-0.312 Y34.505
X1.861 Y34.924
X6.216 Y35.761
X6.218
X8.385 Y36.176
X8.386
X10.538 Y36.586
X10.539
X12.668 Y36.989
X12.67
X14.769 Y37.384
X14.771
X15.807 Y37.578
X15.809
X16.835 Y37.769
X16.837
X17.852 Y37.957
X17.854
X18.858 Y38.141
X18.86 Y38.142
X19.853 Y38.323
X19.855
X20.834 Y38.5
X20.836
X21.802 Y38.674
X21.804
X22.756 Y38.843
X22.759
X23.695 Y39.008
X23.698
X24.618 Y39.168
X24.622 Y39.169
X25.526 Y39.323
X25.53 Y39.324
X26.417 Y39.473
X26.421 Y39.474
X27.291 Y39.618
X27.296 Y39.619
X28.147 Y39.758
X28.152
X28.985 Y39.891
X28.991 Y39.892
X29.805 Y40.019
X29.811 Y40.02
X30.606 Y40.14
X30.613 Y40.141
X31.388 Y40.255
X31.395 Y40.256
X32.15 Y40.363
X32.158 Y40.364
X32.892 Y40.464
X32.901 Y40.465
X33.614 Y40.558
X33.624 Y40.559
X34.315 Y40.645
X34.327 Y40.646
X34.997 Y40.724
X35.009 Y40.726
X35.657 Y40.796
X35.671 Y40.797
X36.297 Y40.86
X36.313 Y40.861
X36.917 Y40.915
X36.934 Y40.917
X37.517 Y40.963
X37.536 Y40.964
X38.096 Y41.001
X38.117 Y41.002
X38.655 Y41.031
X38.679 Y41.032
X39.195 Y41.052
X39.221 Y41.053
X39.715 Y41.063
X39.744 Y41.064
X40.217 Y41.065
X40.25
X40.701 Y41.057
X40.737 Y41.056
X41.167 Y41.039
X41.207 Y41.037
X41.616 Y41.01
X41.661 Y41.007
X42.05 Y40.97
X42.1 Y40.965
X42.469 Y40.918
X42.522 Y40.911
X42.872 Y40.855
X42.932 Y40.844
X43.262 Y40.778
X43.327 Y40.763
X43.64 Y40.687
X43.71 Y40.668
X44.005 Y40.582
X44.08 Y40.558
X44.358 Y40.462
X44.437 Y40.432
X44.699 Y40.325
X44.781 Y40.288
X45.028 Y40.171
X45.112 Y40.128
X45.343 Y40
X45.428 Y39.95
X45.645 Y39.812
X45.728 Y39.756
X45.932 Y39.607
X46.013 Y39.545
X46.205 Y39.386
X46.28 Y39.319
X46.46 Y39.149
X46.53 Y39.079
X46.699 Y38.899
X46.762 Y38.827
X46.92 Y38.636
X46.976 Y38.565
X47.124 Y38.364
X47.173 Y38.294
X47.313 Y38.082
X47.355 Y38.014
X47.486 Y37.791
X47.522 Y37.726
X47.645 Y37.492
X47.675 Y37.432
X47.791 Y37.188
X47.817 Y37.131
X47.925 Y36.876
X47.946 Y36.823
X48.049 Y36.558
X48.066 Y36.51
X48.162 Y36.233
X48.177 Y36.189
X48.268 Y35.902
X48.28 Y35.862
X48.365 Y35.564
X48.375 Y35.528
X48.455 Y35.22
X48.464 Y35.186
X48.54 Y34.867
X48.547 Y34.837
X48.618 Y34.508
X48.624 Y34.481
X48.692 Y34.141
X48.696 Y34.116
X48.761 Y33.765
X48.764 Y33.743
X48.825 Y33.382
X48.828 Y33.362
X48.886 Y32.99
X48.889 Y32.972
X48.944 Y32.59
X48.946 Y32.573
X48.998 Y32.181
X49 Y32.167
X49.05 Y31.764
X49.051 Y31.75
X49.099 Y31.337
X49.1 Y31.325
X49.146 Y30.901
X49.147 Y30.89
X49.19 Y30.456
X49.191 Y30.447
X49.233 Y30.003
X49.234 Y29.994
X49.274 Y29.539
X49.275 Y29.532
X49.314 Y29.067
X49.315 Y29.061
X49.353 Y28.586
Y28.579
X49.39 Y28.094
Y28.089
X49.426 Y27.594
Y27.587
X49.495 Y26.567
X49.496 Y26.559
X49.562 Y25.499
Y25.493
X49.626 Y24.394
X49.627 Y24.389
X49.689 Y23.251
Y23.246
X49.749 Y22.071
X49.75 Y22.066
X49.809 Y20.853
Y20.849
X49.866 Y19.597
Y19.593
X49.922 Y18.305
Y18.301
X49.976 Y16.976
X49.977 Y16.972
X50.028 Y15.61
Y15.606
X50.078 Y14.209
Y14.204
X50.124 Y12.771
X50.125 Y12.766
X50.168 Y11.298
Y11.293
X50.208 Y9.789
Y9.784
X50.244 Y8.246
Y8.241
X50.275 Y6.667
Y6.662
X50.302 Y5.055
X50.303 Y5.05
X50.325 Y3.408
Y3.403
X50.342 Y1.727
Y1.722
X50.355 Y0.011
Y0
G3 X50.672 Y-0.317 I0.317 J0
G1 X50.99
G18 G2 X51.307 Z-0.683 I0 K0.317
G0 Z15
G17
G28 G91 Z0
G90
G28 G91 X0 Y0
G90
M5
M30
