(1001)
(Machine)
(  vendor: AliExpress)
(  description: Gold CNC Machine)
(T1  D=2 CR=0 - ZMIN=-3 - flat end mill)
G90 G94
G17
G21
G28 G91 Z0
G90

(2D Contour2)
T1
S10000 M3
G54
G0 X-0.477 Y-0.421
Z4
Z2
G1 Z1 F60
Z-2.8
X-0.484 Z-2.852 F180
X-0.504 Y-0.42 Z-2.9
X-0.536 Y-0.418 Z-2.941
X-0.577 Y-0.416 Z-2.973
X-0.626 Y-0.414 Z-2.993
X-0.677 Y-0.411 Z-3
X-0.877 Y-0.402
G3 X-1.087 Y-0.592 I-0.01 J-0.2
G1 X-1.096 Y-0.784
X-1.097 Y-0.805
X-1.147 Y-1.51
X-1.151 Y-1.552
X-1.23 Y-2.25
X-1.236 Y-2.295
X-1.292 Y-2.64
X-1.299 Y-2.678
X-1.367 Y-3.02
X-1.376 Y-3.062
X-1.459 Y-3.401
X-1.47 Y-3.44
X-1.566 Y-3.775
X-1.577 Y-3.809
X-1.685 Y-4.141
X-1.695 Y-4.169
X-1.813 Y-4.499
X-1.824 Y-4.529
X-2.083 Y-5.185
X-2.092 Y-5.206
X-2.366 Y-5.858
X-2.396 Y-5.924
X-2.431 Y-5.987
X-2.765 Y-6.54
X-2.779 Y-6.563
X-3.125 Y-7.103
X-3.146 Y-7.135
X-3.328 Y-7.396
X-3.348 Y-7.424
X-3.538 Y-7.679
X-3.564 Y-7.712
X-3.763 Y-7.956
X-3.795 Y-7.994
X-4.006 Y-8.228
X-4.044 Y-8.268
X-4.267 Y-8.49
X-4.304 Y-8.525
X-4.539 Y-8.736
X-4.572 Y-8.764
X-4.817 Y-8.965
X-4.845 Y-8.987
X-5.098 Y-9.181
X-5.129 Y-9.204
X-5.653 Y-9.573
X-5.676 Y-9.589
X-6.213 Y-9.946
X-6.279 Y-9.986
X-6.347 Y-10.021
X-6.925 Y-10.288
X-6.947 Y-10.298
X-7.529 Y-10.55
X-7.572 Y-10.568
X-8.162 Y-10.792
X-8.209 Y-10.809
X-8.508 Y-10.905
X-8.548 Y-10.917
X-8.85 Y-11
X-8.894 Y-11.012
X-9.199 Y-11.081
X-9.24 Y-11.09
X-9.549 Y-11.147
X-9.598 Y-11.155
X-10.223 Y-11.238
X-10.27 Y-11.243
X-10.902 Y-11.297
X-10.925 Y-11.299
X-11.561 Y-11.339
X-11.685
X-12.351 Y-11.298
X-12.376 Y-11.296
X-13.038 Y-11.239
X-13.072 Y-11.236
X-13.4 Y-11.196
X-13.432 Y-11.192
X-13.757 Y-11.142
X-13.795 Y-11.135
X-14.117 Y-11.073
X-14.161 Y-11.063
X-14.479 Y-10.987
X-14.527 Y-10.974
X-14.841 Y-10.881
X-14.886 Y-10.867
X-15.195 Y-10.759
X-15.233 Y-10.745
X-15.539 Y-10.625
X-15.57 Y-10.613
X-15.873 Y-10.482
X-15.906 Y-10.467
X-16.505 Y-10.182
X-16.529 Y-10.171
X-17.124 Y-9.869
X-17.191 Y-9.831
X-17.255 Y-9.788
X-17.777 Y-9.413
X-17.798 Y-9.398
X-18.306 Y-9.011
X-18.335 Y-8.988
X-18.58 Y-8.787
X-18.606 Y-8.765
X-18.843 Y-8.557
X-18.873 Y-8.529
X-19.101 Y-8.312
X-19.135 Y-8.278
X-19.352 Y-8.051
X-19.387 Y-8.012
X-19.591 Y-7.774
X-19.622 Y-7.737
X-19.815 Y-7.488
X-19.839 Y-7.456
X-20.023 Y-7.199
X-20.042 Y-7.171
X-20.218 Y-6.907
X-20.238 Y-6.876
X-20.572 Y-6.331
X-20.585 Y-6.309
X-20.907 Y-5.753
X-20.938 Y-5.695
X-20.965 Y-5.635
X-21.213 Y-5.035
X-21.221 Y-5.016
X-21.456 Y-4.413
X-21.471 Y-4.373
X-21.679 Y-3.764
X-21.693 Y-3.72
X-21.783 Y-3.412
X-21.793 Y-3.376
X-21.871 Y-3.065
X-21.88 Y-3.025
X-21.945 Y-2.712
X-21.952 Y-2.675
X-22.006 Y-2.358
X-22.012 Y-2.313
X-22.09 Y-1.674
X-22.095 Y-1.632
X-22.146 Y-0.987
X-22.147 Y-0.966
X-22.185 Y-0.318
Y-0.204
X-22.126 Y0.869
X-22.124 Y0.888
X-22.084 Y1.421
X-22.082 Y1.445
X-22.029 Y1.973
X-22.025 Y2.006
X-21.955 Y2.527
X-21.949 Y2.568
X-21.859 Y3.083
X-21.848 Y3.133
X-21.733 Y3.638
X-21.717 Y3.696
X-21.572 Y4.191
X-21.551 Y4.256
X-21.372 Y4.739
X-21.346 Y4.803
X-21.134 Y5.273
X-21.109 Y5.326
X-20.868 Y5.787
X-20.844 Y5.829
X-20.579 Y6.281
X-20.56 Y6.313
X-20.276 Y6.758
X-20.26 Y6.782
X-19.961 Y7.222
X-19.948 Y7.24
X-19.327 Y8.111
G2 X-19.155 Y8.298 I0.814 J-0.581
G1 X-18.405 Y8.924
X-18.387 Y8.939
X-18.008 Y9.242
X-17.985 Y9.259
X-17.6 Y9.548
X-17.568 Y9.571
X-17.176 Y9.842
X-17.135 Y9.87
X-16.733 Y10.119
X-16.681 Y10.149
X-16.268 Y10.371
X-16.204 Y10.403
X-15.779 Y10.594
X-15.707 Y10.623
X-15.268 Y10.781
X-15.203 Y10.802
X-14.752 Y10.931
X-14.696 Y10.945
X-14.234 Y11.048
X-14.188 Y11.057
X-13.717 Y11.139
X-13.68 Y11.145
X-13.202 Y11.21
X-13.175 Y11.213
X-12.692 Y11.266
X-12.67 Y11.268
X-11.695 Y11.351
X-11.622 Y11.355
X-11.549 Y11.353
X-10.891 Y11.313
X-10.867 Y11.311
X-10.213 Y11.255
X-10.18 Y11.251
X-9.856 Y11.212
X-9.825 Y11.208
X-9.504 Y11.159
X-9.467 Y11.153
X-9.149 Y11.093
X-9.105 Y11.083
X-8.791 Y11.009
X-8.743 Y10.996
X-8.433 Y10.907
X-8.39 Y10.893
X-8.083 Y10.789
X-8.047 Y10.776
X-7.743 Y10.659
X-7.714 Y10.647
X-7.413 Y10.521
X-7.381 Y10.506
X-6.786 Y10.231
X-6.763 Y10.22
X-6.173 Y9.928
X-6.105 Y9.891
X-6.041 Y9.849
X-5.517 Y9.48
X-5.495 Y9.464
X-4.983 Y9.083
X-4.954 Y9.06
X-4.707 Y8.861
X-4.681 Y8.839
X-4.442 Y8.632
X-4.411 Y8.605
X-4.182 Y8.389
X-4.147 Y8.355
X-3.93 Y8.129
X-3.894 Y8.09
X-3.689 Y7.853
X-3.658 Y7.816
X-3.464 Y7.568
X-3.439 Y7.535
X-3.255 Y7.279
X-3.235 Y7.251
X-3.059 Y6.988
X-3.039 Y6.957
X-2.704 Y6.414
X-2.69 Y6.391
X-2.368 Y5.836
X-2.336 Y5.775
X-2.307 Y5.712
X-2.044 Y5.068
X-2.036 Y5.047
X-1.789 Y4.4
X-1.773 Y4.358
X-1.556 Y3.703
X-1.542 Y3.657
X-1.45 Y3.326
X-1.44 Y3.288
X-1.36 Y2.954
X-1.352 Y2.914
X-1.286 Y2.577
X-1.28 Y2.54
X-1.227 Y2.2
X-1.221 Y2.156
X-1.146 Y1.47
X-1.142 Y1.428
X-1.095 Y0.736
X-1.094 Y0.715
X-1.061 Y0.02
Y-0.076
X-1.087 Y-0.592
G3 X-0.897 Y-0.801 I0.2 J-0.01
G1 X-0.697 Y-0.811
X-0.645 Y-0.814 Z-2.993
X-0.597 Y-0.816 Z-2.973
X-0.556 Y-0.818 Z-2.941
X-0.524 Y-0.819 Z-2.9
X-0.504 Y-0.82 Z-2.852
X-0.497 Y-0.821 Z-2.8
G0 Z2
X1.768 Y0.094
G1 Z1 F60
Z-2.8
X1.773 Y0.099 Z-2.852 F180
X1.787 Y0.114 Z-2.9
X1.808 Y0.137 Z-2.941
X1.837 Y0.167 Z-2.973
X1.87 Y0.202 Z-2.993
X1.905 Y0.24 Z-3
X2.042 Y0.386
G3 X2.033 Y0.669 I-0.146 J0.137
G1 X1.915 Y0.779
X1.861 Y0.834
X1.621 Y1.098
X1.58 Y1.146
X1.13 Y1.707
X1.069 Y1.792
X1.017 Y1.883
X0.72 Y2.473
X0.692 Y2.533
X0.565 Y2.834
X0.537 Y2.909
X0.435 Y3.217
X0.408 Y3.311
X0.337 Y3.628
X0.323 Y3.705
X0.276 Y4.029
X0.269 Y4.093
X0.217 Y4.751
X0.214 Y4.83
X0.217 Y4.908
X0.247 Y5.285
X0.25 Y5.312
X0.289 Y5.685
X0.297 Y5.74
X0.356 Y6.107
X0.373 Y6.19
X0.463 Y6.548
X0.493 Y6.646
X0.619 Y6.993
X0.65 Y7.07
X0.805 Y7.408
X0.829 Y7.457
X1.004 Y7.789
X1.017 Y7.813
X1.201 Y8.142
X1.243 Y8.21
X1.29 Y8.275
X1.546 Y8.597
X1.564 Y8.62
X1.827 Y8.933
X1.866 Y8.976
X2.145 Y9.271
X2.19 Y9.315
X2.337 Y9.453
X2.376 Y9.487
X2.53 Y9.616
X2.593 Y9.665
X2.921 Y9.898
X2.991 Y9.944
X3.341 Y10.15
X3.388 Y10.177
X3.752 Y10.366
X3.776 Y10.378
X4.146 Y10.558
X4.207 Y10.585
X4.269 Y10.608
X5.163 Y10.904
X5.208 Y10.918
X5.659 Y11.044
X5.715 Y11.058
X6.171 Y11.158
X6.237 Y11.17
X6.699 Y11.239
X6.752 Y11.246
X7.219 Y11.29
X7.263 Y11.293
X8.204 Y11.34
X8.299
X9.304 Y11.294
X9.349 Y11.291
X9.847 Y11.246
X9.9 Y11.24
X10.393 Y11.168
X10.462 Y11.155
X10.948 Y11.05
X11.006 Y11.035
X11.487 Y10.9
X11.534 Y10.885
X12.487 Y10.566
X12.55 Y10.543
X12.61 Y10.515
X12.997 Y10.325
X13.02 Y10.313
X13.399 Y10.114
X13.447 Y10.088
X13.811 Y9.871
X13.86 Y9.839
X14.034 Y9.721
X14.074 Y9.692
X14.242 Y9.566
X14.284 Y9.532
X14.445 Y9.397
X14.484 Y9.363
X14.637 Y9.219
X14.681 Y9.175
X14.972 Y8.868
X15.011 Y8.825
X15.286 Y8.498
X15.304 Y8.476
X15.571 Y8.139
X15.621 Y8.072
X15.664 Y8
X15.867 Y7.632
X15.879 Y7.609
X16.073 Y7.237
X16.095 Y7.191
X16.267 Y6.813
X16.297 Y6.74
X16.438 Y6.352
X16.467 Y6.26
X16.57 Y5.86
X16.586 Y5.786
X16.659 Y5.376
X16.667 Y5.327
X16.72 Y4.911
X16.723 Y4.886
X16.766 Y4.467
G2 X15.846 Y3.368 I-0.995 J-0.102
G1 X13.308 Y3.177
G2 X12.248 Y4.007 I-0.075 J0.997
G1 X12.18 Y4.401
X12.108 Y4.755
X12.019 Y5.077
X11.974 Y5.202
X11.922 Y5.324
X11.863 Y5.437
X11.793 Y5.552
X11.709 Y5.672
X11.616 Y5.792
X11.378 Y6.069
X11.209 Y6.251
X10.95 Y6.403
X10.581 Y6.603
X10.417 Y6.681
X10.254 Y6.751
X10.097 Y6.808
X9.938 Y6.854
X9.771 Y6.893
X9.602 Y6.923
X9.205 Y6.969
X8.784 Y6.994
X8.357 Y7.008
X7.929 Y6.999
X7.505 Y6.98
X7.103 Y6.94
X6.93 Y6.913
X6.758 Y6.878
X6.595 Y6.835
X6.434 Y6.782
X6.268 Y6.717
X6.102 Y6.644
X5.727 Y6.457
X5.451 Y6.306
X5.331 Y6.193
X5.156 Y6.012
X5.016 Y5.843
X4.978 Y5.787
X4.943 Y5.728
X4.915 Y5.668
X4.894 Y5.611
X4.839 Y5.407
X4.796 Y5.165
X4.772 Y4.988
X4.784 Y4.869
X4.81 Y4.677
X4.841 Y4.533
X4.875 Y4.434
X4.924 Y4.343
X5.007 Y4.224
X5.13 Y4.076
X5.175 Y4.027
X5.483 Y3.856
X5.921 Y3.628
X6.347 Y3.433
X6.782 Y3.27
X7.24 Y3.129
X7.716 Y3.005
X8.743 Y2.777
X8.747 Y2.776
X9.874 Y2.522
X9.89 Y2.518
X10.451 Y2.382
X10.471 Y2.377
X11.028 Y2.229
X11.055 Y2.222
X11.607 Y2.059
X11.636 Y2.05
X12.184 Y1.87
X12.209 Y1.862
X13.296 Y1.474
X13.358 Y1.45
X13.417 Y1.422
X13.791 Y1.23
X13.812 Y1.219
X14.179 Y1.019
X14.221 Y0.995
X14.576 Y0.78
X14.636 Y0.74
X14.972 Y0.501
X15.046 Y0.443
X15.358 Y0.174
X15.419 Y0.118
X15.709 Y-0.178
X15.746 Y-0.218
X16.021 Y-0.532
X16.039 Y-0.552
X16.307 Y-0.875
X16.364 Y-0.949
X16.413 Y-1.028
X16.597 Y-1.359
X16.61 Y-1.383
X16.784 Y-1.717
X16.809 Y-1.769
X16.962 Y-2.109
X16.994 Y-2.19
X17.116 Y-2.539
X17.146 Y-2.64
X17.23 Y-3.001
X17.246 Y-3.083
X17.301 Y-3.452
X17.307 Y-3.506
X17.342 Y-3.881
X17.344 Y-3.908
X17.369 Y-4.287
X17.371 Y-4.36
X17.368 Y-4.433
X17.335 Y-4.834
X17.333 Y-4.861
X17.29 Y-5.259
X17.283 Y-5.313
X17.218 Y-5.705
X17.202 Y-5.787
X17.106 Y-6.169
X17.076 Y-6.265
X16.943 Y-6.636
X16.912 Y-6.711
X16.748 Y-7.073
X16.724 Y-7.121
X16.539 Y-7.476
X16.527 Y-7.499
X16.332 Y-7.852
X16.291 Y-7.919
X16.244 Y-7.984
X15.974 Y-8.328
X15.957 Y-8.349
X15.679 Y-8.685
X15.643 Y-8.726
X15.35 Y-9.043
X15.309 Y-9.085
X15.154 Y-9.234
X15.118 Y-9.267
X14.957 Y-9.408
X14.899 Y-9.454
X14.556 Y-9.712
X14.492 Y-9.756
X14.126 Y-9.988
X14.083 Y-10.014
X13.703 Y-10.228
X13.681 Y-10.24
X13.294 Y-10.446
X13.235 Y-10.475
X13.175 Y-10.5
X12.71 Y-10.674
X12.691 Y-10.681
X12.224 Y-10.846
X12.185 Y-10.858
X11.713 Y-11.003
X11.653 Y-11.019
X11.175 Y-11.133
X11.103 Y-11.147
X10.618 Y-11.226
X10.56 Y-11.233
X10.069 Y-11.283
X10.021 Y-11.287
X9.03 Y-11.34
X8.948 Y-11.341
X8.364 Y-11.324
X8.347 Y-11.323
X7.764 Y-11.297
X7.729 Y-11.295
X7.15 Y-11.248
X7.098 Y-11.243
X6.524 Y-11.166
X6.475 Y-11.158
X6.19 Y-11.105
X6.156 Y-11.098
X5.873 Y-11.036
X5.831 Y-11.025
X5.271 Y-10.875
X5.232 Y-10.863
X4.676 Y-10.69
X4.657 Y-10.683
X4.103 Y-10.498
X4.031 Y-10.471
X3.962 Y-10.439
X3.537 Y-10.22
X3.514 Y-10.207
X3.098 Y-9.979
X3.052 Y-9.952
X2.652 Y-9.703
X2.604 Y-9.671
X2.413 Y-9.537
X2.374 Y-9.508
X2.19 Y-9.365
X2.149 Y-9.331
X1.973 Y-9.178
X1.937 Y-9.145
X1.768 Y-8.983
X1.727 Y-8.941
X1.407 Y-8.596
X1.37 Y-8.555
X1.067 Y-8.19
X1.05 Y-8.169
X0.755 Y-7.794
X0.707 Y-7.726
X0.664 Y-7.655
X0.434 Y-7.233
X0.422 Y-7.21
X0.204 Y-6.785
X0.181 Y-6.737
X-0.012 Y-6.305
X-0.034 Y-6.253
X-0.118 Y-6.032
X-0.134 Y-5.988
X-0.207 Y-5.765
X-0.222 Y-5.717
X-0.284 Y-5.49
X-0.295 Y-5.446
X-0.347 Y-5.216
X-0.357 Y-5.162
X-0.436 Y-4.694
X-0.444 Y-4.644
X-0.499 Y-4.169
X-0.502 Y-4.144
X-0.546 Y-3.666
G2 X0.363 Y-2.578 I0.996 J0.091
G1 X2.86 Y-2.36
G2 X3.933 Y-3.193 I0.087 J-0.996
G1 X4.037 Y-3.819
X4.094 Y-4.084
X4.163 Y-4.33
X4.25 Y-4.565
X4.359 Y-4.804
X4.596 Y-5.256
X4.922 Y-5.628
X5.095 Y-5.8
X5.271 Y-5.947
X5.464 Y-6.08
X5.684 Y-6.209
X6.175 Y-6.457
X6.832 Y-6.683
X7.156 Y-6.776
X7.474 Y-6.848
X7.798 Y-6.897
X8.139 Y-6.93
X8.858 Y-6.966
X9.475 Y-6.941
X9.769 Y-6.916
X10.049 Y-6.879
X10.324 Y-6.825
X10.605 Y-6.753
X11.174 Y-6.579
X11.578 Y-6.396
X11.752 Y-6.304
X11.902 Y-6.209
X12.036 Y-6.104
X12.172 Y-5.977
X12.443 Y-5.686
X12.609 Y-5.408
X12.676 Y-5.276
X12.723 Y-5.158
X12.756 Y-5.037
X12.782 Y-4.893
X12.815 Y-4.564
X12.788 Y-4.256
X12.766 Y-4.125
X12.737 Y-4.019
X12.697 Y-3.919
X12.638 Y-3.804
X12.489 Y-3.563
X12.209 Y-3.29
X12.061 Y-3.164
X11.913 Y-3.059
X11.749 Y-2.963
X11.561 Y-2.871
X11.127 Y-2.686
X10.305 Y-2.427
X9.446 Y-2.182
X8.574 Y-1.961
X7.683 Y-1.751
X7.672 Y-1.748
X6.684 Y-1.504
X6.663 Y-1.498
X6.172 Y-1.366
X6.147 Y-1.358
X5.661 Y-1.213
X5.628 Y-1.203
X5.147 Y-1.041
X5.112 Y-1.028
X4.637 Y-0.848
X4.607 Y-0.836
X3.668 Y-0.446
X3.602 Y-0.416
X3.539 Y-0.381
X2.921 Y-0.012
X2.873 Y0.019
X2.577 Y0.219
X2.521 Y0.26
X2.242 Y0.478
X2.174 Y0.537
X2.033 Y0.669
G3 X1.751 Y0.66 I-0.137 J-0.146
G1 X1.614 Y0.514
X1.578 Y0.476 Z-2.993
X1.545 Y0.441 Z-2.973
X1.517 Y0.411 Z-2.941
X1.495 Y0.388 Z-2.9
X1.481 Y0.373 Z-2.852
X1.477 Y0.368 Z-2.8
G0 Z2
X-6.391 Y0.019
G1 Z1 F60
Z-2.8
X-6.384 Z-2.852 F180
X-6.364 Y0.02 Z-2.9
X-6.332 Y0.021 Z-2.941
X-6.291 Y0.022 Z-2.973
X-6.243 Y0.024 Z-2.993
X-6.191 Y0.026 Z-3
X-5.991 Y0.034
G3 X-5.799 Y0.241 I-0.008 J0.2
G1 X-5.808 Y0.488
X-5.838 Y1.006
X-5.885 Y1.501
X-5.959 Y1.982
X-6.005 Y2.202
X-6.061 Y2.425
X-6.204 Y2.905
X-6.373 Y3.392
X-6.535 Y3.833
X-6.721 Y4.182
X-6.934 Y4.558
X-7.157 Y4.905
X-7.262 Y5.05
X-7.375 Y5.191
X-7.495 Y5.324
X-7.62 Y5.45
X-7.927 Y5.722
X-8.264 Y5.989
X-8.573 Y6.22
X-8.911 Y6.399
X-9.296 Y6.591
X-9.672 Y6.753
X-9.84 Y6.815
X-10.013 Y6.868
X-10.189 Y6.913
X-10.366 Y6.949
X-10.773 Y7.008
X-11.203 Y7.048
X-11.582 Y7.073
X-12.161 Y7.018
X-12.787 Y6.937
X-13.068 Y6.886
X-13.34 Y6.824
X-13.598 Y6.75
X-13.84 Y6.663
X-14.076 Y6.559
X-14.312 Y6.435
X-14.553 Y6.292
X-14.791 Y6.135
X-15.301 Y5.762
X-15.704 Y5.445
X-16.113 Y4.859
X-16.337 Y4.519
X-16.544 Y4.182
X-16.729 Y3.85
X-16.89 Y3.522
X-17.024 Y3.196
X-17.134 Y2.862
X-17.223 Y2.513
X-17.293 Y2.148
X-17.347 Y1.767
X-17.388 Y1.372
X-17.416 Y0.964
X-17.435 Y0.547
X-17.458 Y-0.285
X-17.417 Y-1.011
X-17.351 Y-1.747
X-17.306 Y-2.086
X-17.248 Y-2.417
X-17.176 Y-2.733
X-17.089 Y-3.034
X-16.982 Y-3.324
X-16.854 Y-3.612
X-16.704 Y-3.902
X-16.534 Y-4.197
X-16.346 Y-4.496
X-16.144 Y-4.798
X-15.774 Y-5.326
X-15.351 Y-5.69
X-15.104 Y-5.892
X-14.859 Y-6.081
X-14.618 Y-6.253
X-14.381 Y-6.405
X-14.147 Y-6.536
X-13.914 Y-6.645
X-13.673 Y-6.736
X-13.415 Y-6.814
X-13.14 Y-6.879
X-12.855 Y-6.932
X-12.217 Y-7.017
X-11.636 Y-7.072
X-11.043 Y-7.016
X-10.722 Y-6.979
X-10.413 Y-6.934
X-10.119 Y-6.88
X-9.842 Y-6.814
X-9.583 Y-6.736
X-9.34 Y-6.644
X-9.107 Y-6.534
X-8.873 Y-6.402
X-8.636 Y-6.248
X-8.395 Y-6.074
X-8.15 Y-5.882
X-7.903 Y-5.676
X-7.481 Y-5.307
X-7.103 Y-4.751
X-6.898 Y-4.434
X-6.707 Y-4.119
X-6.534 Y-3.808
X-6.382 Y-3.502
X-6.253 Y-3.198
X-6.146 Y-2.892
X-6.058 Y-2.573
X-5.987 Y-2.239
X-5.93 Y-1.891
X-5.886 Y-1.535
X-5.826 Y-0.765
X-5.789 Y-0.009
X-5.799 Y0.241
G3 X-6.006 Y0.434 I-0.2 J-0.008
G1 X-6.206 Y0.426
X-6.258 Y0.424 Z-2.993
X-6.306 Y0.422 Z-2.973
X-6.348 Y0.421 Z-2.941
X-6.379 Y0.419 Z-2.9
X-6.399 Z-2.852
X-6.406 Y0.418 Z-2.8
G0 Z2
X-37.314 Y-4.388
G1 Z1 F60
Z-2.8
X-37.307 Y-4.389 Z-2.852 F180
X-37.287 Y-4.391 Z-2.9
X-37.255 Y-4.393 Z-2.941
X-37.214 Y-4.397 Z-2.973
X-37.166 Y-4.401 Z-2.993
X-37.115 Y-4.405 Z-3
X-36.915 Y-4.422
G3 X-36.699 Y-4.24 I0.017 J0.199
G2 X-35.838 Y-3.334 I0.996 J-0.085
G1 X-33.451 Y-3.007
G2 X-32.316 Y-3.951 I0.136 J-0.991
G1 X-32.297 Y-4.357
X-32.27 Y-4.736
X-32.228 Y-5.084
X-32.162 Y-5.41
X-32.126 Y-5.543
X-32.082 Y-5.671
X-31.95 Y-5.976
X-31.784 Y-6.294
X-31.675 Y-6.485
X-31.598 Y-6.549
X-31.414 Y-6.693
X-31.243 Y-6.804
X-31.19 Y-6.832
X-31.146 Y-6.851
X-30.982 Y-6.901
X-30.789 Y-6.937
X-30.55 Y-6.963
X-30.338 Y-6.979
X-29.986 Y-6.955
X-29.832 Y-6.936
X-29.699 Y-6.908
X-29.573 Y-6.869
X-29.435 Y-6.814
X-29.154 Y-6.677
X-28.946 Y-6.515
X-28.86 Y-6.436
X-28.798 Y-6.368
X-28.745 Y-6.293
X-28.688 Y-6.194
X-28.578 Y-5.963
X-28.471 Y-5.476
X-28.424 Y-5.21
X-28.391 Y-4.946
X-28.37 Y-4.673
X-28.359 Y-4.389
X-28.353 Y-3.774
Y10
G2 X-27.353 Y11 I1 J0
G1 X-24.707
G2 X-23.707 Y10 I0 J-1
G1 Y-3.629
Y-3.653
X-23.73 Y-4.647
X-23.732 Y-4.688
X-23.764 Y-5.182
X-23.769 Y-5.232
X-23.826 Y-5.721
X-23.835 Y-5.787
X-23.924 Y-6.271
X-23.938 Y-6.333
X-24.058 Y-6.812
X-24.069 Y-6.854
X-24.21 Y-7.329
X-24.217 Y-7.349
X-24.368 Y-7.822
X-24.401 Y-7.909
X-24.441 Y-7.992
X-24.615 Y-8.315
X-24.63 Y-8.342
X-24.813 Y-8.657
X-24.845 Y-8.71
X-25.045 Y-9.01
X-25.084 Y-9.064
X-25.193 Y-9.206
X-25.228 Y-9.25
X-25.345 Y-9.385
X-25.406 Y-9.45
X-25.662 Y-9.698
X-25.733 Y-9.761
X-26.015 Y-9.986
X-26.064 Y-10.024
X-26.362 Y-10.233
X-26.387 Y-10.251
X-26.694 Y-10.453
X-26.769 Y-10.498
X-26.848 Y-10.536
X-27.586 Y-10.854
X-27.643 Y-10.877
X-28.018 Y-11.012
X-28.09 Y-11.034
X-28.471 Y-11.14
X-28.557 Y-11.16
X-28.946 Y-11.232
X-29.014 Y-11.242
X-29.41 Y-11.288
X-29.466 Y-11.292
X-30.269 Y-11.339
X-30.387
X-30.953 Y-11.305
X-30.988 Y-11.303
X-31.546 Y-11.25
X-31.594 Y-11.244
X-31.868 Y-11.204
X-31.913 Y-11.197
X-32.182 Y-11.145
X-32.236 Y-11.134
X-32.5 Y-11.068
X-32.563 Y-11.05
X-32.82 Y-10.968
X-32.891 Y-10.942
X-33.141 Y-10.841
X-33.209 Y-10.811
X-33.452 Y-10.691
X-33.508 Y-10.66
X-33.744 Y-10.524
X-33.789 Y-10.496
X-34.02 Y-10.347
X-34.066 Y-10.314
X-34.516 Y-9.985
X-34.548 Y-9.96
X-34.989 Y-9.609
G2 X-35.204 Y-9.372 I0.623 J0.782
G1 X-35.536 Y-8.862
X-35.556 Y-8.829
X-35.865 Y-8.312
X-35.891 Y-8.265
X-36.03 Y-8.002
X-36.052 Y-7.957
X-36.177 Y-7.689
X-36.201 Y-7.634
X-36.309 Y-7.36
X-36.332 Y-7.295
X-36.42 Y-7.015
X-36.438 Y-6.951
X-36.508 Y-6.666
X-36.52 Y-6.609
X-36.574 Y-6.319
X-36.581 Y-6.271
X-36.621 Y-5.976
X-36.626 Y-5.936
X-36.654 Y-5.637
X-36.657 Y-5.594
X-36.688 Y-4.988
X-36.69 Y-4.958
X-36.702 Y-4.346
X-36.699 Y-4.24
G3 X-36.881 Y-4.024 I-0.199 J0.017
G1 X-37.081 Y-4.007
X-37.132 Y-4.002 Z-2.993
X-37.18 Y-3.998 Z-2.973
X-37.222 Y-3.995 Z-2.941
X-37.253 Y-3.992 Z-2.9
X-37.273 Y-3.99 Z-2.852
X-37.28 Z-2.8
G0 Z2
X18.468 Y9.8
G1 Z1 F60
Z-2.8
G18 G2 X18.668 Z-3 I0.2 K0 F180
G1 X18.868
G17 G3 X19.068 Y10 I0 J0.2
G2 X20.068 Y11 I1 J0
G1 X22.715
G2 X23.715 Y10 I0 J-1
G1 Y2.787
X32.111
Y10
G2 X33.111 Y11 I1 J0
G1 X35.757
G2 X36.757 Y10 I0 J-1
G1 Y-10
G2 X35.757 Y-11 I-1 J0
G1 X33.111
G2 X32.111 Y-10 I0 J1
G1 Y-1.573
X23.715
Y-10
G2 X22.715 Y-11 I-1 J0
G1 X20.068
G2 X19.068 Y-10 I0 J1
G1 Y10
G3 X18.868 Y10.2 I-0.2 J0
G1 X18.668
G18 G3 X18.468 Z-2.8 I0 K0.2
G0 Z4
G17
G28 G91 Z0
G90
G28 G91 X0 Y0
G90
M5
M30
