(1001)
(Machine)
(  vendor: AliExpress)
(  description: Gold CNC Machine)
(T1  D=3.175 CR=0 - ZMIN=-1 - flat end mill)
G90 G94
G17
G21

(2D Contour4)
S11000 M3
G54
G0 X149.84 Y29.518
Z15
Z5
G1 Z1 F333.3
Z-0.683
X149.833 Y29.517 Z-0.753 F381
X149.809 Y29.513 Z-0.82
X149.772 Y29.506 Z-0.88
X149.723 Y29.497 Z-0.931
X149.664 Y29.486 Z-0.969
X149.597 Y29.474 Z-0.992
X149.528 Y29.462 Z-1
X149.216 Y29.405
G3 X148.96 Y29.036 I0.056 J-0.312
G1 X148.978 Y28.933
X148.979 Y28.931
X149.152 Y27.965
Y27.963
X149.321 Y27.012
X149.322 Y27.008
X149.486 Y26.072
Y26.07
X149.646 Y25.15
X149.647 Y25.146
X149.802 Y24.242
X149.803 Y24.237
X149.952 Y23.35
Y23.346
X150.096 Y22.476
X150.097 Y22.473
X150.236 Y21.621
X150.237 Y21.616
X150.37 Y20.782
X150.371 Y20.775
X150.497 Y19.961
X150.498 Y19.955
X150.618 Y19.161
X150.619 Y19.155
X150.733 Y18.38
X150.734 Y18.372
X150.841 Y17.618
X150.842 Y17.609
X150.942 Y16.876
X150.943 Y16.867
X151.036 Y16.154
X151.037 Y16.144
X151.123 Y15.453
X151.125 Y15.441
X151.203 Y14.771
X151.204 Y14.758
X151.274 Y14.11
X151.276 Y14.095
X151.338 Y13.469
X151.339 Y13.454
X151.393 Y12.85
X151.395 Y12.834
X151.441 Y12.251
X151.442 Y12.231
X151.479 Y11.671
X151.48 Y11.652
X151.509 Y11.113
X151.51 Y11.089
X151.53 Y10.573
X151.531 Y10.544
X151.541 Y10.05
Y10.024
X151.543 Y9.552
Y9.517
X151.535 Y9.066
X151.534 Y9.031
X151.517 Y8.601
X151.515 Y8.559
X151.488 Y8.15
X151.485 Y8.108
X151.449 Y7.719
X151.443 Y7.669
X151.397 Y7.3
X151.389 Y7.241
X151.332 Y6.891
X151.322 Y6.836
X151.256 Y6.505
X151.242 Y6.441
X151.166 Y6.128
X151.147 Y6.059
X151.061 Y5.764
X151.036 Y5.686
X150.939 Y5.407
X150.91 Y5.33
X150.803 Y5.068
X150.767 Y4.987
X150.65 Y4.741
X150.605 Y4.654
X150.478 Y4.423
X150.429 Y4.34
X150.291 Y4.123
X150.233 Y4.037
X150.084 Y3.833
X150.023 Y3.755
X149.864 Y3.563
X149.799 Y3.49
X149.63 Y3.31
X149.556 Y3.236
X149.375 Y3.067
X149.306 Y3.006
X149.115 Y2.847
X149.045 Y2.793
X148.844 Y2.644
X148.77 Y2.593
X148.557 Y2.453
X148.491 Y2.412
X148.268 Y2.281
X148.205 Y2.246
X147.972 Y2.123
X147.911 Y2.092
X147.667 Y1.977
X147.609 Y1.951
X147.354 Y1.842
X147.301 Y1.821
X147.035 Y1.718
X146.988 Y1.701
X146.712 Y1.605
X146.668 Y1.59
X146.381 Y1.5
X146.34 Y1.487
X146.042 Y1.402
X146.006 Y1.392
X145.698 Y1.312
X145.664 Y1.304
X145.345 Y1.228
X145.315 Y1.221
X144.985 Y1.149
X144.958 Y1.143
X144.618 Y1.076
X144.594 Y1.071
X144.244 Y1.007
X144.222 Y1.003
X143.861 Y0.942
X143.84 Y0.939
X143.468 Y0.881
X143.451 Y0.878
X143.069 Y0.824
X143.052 Y0.821
X142.659 Y0.769
X142.645 Y0.767
X142.242 Y0.718
X142.228 Y0.716
X141.815 Y0.668
X141.803 Y0.667
X141.379 Y0.622
X141.369 Y0.621
X140.935 Y0.577
X140.925 Y0.576
X140.481 Y0.534
X140.472 Y0.533
X140.017 Y0.493
X140.01 Y0.492
X139.545 Y0.453
X139.538
X139.064 Y0.415
X139.058 Y0.414
X138.573 Y0.378
X138.567 Y0.377
X138.072 Y0.341
X138.065
X137.045 Y0.272
X137.037 Y0.271
X135.978 Y0.205
X135.971
X134.872 Y0.141
X134.867
X133.73 Y0.079
X133.725 Y0.078
X132.549 Y0.018
X132.544
X131.331 Y-0.041
X131.327
X130.076 Y-0.099
X130.072
X128.784 Y-0.155
X128.78
X127.455 Y-0.209
X127.45
X126.088 Y-0.261
X126.084
X124.687 Y-0.31
X124.682 Y-0.311
X123.249 Y-0.357
X123.245
X121.776 Y-0.401
X121.771
X120.267 Y-0.44
X120.262 Y-0.441
X118.724 Y-0.476
X118.719
X117.146 Y-0.508
X117.141
X115.533 Y-0.535
X115.528
X113.886 Y-0.558
X113.88
X112.204 Y-0.575
X112.199
X110.489 Y-0.587
X110.467
X108.757 Y-0.575
X108.752
X107.076 Y-0.558
X107.07
X105.428 Y-0.535
X105.423
X103.816 Y-0.508
X103.811
X102.237 Y-0.476
X102.232
X100.694 Y-0.441
X100.689 Y-0.44
X99.185 Y-0.401
X99.181
X97.712 Y-0.357
X97.707
X96.274 Y-0.311
X96.27 Y-0.31
X94.872 Y-0.261
X94.868
X93.506 Y-0.209
X93.502
X92.177 Y-0.155
X92.173
X90.885 Y-0.099
X90.881
X89.63 Y-0.041
X89.625
X88.412 Y0.018
X88.407
X87.232 Y0.078
X87.227 Y0.079
X86.09 Y0.141
X86.084
X84.985 Y0.205
X84.979
X83.919 Y0.271
X83.911 Y0.272
X82.892 Y0.341
X82.884
X82.389 Y0.377
X82.384 Y0.378
X81.899 Y0.414
X81.893 Y0.415
X81.418 Y0.453
X81.411
X80.946 Y0.492
X80.939 Y0.493
X80.484 Y0.533
X80.475 Y0.534
X80.031 Y0.576
X80.022 Y0.577
X79.588 Y0.621
X79.577 Y0.622
X79.153 Y0.667
X79.141 Y0.668
X78.728 Y0.716
X78.715 Y0.718
X78.312 Y0.767
X78.297 Y0.769
X77.904 Y0.821
X77.888 Y0.824
X77.506 Y0.878
X77.488 Y0.881
X77.116 Y0.939
X77.096 Y0.942
X76.735 Y1.003
X76.713 Y1.007
X76.362 Y1.071
X76.338 Y1.076
X75.998 Y1.143
X75.97 Y1.149
X75.641 Y1.221
X75.611 Y1.228
X75.292 Y1.304
X75.259 Y1.312
X74.95 Y1.392
X74.914 Y1.402
X74.616 Y1.488
X74.576 Y1.5
X74.289 Y1.59
X74.245 Y1.605
X73.969 Y1.701
X73.92 Y1.719
X73.655 Y1.821
X73.602 Y1.842
X73.347 Y1.951
X73.291 Y1.976
X73.046 Y2.092
X72.986 Y2.122
X72.752 Y2.245
X72.687 Y2.281
X72.465 Y2.412
X72.397 Y2.454
X72.185 Y2.594
X72.114 Y2.643
X71.913 Y2.792
X71.841 Y2.848
X71.65 Y3.006
X71.579 Y3.069
X71.399 Y3.238
X71.329 Y3.307
X71.159 Y3.487
X71.093 Y3.563
X70.933 Y3.754
X70.871 Y3.835
X70.722 Y4.039
X70.666 Y4.122
X70.528 Y4.339
X70.478 Y4.424
X70.35 Y4.656
X70.307 Y4.74
X70.19 Y4.986
X70.153 Y5.068
X70.047 Y5.33
X70.017 Y5.409
X69.92 Y5.687
X69.896 Y5.762
X69.81 Y6.057
X69.791 Y6.127
X69.715 Y6.44
X69.7 Y6.505
X69.634 Y6.836
X69.624 Y6.895
X69.567 Y7.245
X69.56 Y7.299
X69.513 Y7.668
X69.508 Y7.717
X69.472 Y8.106
X69.468 Y8.151
X69.441 Y8.56
X69.439 Y8.601
X69.422 Y9.031
X69.421 Y9.066
X69.413 Y9.517
Y9.55
X69.415 Y10.023
Y10.052
X69.426 Y10.546
Y10.572
X69.446 Y11.089
X69.447 Y11.112
X69.476 Y11.65
X69.477 Y11.671
X69.514 Y12.231
X69.516 Y12.251
X69.561 Y12.833
X69.563 Y12.85
X69.617 Y13.454
X69.618 Y13.47
X69.681 Y14.096
X69.682 Y14.11
X69.752 Y14.758
X69.754 Y14.771
X69.832 Y15.441
X69.833 Y15.452
X69.919 Y16.144
X69.92 Y16.154
X70.013 Y16.866
X70.014 Y16.876
X70.114 Y17.609
X70.115 Y17.618
X70.222 Y18.372
X70.224 Y18.38
X70.337 Y19.154
X70.338 Y19.161
X70.459 Y19.956
X70.46 Y19.962
X70.586 Y20.776
X70.587 Y20.782
X70.72 Y21.615
X70.721 Y21.62
X70.859 Y22.472
X70.86 Y22.476
X71.004 Y23.346
X71.005 Y23.351
X71.154 Y24.238
X71.155 Y24.242
X71.31 Y25.146
Y25.149
X71.47 Y26.069
Y26.073
X71.635 Y27.009
Y27.012
X71.804 Y27.963
X71.805 Y27.966
X71.978 Y28.931
Y28.933
X72.155 Y29.913
X72.156 Y29.915
X72.336 Y30.907
X72.337 Y30.909
X72.521 Y31.913
Y31.915
X72.709 Y32.931
Y32.932
X72.9 Y33.959
Y33.96
X73.094 Y34.996
Y34.998
X73.489 Y37.097
Y37.099
X73.892 Y39.228
X73.893 Y39.229
X74.302 Y41.381
X74.303 Y41.382
X74.717 Y43.55
Y43.551
X75.554 Y47.905
X75.973 Y50.079
X76.39 Y52.24
X76.803 Y54.381
X77.213 Y56.497
X77.616 Y58.579
X77.815 Y59.607
X78.012 Y60.623
X78.208 Y61.629
X78.401 Y62.622
X78.592 Y63.603
X78.78 Y64.57
X78.967 Y65.523
X79.151 Y66.461
X79.332 Y67.383
Y67.384
X79.51 Y68.289
X79.686 Y69.179
X79.687 Y69.18
X79.86 Y70.051
Y70.052
X80.03 Y70.905
Y70.907
X80.198 Y71.741
Y71.743
X80.363 Y72.558
Y72.56
X80.525 Y73.355
Y73.357
X80.684 Y74.133
Y74.135
X80.84 Y74.89
X80.841 Y74.893
X80.994 Y75.626
Y75.63
X81.144 Y76.341
X81.145 Y76.345
X81.292 Y77.035
X81.293 Y77.04
X81.438 Y77.708
X81.439 Y77.713
X81.58 Y78.358
X81.582 Y78.364
X81.721 Y78.987
X81.722 Y78.994
X81.859 Y79.594
X81.86 Y79.601
X81.995 Y80.179
X81.997 Y80.187
X82.128 Y80.742
X82.131 Y80.751
X82.26 Y81.283
X82.263 Y81.294
X82.391 Y81.803
X82.394 Y81.815
X82.52 Y82.302
X82.524 Y82.315
X82.648 Y82.78
X82.652 Y82.795
X82.776 Y83.237
X82.781 Y83.254
X82.903 Y83.674
X82.909 Y83.694
X83.03 Y84.093
X83.037 Y84.115
X83.158 Y84.493
X83.166 Y84.517
X83.287 Y84.875
X83.297 Y84.902
X83.418 Y85.24
X83.429 Y85.27
X83.551 Y85.588
X83.565 Y85.623
X83.687 Y85.922
X83.703 Y85.96
X83.827 Y86.241
X83.846 Y86.283
X83.972 Y86.546
X83.994 Y86.592
X84.122 Y86.84
X84.148 Y86.889
X84.278 Y87.12
X84.308 Y87.172
X84.441 Y87.389
X84.476 Y87.444
X84.612 Y87.647
X84.651 Y87.703
X84.79 Y87.893
X84.835 Y87.95
X84.978 Y88.128
X85.025 Y88.184
X85.173 Y88.351
X85.223 Y88.405
X85.376 Y88.563
X85.428 Y88.613
X85.586 Y88.762
X85.663 Y88.83
X85.997 Y89.106
X86.092 Y89.178
X86.453 Y89.433
X86.532 Y89.485
X86.923 Y89.728
X86.981 Y89.762
X87.405 Y90
X87.443 Y90.021
X87.901 Y90.263
X87.922 Y90.273
X88.417 Y90.525
X88.425 Y90.529
X88.687 Y90.66
X88.688 Y90.661
X88.96 Y90.797
X89.24 Y90.938
X89.529 Y91.083
X89.827 Y91.233
X90.134 Y91.389
X90.45 Y91.55
X90.775 Y91.718
X91.11 Y91.892
X91.454 Y92.071
X91.806 Y92.256
X92.167 Y92.446
X92.917 Y92.845
X93.699 Y93.262
X94.51 Y93.697
X94.511
X95.347 Y94.144
X95.351 Y94.146
X96.209 Y94.602
X96.215 Y94.605
X97.092 Y95.066
X97.1 Y95.07
X97.993 Y95.533
X98.004 Y95.538
X98.909 Y95.999
X98.923 Y96.006
X99.839 Y96.46
X99.855 Y96.468
X100.777 Y96.912
X100.798 Y96.921
X101.724 Y97.351
X101.748 Y97.362
X102.675 Y97.773
X102.703 Y97.785
X103.628 Y98.175
X103.661 Y98.188
X104.581 Y98.551
X104.619 Y98.566
X105.533 Y98.9
X105.577 Y98.915
X106.482 Y99.216
X106.531 Y99.231
X107.424 Y99.497
X107.466 Y99.508
X107.909 Y99.627
X107.938 Y99.634
X108.377 Y99.743
X108.407 Y99.75
X108.842 Y99.848
X108.875 Y99.855
X109.307 Y99.944
X109.34 Y99.95
X109.768 Y100.028
X109.803 Y100.034
X110.228 Y100.102
G2 X110.728 Y100.102 I0.25 J-1.568
G1 X111.153 Y100.034
X111.188 Y100.028
X111.616 Y99.95
X111.649 Y99.944
X112.081 Y99.855
X112.113 Y99.849
X112.549 Y99.75
X112.58 Y99.743
X113.019 Y99.634
X113.049 Y99.627
X113.491 Y99.508
X113.531 Y99.497
X114.425 Y99.232
X114.475 Y99.216
X115.379 Y98.915
X115.423 Y98.9
X116.337 Y98.566
X116.375 Y98.552
X117.296 Y98.188
X117.329 Y98.175
X118.254 Y97.785
X118.282 Y97.773
X119.209 Y97.362
X119.233 Y97.351
X120.159 Y96.921
X120.18 Y96.912
X121.102 Y96.468
X121.119 Y96.459
X122.034 Y96.005
X122.048 Y95.998
X122.953 Y95.538
X122.963 Y95.533
X123.856 Y95.07
X123.865 Y95.066
X124.742 Y94.605
X124.748 Y94.602
X125.606 Y94.146
X125.609 Y94.144
X126.445 Y93.697
X127.257 Y93.263
X128.04 Y92.845
X128.789 Y92.447
X129.15 Y92.256
X129.503 Y92.071
X129.846 Y91.892
X130.181 Y91.718
X130.507 Y91.55
X130.823 Y91.389
X131.129 Y91.233
X131.427 Y91.083
X131.716 Y90.938
X131.996 Y90.798
X131.998 Y90.797
X132.269 Y90.661
X132.532 Y90.529
X132.538 Y90.526
X133.034 Y90.274
X133.056 Y90.262
X133.514 Y90.02
X133.551 Y90.001
X133.975 Y89.762
X134.033 Y89.728
X134.424 Y89.485
X134.503 Y89.433
X134.864 Y89.178
X134.96 Y89.105
X135.294 Y88.829
X135.368 Y88.764
X135.527 Y88.615
X135.584 Y88.559
X135.736 Y88.402
X135.783 Y88.351
X135.931 Y88.184
X135.976 Y88.13
X136.12 Y87.952
X136.167 Y87.891
X136.306 Y87.701
X136.344 Y87.648
X136.48 Y87.445
X136.514 Y87.391
X136.647 Y87.174
X136.681 Y87.117
X136.81 Y86.885
X136.833 Y86.842
X136.961 Y86.595
X136.986 Y86.545
X137.111 Y86.281
X137.129 Y86.242
X137.253 Y85.961
X137.268 Y85.924
X137.391 Y85.625
X137.407 Y85.586
X137.528 Y85.268
X137.538 Y85.239
X137.659 Y84.901
X137.669 Y84.875
X137.79 Y84.517
X137.797 Y84.496
X137.919 Y84.118
X137.927 Y84.091
X138.048 Y83.692
X138.054 Y83.673
X138.176 Y83.253
X138.18 Y83.239
X138.304 Y82.797
X138.308 Y82.781
X138.433 Y82.316
X138.437 Y82.302
X138.563 Y81.815
X138.566 Y81.804
X138.694 Y81.294
X138.697 Y81.281
X138.826 Y80.749
X138.827 Y80.742
X138.959 Y80.187
X138.961 Y80.181
X139.096 Y79.603
X139.098 Y79.593
X139.234 Y78.992
X139.235 Y78.987
X139.374 Y78.364
X139.375 Y78.359
X139.517 Y77.713
X139.519 Y77.707
X139.663 Y77.039
Y77.037
X139.811 Y76.347
X139.812 Y76.341
X139.962 Y75.63
X139.963 Y75.626
X140.116 Y74.893
X140.117 Y74.888
X140.272 Y74.134
X140.431 Y73.358
X140.432 Y73.356
X140.594 Y72.561
Y72.557
X140.758 Y71.742
X140.759 Y71.741
X140.926 Y70.907
X141.097 Y70.054
Y70.051
X141.27 Y69.18
X141.271 Y69.178
X141.445 Y68.29
X141.624 Y67.385
X141.625 Y67.383
X141.806 Y66.461
X141.99 Y65.524
Y65.522
X142.176 Y64.57
Y64.569
X142.364 Y63.602
X142.555 Y62.623
X142.748 Y61.629
X142.944 Y60.625
Y60.623
X143.141 Y59.607
X143.34 Y58.58
X143.744 Y56.497
X144.153 Y54.381
X144.567 Y52.24
X144.984 Y50.079
X145.403 Y47.906
Y47.905
X146.239 Y43.551
X146.654 Y41.383
X146.655 Y41.38
X147.064 Y39.229
Y39.228
X147.467 Y37.099
Y37.097
X147.862 Y34.998
X147.863 Y34.996
X148.056 Y33.959
X148.247 Y32.933
Y32.931
X148.435 Y31.915
X148.436 Y31.912
X148.62 Y30.908
Y30.907
X148.801 Y29.915
Y29.912
X148.96 Y29.036
G3 X149.328 Y28.78 I0.312 J0.056
G1 X149.641 Y28.837
X149.71 Y28.849 Z-0.992
X149.776 Y28.861 Z-0.969
X149.836 Y28.872 Z-0.931
X149.885 Y28.881 Z-0.88
X149.922 Y28.888 Z-0.82
X149.946 Y28.892 Z-0.753
X149.953 Y28.893 Z-0.683
G0 Z5
X141.096 Y70.123
G1 Z1 F333.3
Z-0.683
X141.104 Y70.124 Z-0.753 F381
X141.127 Y70.129 Z-0.82
X141.164 Y70.135 Z-0.88
X141.213 Y70.144 Z-0.931
X141.273 Y70.155 Z-0.969
X141.339 Y70.167 Z-0.992
X141.408 Y70.179 Z-1
X141.721 Y70.235
G3 X141.977 Y70.604 I-0.056 J0.313
G1 X141.804 Y71.569
Y71.571
X141.635 Y72.522
X141.634 Y72.526
X141.47 Y73.462
Y73.464
X141.31 Y74.385
X141.309 Y74.39
X141.155 Y75.294
Y75.296
X141.005 Y76.183
X141.004 Y76.189
X140.86 Y77.058
X140.859 Y77.062
X140.72 Y77.914
X140.719 Y77.921
X140.587 Y78.754
X140.586 Y78.758
X140.459 Y79.572
X140.458 Y79.579
X140.338 Y80.374
X140.337 Y80.38
X140.223 Y81.154
X140.222 Y81.163
X140.115 Y81.917
X140.114 Y81.925
X140.014 Y82.659
X140.013 Y82.668
X139.92 Y83.381
X139.918 Y83.392
X139.833 Y84.084
X139.832 Y84.094
X139.754 Y84.764
X139.753 Y84.774
X139.682 Y85.423
X139.68 Y85.439
X139.618 Y86.065
X139.617 Y86.08
X139.563 Y86.685
X139.561 Y86.701
X139.515 Y87.283
X139.514 Y87.304
X139.477 Y87.864
X139.476 Y87.883
X139.447 Y88.421
X139.446 Y88.448
X139.427 Y88.964
X139.426 Y88.987
X139.415 Y89.482
Y89.514
X139.413 Y89.986
X139.414 Y90.014
X139.421 Y90.465
X139.422 Y90.504
X139.439 Y90.934
X139.441 Y90.975
X139.468 Y91.385
X139.472 Y91.431
X139.509 Y91.819
X139.514 Y91.865
X139.56 Y92.234
X139.567 Y92.289
X139.623 Y92.639
X139.634 Y92.698
X139.7 Y93.029
X139.714 Y93.094
X139.79 Y93.406
X139.81 Y93.48
X139.897 Y93.775
X139.919 Y93.844
X140.015 Y94.122
X140.046 Y94.205
X140.153 Y94.467
X140.189 Y94.547
X140.306 Y94.794
X140.35 Y94.88
X140.478 Y95.112
X140.527 Y95.195
X140.665 Y95.412
X140.723 Y95.497
X140.872 Y95.701
X140.933 Y95.779
X141.092 Y95.971
X141.16 Y96.048
X141.33 Y96.228
X141.398 Y96.296
X141.578 Y96.465
X141.65 Y96.529
X141.841 Y96.687
X141.914 Y96.744
X142.116 Y96.893
X142.184 Y96.94
X142.396 Y97.08
X142.464 Y97.122
X142.687 Y97.253
X142.753 Y97.29
X142.987 Y97.413
X143.046 Y97.442
X143.29 Y97.558
X143.347 Y97.584
X143.602 Y97.692
X143.654 Y97.713
X143.919 Y97.815
X143.969 Y97.834
X144.246 Y97.93
X144.29 Y97.944
X144.577 Y98.035
X144.616 Y98.047
X144.913 Y98.132
X144.951 Y98.142
X145.26 Y98.223
X145.291 Y98.231
X145.609 Y98.307
X145.641 Y98.314
X145.971 Y98.386
X145.998 Y98.391
X146.338 Y98.459
X146.362 Y98.464
X146.713 Y98.528
X146.735 Y98.532
X147.096 Y98.592
X147.116 Y98.596
X147.487 Y98.653
X147.506 Y98.656
X147.889 Y98.711
X147.904 Y98.713
X148.296 Y98.765
X148.311 Y98.767
X148.714 Y98.817
X148.728 Y98.819
X149.142 Y98.866
X149.153 Y98.867
X149.576 Y98.913
X149.587 Y98.914
X150.021 Y98.958
X150.031 Y98.959
X150.476 Y99.001
X150.484
X150.938 Y99.042
X150.946
X151.411 Y99.081
X151.418 Y99.082
X151.893 Y99.12
X151.899
X152.384 Y99.157
X152.389
X152.884 Y99.193
X152.892 Y99.194
X153.911 Y99.263
X153.919
X154.979 Y99.329
X154.986 Y99.33
X156.084 Y99.394
X156.089
X157.226 Y99.456
X157.232
X158.408 Y99.517
X158.412
X159.625 Y99.576
X159.629
X160.881 Y99.634
X160.885
X162.173 Y99.69
X162.177
X163.502 Y99.744
X163.507
X164.868 Y99.796
X164.872
X166.27 Y99.845
X166.275
X167.708 Y99.892
X167.712
X169.18 Y99.935
X169.185
X170.689 Y99.975
X170.694
X172.232 Y100.011
X172.237
X173.811 Y100.043
X173.816
X175.423 Y100.07
X175.428
X177.07 Y100.092
X177.076
X178.752 Y100.11
X178.757
X180.467 Y100.122
X180.489
X182.199 Y100.11
X182.204
X183.88 Y100.092
X183.886
X185.528 Y100.07
X185.533
X187.141 Y100.043
X187.146
X188.719 Y100.011
X188.724
X190.262 Y99.975
X190.267
X191.771 Y99.935
X191.776
X193.245 Y99.892
X193.249
X194.682 Y99.845
X194.687
X196.084 Y99.796
X196.088
X197.45 Y99.744
X197.455
X198.78 Y99.69
X198.784
X200.072 Y99.634
X200.076
X201.327 Y99.576
X201.331
X202.544 Y99.517
X202.548
X203.724 Y99.456
X203.73
X204.867 Y99.394
X204.872
X205.971 Y99.33
X205.978 Y99.329
X207.037 Y99.263
X207.045
X208.065 Y99.194
X208.073 Y99.193
X208.568 Y99.157
X208.573
X209.058 Y99.12
X209.064
X209.538 Y99.082
X209.545 Y99.081
X210.01 Y99.042
X210.018
X210.473 Y99.001
X210.481 Y99
X210.925 Y98.959
X210.935 Y98.958
X211.369 Y98.914
X211.379 Y98.913
X211.803 Y98.867
X211.815 Y98.866
X212.228 Y98.819
X212.242 Y98.817
X212.645 Y98.767
X212.659 Y98.765
X213.052 Y98.713
X213.068 Y98.711
X213.45 Y98.656
X213.468 Y98.653
X213.84 Y98.596
X213.861 Y98.592
X214.222 Y98.532
X214.244 Y98.528
X214.594 Y98.463
X214.618 Y98.459
X214.958 Y98.391
X214.985 Y98.386
X215.315 Y98.314
X215.345 Y98.307
X215.664 Y98.231
X215.698 Y98.223
X216.006 Y98.142
X216.042 Y98.132
X216.34 Y98.047
X216.38 Y98.035
X216.667 Y97.944
X216.712 Y97.929
X216.988 Y97.833
X217.035 Y97.816
X217.301 Y97.714
X217.355 Y97.692
X217.61 Y97.584
X217.667 Y97.558
X217.911 Y97.442
X217.972 Y97.412
X218.205 Y97.289
X218.269 Y97.253
X218.492 Y97.122
X218.557 Y97.082
X218.77 Y96.942
X218.844 Y96.89
X219.045 Y96.742
X219.115 Y96.687
X219.306 Y96.529
X219.375 Y96.468
X219.556 Y96.299
X219.63 Y96.225
X219.799 Y96.045
X219.864 Y95.971
X220.023 Y95.779
X220.084 Y95.701
X220.233 Y95.497
X220.291 Y95.412
X220.429 Y95.195
X220.478 Y95.112
X220.606 Y94.88
X220.65 Y94.794
X220.767 Y94.547
X220.803 Y94.467
X220.91 Y94.205
X220.939 Y94.127
X221.036 Y93.849
X221.061 Y93.771
X221.147 Y93.476
X221.166 Y93.406
X221.242 Y93.094
X221.256 Y93.029
X221.322 Y92.698
X221.332 Y92.643
X221.389 Y92.293
X221.397 Y92.234
X221.443 Y91.865
X221.449 Y91.815
X221.485 Y91.427
X221.488 Y91.385
X221.515 Y90.975
X221.517 Y90.934
X221.534 Y90.504
X221.535 Y90.469
X221.543 Y90.018
Y89.983
X221.541 Y89.51
Y89.485
X221.531 Y88.991
X221.53 Y88.961
X221.51 Y88.445
X221.509 Y88.421
X221.48 Y87.883
X221.479 Y87.864
X221.442 Y87.304
X221.441 Y87.283
X221.395 Y86.701
X221.393 Y86.685
X221.339 Y86.08
X221.338 Y86.065
X221.276 Y85.439
X221.274 Y85.425
X221.204 Y84.777
X221.203 Y84.764
X221.125 Y84.094
X221.123 Y84.082
X221.037 Y83.39
X221.036 Y83.381
X220.943 Y82.668
X220.942 Y82.659
X220.842 Y81.925
X220.841 Y81.917
X220.734 Y81.163
X220.733 Y81.154
X220.619 Y80.38
X220.618 Y80.374
X220.498 Y79.579
X220.497 Y79.574
X220.371 Y78.759
X220.37 Y78.752
X220.237 Y77.919
X220.236 Y77.914
X220.097 Y77.062
X220.096 Y77.058
X219.952 Y76.189
Y76.185
X219.803 Y75.298
X219.802 Y75.293
X219.647 Y74.388
X219.646 Y74.385
X219.486 Y73.464
Y73.462
X219.322 Y72.526
X219.321 Y72.522
X219.152 Y71.571
Y71.569
X218.979 Y70.604
X218.978 Y70.601
X218.801 Y69.622
Y69.62
X218.62 Y68.627
Y68.626
X218.436 Y67.622
X218.435 Y67.619
X218.247 Y66.603
Y66.602
X218.056 Y65.576
X217.863 Y64.539
X217.862 Y64.536
X217.467 Y62.437
Y62.435
X217.064 Y60.307
Y60.306
X216.655 Y58.154
X216.654 Y58.152
X216.239 Y55.985
X215.403 Y51.63
Y51.628
X214.984 Y49.456
X214.567 Y47.295
X214.153 Y45.153
X213.744 Y43.038
X213.341 Y40.955
X213.142 Y39.928
X212.944 Y38.912
Y38.91
X212.748 Y37.905
X212.555 Y36.913
X212.364 Y35.932
X212.176 Y34.966
Y34.965
X211.99 Y34.012
Y34.011
X211.806 Y33.074
X211.625 Y32.152
X211.624 Y32.15
X211.445 Y31.245
X211.271 Y30.357
X211.27 Y30.354
X211.097 Y29.483
Y29.481
X210.926 Y28.628
X210.759 Y27.794
X210.758 Y27.792
X210.594 Y26.977
Y26.974
X210.432 Y26.178
X210.431 Y26.176
X210.272 Y25.401
X210.117 Y24.646
X210.116 Y24.642
X209.963 Y23.908
X209.962 Y23.905
X209.812 Y23.193
X209.811 Y23.188
X209.663 Y22.497
Y22.496
X209.519 Y21.828
X209.517 Y21.821
X209.375 Y21.175
X209.374 Y21.171
X209.235 Y20.547
X209.234 Y20.542
X209.098 Y19.942
X209.096 Y19.931
X208.961 Y19.353
X208.959 Y19.347
X208.827 Y18.792
X208.826 Y18.786
X208.697 Y18.253
X208.694 Y18.24
X208.566 Y17.731
X208.563 Y17.72
X208.437 Y17.233
X208.433 Y17.218
X208.308 Y16.754
X208.304 Y16.738
X208.18 Y16.295
X208.176 Y16.282
X208.054 Y15.861
X208.048 Y15.843
X207.927 Y15.444
X207.919 Y15.417
X207.797 Y15.039
X207.79 Y15.017
X207.669 Y14.66
X207.659 Y14.633
X207.538 Y14.296
X207.528 Y14.267
X207.407 Y13.949
X207.391 Y13.91
X207.268 Y13.611
X207.252 Y13.574
X207.128 Y13.292
X207.111 Y13.254
X206.986 Y12.99
X206.961 Y12.939
X206.833 Y12.692
X206.81 Y12.65
X206.681 Y12.418
X206.647 Y12.36
X206.514 Y12.144
X206.48 Y12.09
X206.344 Y11.887
X206.306 Y11.833
X206.167 Y11.643
X206.12 Y11.583
X205.976 Y11.405
X205.931 Y11.351
X205.783 Y11.183
X205.736 Y11.133
X205.584 Y10.976
X205.526 Y10.919
X205.367 Y10.77
X205.294 Y10.706
X204.96 Y10.43
X204.864 Y10.356
X204.503 Y10.102
X204.424 Y10.049
X204.033 Y9.807
X203.975 Y9.772
X203.551 Y9.534
X203.514 Y9.514
X203.056 Y9.272
X203.034 Y9.261
X202.538 Y9.009
X202.531 Y9.006
X202.269 Y8.874
X201.998 Y8.738
X201.996 Y8.737
X201.715 Y8.597
X201.427 Y8.452
X201.129 Y8.302
X200.823 Y8.146
X200.507 Y7.984
X200.181 Y7.816
X199.846 Y7.643
X199.503 Y7.464
X199.15 Y7.278
X198.789 Y7.088
X198.04 Y6.69
X197.257 Y6.272
X196.446 Y5.838
X195.609 Y5.391
X195.606 Y5.389
X194.748 Y4.933
X194.742 Y4.93
X193.865 Y4.469
X193.856 Y4.464
X192.963 Y4.002
X192.953 Y3.996
X192.048 Y3.536
X192.034 Y3.529
X191.119 Y3.075
X191.102 Y3.067
X190.18 Y2.623
X190.159 Y2.613
X189.233 Y2.184
X189.209 Y2.173
X188.282 Y1.761
X188.254 Y1.749
X187.329 Y1.36
X187.296 Y1.346
X186.375 Y0.983
X186.337 Y0.969
X185.423 Y0.635
X185.379 Y0.62
X184.475 Y0.319
X184.425 Y0.303
X183.531 Y0.038
X183.491 Y0.026
X183.049 Y-0.092
X183.019 Y-0.1
X182.58 Y-0.208
X182.549 Y-0.216
X182.113 Y-0.314
X182.081 Y-0.321
X181.649 Y-0.409
X181.616 Y-0.416
X181.188 Y-0.494
X181.153 Y-0.5
X180.728 Y-0.568
G2 X180.228 Y-0.568 I-0.25 J1.568
G1 X179.803 Y-0.5
X179.768 Y-0.494
X179.34 Y-0.416
X179.307 Y-0.409
X178.875 Y-0.321
X178.842 Y-0.314
X178.407 Y-0.215
X178.377 Y-0.208
X177.938 Y-0.1
X177.909 Y-0.092
X177.466 Y0.026
X177.424 Y0.038
X176.531 Y0.303
X176.482 Y0.319
X175.577 Y0.619
X175.533 Y0.635
X174.619 Y0.969
X174.581 Y0.983
X173.661 Y1.347
X173.628 Y1.36
X172.703 Y1.749
X172.675 Y1.761
X171.748 Y2.173
X171.724 Y2.184
X170.798 Y2.613
X170.777 Y2.623
X169.855 Y3.067
X169.838 Y3.075
X168.923 Y3.529
X168.91 Y3.536
X168.004 Y3.996
X167.993 Y4.002
X167.1 Y4.464
X167.091 Y4.469
X166.214 Y4.93
X166.208 Y4.933
X165.35 Y5.389
X165.347 Y5.391
X164.511 Y5.837
X164.509 Y5.838
X163.699 Y6.272
X162.918 Y6.69
X162.167 Y7.088
X161.806 Y7.279
X161.454 Y7.464
X161.11 Y7.643
X160.776 Y7.816
X160.45 Y7.984
X160.133 Y8.146
X159.827 Y8.302
X159.529 Y8.452
X159.24 Y8.597
X158.96 Y8.737
X158.689 Y8.873
X158.687 Y8.874
X158.425 Y9.006
X158.417 Y9.01
X157.922 Y9.261
X157.902 Y9.272
X157.443 Y9.513
X157.404 Y9.535
X156.981 Y9.773
X156.924 Y9.807
X156.533 Y10.049
X156.454 Y10.102
X156.093 Y10.356
X155.998 Y10.428
X155.663 Y10.704
X155.585 Y10.773
X155.427 Y10.922
X155.376 Y10.972
X155.223 Y11.129
X155.173 Y11.183
X155.025 Y11.351
X154.98 Y11.405
X154.836 Y11.583
X154.789 Y11.643
X154.65 Y11.833
X154.612 Y11.887
X154.476 Y12.09
X154.439 Y12.148
X154.307 Y12.365
X154.279 Y12.413
X154.149 Y12.645
X154.121 Y12.697
X153.994 Y12.944
X153.973 Y12.985
X153.847 Y13.249
X153.828 Y13.292
X153.704 Y13.574
X153.686 Y13.615
X153.564 Y13.914
X153.552 Y13.945
X153.43 Y14.263
X153.418 Y14.296
X153.297 Y14.633
X153.287 Y14.66
X153.166 Y15.017
X153.158 Y15.042
X153.037 Y15.42
X153.031 Y15.44
X152.909 Y15.839
X152.902 Y15.861
X152.78 Y16.282
X152.776 Y16.295
X152.652 Y16.738
X152.647 Y16.757
X152.523 Y17.221
X152.52 Y17.233
X152.394 Y17.72
X152.391 Y17.731
X152.263 Y18.24
X152.261 Y18.251
X152.131 Y18.783
X152.129 Y18.792
X151.997 Y19.347
X151.995 Y19.356
X151.861 Y19.934
X151.859 Y19.939
X151.722 Y20.54
X151.721 Y20.547
X151.582 Y21.171
X151.581 Y21.175
X151.439 Y21.821
X151.437 Y21.828
X151.293 Y22.496
X151.292 Y22.5
X151.145 Y23.19
Y23.193
X150.995 Y23.905
X150.994 Y23.908
X150.841 Y24.642
X150.84 Y24.644
X150.684 Y25.399
Y25.401
X150.525 Y26.176
X150.524 Y26.18
X150.363 Y26.976
X150.198 Y27.791
X150.197 Y27.794
X150.03 Y28.628
Y28.63
X149.86 Y29.482
Y29.483
X149.687 Y30.354
X149.511 Y31.244
X149.332 Y32.15
X149.331 Y32.152
X149.15 Y33.073
Y33.075
X148.967 Y34.012
X148.781 Y34.965
X148.592 Y35.931
Y35.932
X148.401 Y36.912
X148.208 Y37.906
X148.013 Y38.911
X147.815 Y39.926
X147.814 Y39.928
X147.615 Y40.955
X147.212 Y43.038
X146.803 Y45.153
X146.389 Y47.294
Y47.296
X145.973 Y49.456
X145.554 Y51.628
X144.717 Y55.984
Y55.985
X144.303 Y58.153
X143.893 Y60.305
X143.892 Y60.307
X143.489 Y62.435
Y62.437
X143.094 Y64.536
X143.093 Y64.539
X142.9 Y65.575
X142.709 Y66.602
Y66.605
X142.522 Y67.621
X142.337 Y68.625
X142.336 Y68.627
X142.155 Y69.62
Y69.622
X141.978 Y70.601
X141.977 Y70.604
G3 X141.609 Y70.86 I-0.313 J-0.056
G1 X141.296 Y70.804
X141.227 Y70.792 Z-0.992
X141.161 Y70.78 Z-0.969
X141.101 Y70.769 Z-0.931
X141.052 Y70.76 Z-0.88
X141.015 Y70.754 Z-0.82
X140.992 Y70.75 Z-0.753
X140.984 Y70.748 Z-0.683
G0 Z5
X-0.559 Y79.928
G1 Z1 F333.3
Z-0.683
X-0.551 Y79.929 Z-0.753 F381
X-0.528 Y79.932 Z-0.82
X-0.49 Y79.938 Z-0.88
X-0.441 Y79.945 Z-0.931
X-0.381 Y79.954 Z-0.969
X-0.315 Y79.964 Z-0.992
X-0.245 Y79.974 Z-1
X0.069 Y80.02
G3 X0.337 Y80.38 I-0.046 J0.314
G1 X0.224 Y81.155
X0.222 Y81.162
X0.115 Y81.917
X0.114 Y81.925
X0.014 Y82.659
X0.013 Y82.668
X-0.08 Y83.381
X-0.081 Y83.391
X-0.167 Y84.083
X-0.168 Y84.094
X-0.246 Y84.764
X-0.248 Y84.776
X-0.318 Y85.425
X-0.319 Y85.438
X-0.382 Y86.065
X-0.383 Y86.08
X-0.437 Y86.684
X-0.439 Y86.702
X-0.484 Y87.284
X-0.486 Y87.303
X-0.523 Y87.863
X-0.524 Y87.884
X-0.553 Y88.422
X-0.554 Y88.446
X-0.574 Y88.962
Y88.988
X-0.585 Y89.483
Y89.512
X-0.587 Y89.984
Y90.017
X-0.579 Y90.468
X-0.578 Y90.504
X-0.561 Y90.934
X-0.559 Y90.974
X-0.532 Y91.384
X-0.528 Y91.428
X-0.492 Y91.817
X-0.487 Y91.866
X-0.44 Y92.235
X-0.433 Y92.29
X-0.376 Y92.639
X-0.366 Y92.699
X-0.3 Y93.03
X-0.285 Y93.095
X-0.209 Y93.407
X-0.19 Y93.477
X-0.104 Y93.772
X-0.08 Y93.847
X0.017 Y94.125
X0.047 Y94.204
X0.153 Y94.466
X0.19 Y94.548
X0.307 Y94.795
X0.35 Y94.879
X0.478 Y95.11
X0.528 Y95.195
X0.666 Y95.413
X0.722 Y95.496
X0.871 Y95.7
X0.933 Y95.78
X1.092 Y95.972
X1.159 Y96.047
X1.329 Y96.227
X1.399 Y96.297
X1.579 Y96.466
X1.65 Y96.528
X1.841 Y96.687
X1.913 Y96.743
X2.114 Y96.892
X2.185 Y96.941
X2.397 Y97.08
X2.464 Y97.122
X2.687 Y97.253
X2.752 Y97.289
X2.986 Y97.412
X3.046 Y97.443
X3.291 Y97.558
X3.347 Y97.584
X3.602 Y97.692
X3.655 Y97.714
X3.92 Y97.816
X3.968 Y97.833
X4.245 Y97.93
X4.289 Y97.944
X4.576 Y98.035
X4.616 Y98.047
X4.914 Y98.132
X4.95 Y98.142
X5.258 Y98.223
X5.292 Y98.231
X5.611 Y98.307
X5.641 Y98.314
X5.97 Y98.385
X5.998 Y98.391
X6.338 Y98.459
X6.362 Y98.464
X6.713 Y98.528
X6.735 Y98.532
X7.096 Y98.592
X7.116 Y98.596
X7.488 Y98.653
X7.506 Y98.656
X7.888 Y98.711
X7.904 Y98.713
X8.297 Y98.765
X8.312 Y98.767
X8.715 Y98.817
X8.728 Y98.819
X9.141 Y98.866
X9.153 Y98.867
X9.577 Y98.913
X9.588 Y98.914
X10.022 Y98.958
X10.031 Y98.959
X10.476 Y99
X10.484 Y99.001
X10.938 Y99.042
X10.947
X11.411 Y99.081
X11.418 Y99.082
X11.893 Y99.12
X11.899
X12.384 Y99.157
X12.389
X12.884 Y99.193
X12.892 Y99.194
X13.911 Y99.263
X13.919
X14.979 Y99.329
X14.985 Y99.33
X16.084 Y99.394
X16.09
X17.227 Y99.456
X17.232
X18.407 Y99.517
X18.412
X19.625 Y99.576
X19.63
X20.881 Y99.634
X20.885
X22.173 Y99.69
X22.177
X23.502 Y99.744
X23.506
X24.868 Y99.796
X24.872
X26.27 Y99.845
X26.274
X27.707 Y99.892
X27.712
X29.181 Y99.935
X29.185
X30.689 Y99.975
X30.694
X32.233 Y100.011
X32.238
X33.811 Y100.043
X33.816
X35.423 Y100.07
X35.429
X37.071 Y100.092
X37.076
X38.752 Y100.11
X38.757
X40.467 Y100.122
X40.49
X42.2 Y100.11
X42.205
X43.881 Y100.092
X43.886
X45.528 Y100.07
X45.533
X47.14 Y100.043
X47.146
X48.719 Y100.011
X48.724
X50.262 Y99.975
X50.267
X51.771 Y99.935
X51.776
X53.244 Y99.892
X53.249
X54.682 Y99.845
X54.687
X56.084 Y99.796
X56.089
X57.45 Y99.744
X57.454
X58.779 Y99.69
X58.783
X60.071 Y99.634
X60.076
X61.327 Y99.576
X61.331
X62.544 Y99.517
X62.549
X63.724 Y99.456
X63.73
X64.867 Y99.394
X64.872
X65.971 Y99.33
X65.978 Y99.329
X67.037 Y99.263
X67.045
X68.065 Y99.194
X68.072 Y99.193
X68.567 Y99.157
X68.573
X69.057 Y99.12
X69.064
X69.538 Y99.082
X69.545 Y99.081
X70.01 Y99.042
X70.018
X70.473 Y99.001
X70.481 Y99
X70.925 Y98.959
X70.935 Y98.958
X71.369 Y98.914
X71.379 Y98.913
X71.803 Y98.867
X71.815 Y98.866
X72.228 Y98.819
X72.242 Y98.817
X72.645 Y98.767
X72.659 Y98.765
X73.052 Y98.713
X73.068 Y98.711
X73.45 Y98.656
X73.468 Y98.653
X73.84 Y98.596
X73.86 Y98.592
X74.221 Y98.532
X74.244 Y98.528
X74.594 Y98.464
X74.618 Y98.459
X74.958 Y98.391
X74.986 Y98.385
X75.316 Y98.314
X75.346 Y98.307
X75.664 Y98.231
X75.698 Y98.223
X76.006 Y98.142
X76.043 Y98.132
X76.34 Y98.047
X76.38 Y98.035
X76.667 Y97.944
X76.712 Y97.93
X76.988 Y97.833
X77.036 Y97.816
X77.302 Y97.714
X77.354 Y97.692
X77.609 Y97.584
X77.666 Y97.558
X77.91 Y97.443
X77.971 Y97.412
X78.204 Y97.289
X78.269 Y97.253
X78.492 Y97.122
X78.559 Y97.08
X78.772 Y96.941
X78.842 Y96.892
X79.044 Y96.743
X79.115 Y96.687
X79.306 Y96.529
X79.377 Y96.466
X79.557 Y96.297
X79.627 Y96.227
X79.797 Y96.047
X79.864 Y95.972
X80.023 Y95.78
X80.086 Y95.7
X80.234 Y95.495
X80.29 Y95.413
X80.429 Y95.195
X80.479 Y95.111
X80.606 Y94.879
X80.649 Y94.795
X80.767 Y94.549
X80.803 Y94.466
X80.91 Y94.204
X80.94 Y94.125
X81.036 Y93.847
X81.06 Y93.772
X81.147 Y93.477
X81.165 Y93.407
X81.242 Y93.095
X81.256 Y93.03
X81.322 Y92.699
X81.333 Y92.639
X81.389 Y92.29
X81.397 Y92.235
X81.443 Y91.866
X81.448 Y91.817
X81.485 Y91.429
X81.488 Y91.384
X81.515 Y90.974
X81.517 Y90.934
X81.534 Y90.504
X81.535 Y90.468
X81.543 Y90.017
Y89.984
X81.542 Y89.512
X81.541 Y89.483
X81.531 Y88.988
X81.53 Y88.962
X81.51 Y88.446
X81.509 Y88.422
X81.481 Y87.884
X81.479 Y87.863
X81.442 Y87.303
X81.441 Y87.284
X81.395 Y86.702
X81.393 Y86.684
X81.339 Y86.08
X81.338 Y86.065
X81.276 Y85.438
X81.274 Y85.425
X81.204 Y84.776
X81.203 Y84.764
X81.125 Y84.094
X81.123 Y84.083
X81.038 Y83.391
X81.036 Y83.381
X80.943 Y82.668
X80.942 Y82.659
X80.842 Y81.925
X80.841 Y81.917
X80.734 Y81.163
X80.733 Y81.155
X80.619 Y80.38
X80.618 Y80.373
X80.498 Y79.579
X80.497 Y79.572
X80.37 Y78.758
X80.369 Y78.753
X80.237 Y77.92
X80.236 Y77.914
X80.097 Y77.063
Y77.058
X79.952 Y76.188
Y76.184
X79.802 Y75.297
X79.801 Y75.293
X79.647 Y74.389
X79.646 Y74.385
X79.486 Y73.465
Y73.462
X79.322 Y72.526
X79.321 Y72.523
X79.152 Y71.572
Y71.569
X78.979 Y70.604
X78.978 Y70.601
X78.801 Y69.622
Y69.62
X78.62 Y68.628
Y68.626
X78.435 Y67.621
Y67.62
X78.247 Y66.604
Y66.602
X78.056 Y65.576
Y65.574
X77.862 Y64.538
Y64.536
X77.468 Y62.437
X77.467 Y62.435
X77.064 Y60.307
Y60.305
X76.654 Y58.154
Y58.152
X76.239 Y55.985
Y55.984
X75.402 Y51.629
X74.984 Y49.456
X74.567 Y47.295
X74.153 Y45.153
X73.744 Y43.038
X73.341 Y40.955
X73.141 Y39.928
X72.944 Y38.911
X72.749 Y37.906
X72.556 Y36.913
X72.365 Y35.932
X72.176 Y34.965
X71.99 Y34.012
X71.806 Y33.074
X71.625 Y32.152
X71.624 Y32.151
X71.446 Y31.245
Y31.244
X71.27 Y30.356
Y30.354
X71.097 Y29.483
X71.096 Y29.482
X70.926 Y28.629
Y28.628
X70.759 Y27.793
X70.758 Y27.792
X70.594 Y26.977
X70.593 Y26.974
X70.432 Y26.179
X70.431 Y26.177
X70.273 Y25.402
X70.272 Y25.399
X70.116 Y24.645
Y24.642
X69.963 Y23.908
X69.962 Y23.905
X69.812 Y23.193
X69.811 Y23.189
X69.664 Y22.499
X69.663 Y22.495
X69.519 Y21.827
X69.518 Y21.822
X69.376 Y21.176
X69.375 Y21.171
X69.236 Y20.547
X69.234 Y20.541
X69.098 Y19.94
X69.096 Y19.933
X68.962 Y19.355
X68.96 Y19.347
X68.828 Y18.792
X68.826 Y18.783
X68.696 Y18.251
X68.693 Y18.241
X68.565 Y17.731
X68.562 Y17.719
X68.436 Y17.232
X68.433 Y17.22
X68.308 Y16.755
X68.304 Y16.74
X68.181 Y16.297
X68.176 Y16.28
X68.053 Y15.86
X68.048 Y15.841
X67.926 Y15.442
X67.919 Y15.42
X67.798 Y15.042
X67.79 Y15.017
X67.669 Y14.66
X67.659 Y14.632
X67.538 Y14.295
X67.527 Y14.264
X67.405 Y13.946
X67.392 Y13.912
X67.269 Y13.613
X67.253 Y13.574
X67.129 Y13.293
X67.11 Y13.252
X66.985 Y12.988
X66.962 Y12.942
X66.835 Y12.695
X66.808 Y12.646
X66.679 Y12.415
X66.648 Y12.362
X66.515 Y12.145
X66.481 Y12.091
X66.345 Y11.888
X66.305 Y11.831
X66.166 Y11.641
X66.122 Y11.585
X65.979 Y11.407
X65.931 Y11.351
X65.783 Y11.183
X65.734 Y11.13
X65.581 Y10.972
X65.528 Y10.921
X65.37 Y10.772
X65.294 Y10.705
X64.959 Y10.429
X64.864 Y10.356
X64.503 Y10.101
X64.424 Y10.049
X64.033 Y9.807
X63.975 Y9.773
X63.552 Y9.534
X63.514 Y9.514
X63.055 Y9.272
X63.034 Y9.261
X62.539 Y9.009
X62.531 Y9.006
X62.269 Y8.874
X62.268
X61.997 Y8.737
X61.716 Y8.597
X61.427 Y8.452
X61.13 Y8.301
X60.823 Y8.146
X60.507 Y7.984
X60.181 Y7.817
X59.847 Y7.643
X59.503 Y7.464
X59.15 Y7.279
X58.789 Y7.088
X58.039 Y6.69
X57.257 Y6.272
X56.446 Y5.838
X56.445 Y5.837
X55.609 Y5.391
X55.606 Y5.389
X54.747 Y4.933
X54.742 Y4.93
X53.865 Y4.469
X53.856 Y4.464
X52.964 Y4.002
X52.953 Y3.996
X52.047 Y3.536
X52.033 Y3.529
X51.118 Y3.075
X51.101 Y3.067
X50.179 Y2.623
X50.159 Y2.613
X49.233 Y2.184
X49.209 Y2.173
X48.282 Y1.761
X48.254 Y1.749
X47.329 Y1.36
X47.296 Y1.346
X46.375 Y0.983
X46.337 Y0.969
X45.423 Y0.635
X45.379 Y0.62
X44.475 Y0.319
X44.425 Y0.303
X43.531 Y0.038
X43.49 Y0.026
X43.048 Y-0.092
X43.019 Y-0.1
X42.58 Y-0.208
X42.549 Y-0.215
X42.114 Y-0.314
X42.082 Y-0.321
X41.65 Y-0.409
X41.616 Y-0.416
X41.188 Y-0.494
X41.153 Y-0.5
X40.729 Y-0.568
G2 X40.228 Y-0.568 I-0.25 J1.568
G1 X39.803 Y-0.5
X39.769 Y-0.494
X39.34 Y-0.416
X39.307 Y-0.409
X38.875 Y-0.321
X38.843 Y-0.314
X38.407 Y-0.215
X38.376 Y-0.208
X37.937 Y-0.1
X37.908 Y-0.092
X37.466 Y0.026
X37.425 Y0.038
X36.531 Y0.303
X36.482 Y0.319
X35.577 Y0.62
X35.533 Y0.635
X34.619 Y0.969
X34.581 Y0.983
X33.661 Y1.346
X33.628 Y1.36
X32.703 Y1.749
X32.674 Y1.761
X31.748 Y2.173
X31.724 Y2.184
X30.798 Y2.613
X30.777 Y2.623
X29.855 Y3.067
X29.838 Y3.075
X28.923 Y3.529
X28.909 Y3.536
X28.004 Y3.996
X27.993 Y4.002
X27.1 Y4.465
X27.092 Y4.469
X26.215 Y4.93
X26.209 Y4.933
X25.351 Y5.389
X25.347 Y5.391
X24.511 Y5.837
X24.51 Y5.838
X23.699 Y6.272
X22.917 Y6.69
X22.167 Y7.088
X21.806 Y7.279
X21.454 Y7.464
X21.11 Y7.643
X20.775 Y7.817
X20.45 Y7.984
X20.134 Y8.146
X19.827 Y8.301
X19.529 Y8.452
X19.24 Y8.597
X18.96 Y8.737
X18.688 Y8.874
X18.425 Y9.005
X18.417 Y9.009
X17.922 Y9.261
X17.901 Y9.272
X17.443 Y9.514
X17.405 Y9.534
X16.981 Y9.773
X16.923 Y9.807
X16.532 Y10.049
X16.453 Y10.101
X16.092 Y10.356
X15.997 Y10.429
X15.663 Y10.705
X15.586 Y10.772
X15.428 Y10.921
X15.376 Y10.972
X15.223 Y11.13
X15.173 Y11.183
X15.025 Y11.351
X14.978 Y11.407
X14.834 Y11.585
X14.791 Y11.641
X14.651 Y11.831
X14.612 Y11.888
X14.476 Y12.091
X14.441 Y12.146
X14.308 Y12.363
X14.278 Y12.414
X14.148 Y12.646
X14.122 Y12.695
X13.994 Y12.942
X13.971 Y12.988
X13.846 Y13.252
X13.827 Y13.293
X13.704 Y13.574
X13.687 Y13.612
X13.565 Y13.912
X13.551 Y13.946
X13.429 Y14.264
X13.418 Y14.295
X13.297 Y14.632
X13.287 Y14.66
X13.166 Y15.017
X13.158 Y15.042
X13.037 Y15.42
X13.03 Y15.442
X12.909 Y15.841
X12.903 Y15.86
X12.781 Y16.281
X12.776 Y16.297
X12.652 Y16.74
X12.648 Y16.755
X12.524 Y17.219
X12.52 Y17.232
X12.394 Y17.719
X12.391 Y17.731
X12.263 Y18.241
X12.26 Y18.251
X12.131 Y18.783
X12.128 Y18.792
X11.997 Y19.347
X11.995 Y19.355
X11.86 Y19.933
X11.859 Y19.94
X11.722 Y20.541
X11.721 Y20.547
X11.582 Y21.171
X11.58 Y21.176
X11.439 Y21.822
X11.438 Y21.827
X11.293 Y22.495
X11.292 Y22.499
X11.145 Y23.189
X11.144 Y23.193
X10.994 Y23.905
Y23.908
X10.841 Y24.642
X10.84 Y24.645
X10.684 Y25.399
Y25.402
X10.525 Y26.177
Y26.179
X10.363 Y26.974
Y26.977
X10.198 Y27.792
Y27.793
X10.03 Y28.628
Y28.629
X9.86 Y29.482
Y29.483
X9.687 Y30.354
X9.686 Y30.356
X9.511 Y31.244
X9.332 Y32.151
Y32.152
X9.151 Y33.073
X8.967 Y34.011
X8.781 Y34.964
X8.592 Y35.931
X8.401 Y36.912
X8.208 Y37.906
X8.012 Y38.911
X7.815 Y39.928
X7.616 Y40.955
X7.213 Y43.038
X6.803 Y45.153
X6.39 Y47.295
X5.973 Y49.455
X5.554 Y51.628
X4.717 Y55.984
Y55.985
X4.303 Y58.152
X4.302 Y58.154
X3.893 Y60.305
X3.892 Y60.307
X3.489 Y62.435
Y62.437
X3.094 Y64.536
Y64.538
X2.9 Y65.575
Y65.576
X2.709 Y66.602
Y66.604
X2.521 Y67.62
Y67.621
X2.337 Y68.626
X2.336 Y68.628
X2.156 Y69.62
X2.155 Y69.622
X1.978 Y70.601
Y70.604
X1.805 Y71.569
X1.804 Y71.572
X1.635 Y72.523
Y72.526
X1.47 Y73.462
Y73.465
X1.31 Y74.385
Y74.389
X1.155 Y75.293
X1.154 Y75.297
X1.005 Y76.184
X1.004 Y76.188
X0.86 Y77.058
X0.859 Y77.063
X0.721 Y77.914
X0.72 Y77.92
X0.587 Y78.753
X0.586 Y78.758
X0.46 Y79.573
X0.459 Y79.579
X0.338 Y80.373
X0.337 Y80.38
G3 X-0.023 Y80.648 I-0.314 J-0.046
G1 X-0.337 Y80.602
X-0.407 Y80.592 Z-0.992
X-0.473 Y80.582 Z-0.969
X-0.533 Y80.573 Z-0.931
X-0.583 Y80.566 Z-0.88
X-0.62 Y80.56 Z-0.82
X-0.643 Y80.557 Z-0.753
X-0.651 Y80.556 Z-0.683
G0 Z5
X291.515 Y19.608
G1 Z1 F333.3
Z-0.683
X291.507 Y19.606 Z-0.753 F381
X291.484 Y19.603 Z-0.82
X291.446 Y19.597 Z-0.88
X291.396 Y19.59 Z-0.931
X291.337 Y19.581 Z-0.969
X291.27 Y19.572 Z-0.992
X291.201 Y19.561 Z-1
X290.886 Y19.515
G3 X290.619 Y19.155 I0.046 J-0.314
G1 X290.733 Y18.38
X290.734 Y18.372
X290.841 Y17.618
X290.842 Y17.609
X290.942 Y16.876
X290.943 Y16.867
X291.036 Y16.154
X291.037 Y16.144
X291.123 Y15.453
X291.125 Y15.441
X291.203 Y14.771
X291.204 Y14.758
X291.274 Y14.11
X291.276 Y14.095
X291.338 Y13.469
X291.339 Y13.454
X291.393 Y12.85
X291.395 Y12.834
X291.441 Y12.251
X291.442 Y12.231
X291.479 Y11.671
X291.48 Y11.652
X291.509 Y11.113
X291.51 Y11.089
X291.53 Y10.573
X291.531 Y10.544
X291.541 Y10.05
Y10.024
X291.543 Y9.552
Y9.517
X291.535 Y9.066
X291.534 Y9.031
X291.517 Y8.601
X291.515 Y8.559
X291.488 Y8.15
X291.485 Y8.108
X291.449 Y7.719
X291.443 Y7.669
X291.397 Y7.3
X291.389 Y7.241
X291.332 Y6.891
X291.322 Y6.836
X291.256 Y6.505
X291.242 Y6.441
X291.166 Y6.128
X291.147 Y6.059
X291.061 Y5.764
X291.036 Y5.686
X290.939 Y5.407
X290.91 Y5.33
X290.803 Y5.068
X290.767 Y4.987
X290.65 Y4.741
X290.605 Y4.654
X290.478 Y4.423
X290.429 Y4.34
X290.291 Y4.123
X290.233 Y4.037
X290.084 Y3.833
X290.023 Y3.755
X289.864 Y3.563
X289.799 Y3.49
X289.63 Y3.31
X289.556 Y3.236
X289.375 Y3.067
X289.306 Y3.006
X289.115 Y2.847
X289.045 Y2.793
X288.844 Y2.644
X288.77 Y2.593
X288.557 Y2.453
X288.491 Y2.412
X288.268 Y2.281
X288.205 Y2.246
X287.972 Y2.123
X287.911 Y2.092
X287.667 Y1.977
X287.609 Y1.951
X287.354 Y1.842
X287.301 Y1.821
X287.035 Y1.718
X286.988 Y1.701
X286.712 Y1.605
X286.668 Y1.59
X286.381 Y1.5
X286.34 Y1.487
X286.042 Y1.402
X286.006 Y1.392
X285.698 Y1.312
X285.664 Y1.304
X285.345 Y1.228
X285.315 Y1.221
X284.985 Y1.149
X284.958 Y1.143
X284.618 Y1.076
X284.594 Y1.071
X284.244 Y1.007
X284.222 Y1.003
X283.861 Y0.942
X283.84 Y0.939
X283.468 Y0.881
X283.451 Y0.878
X283.069 Y0.824
X283.052 Y0.821
X282.659 Y0.769
X282.645 Y0.767
X282.241 Y0.718
X282.228 Y0.716
X281.815 Y0.668
X281.803 Y0.667
X281.379 Y0.622
X281.369 Y0.621
X280.935 Y0.577
X280.925 Y0.576
X280.481 Y0.534
X280.472 Y0.533
X280.017 Y0.493
X280.01 Y0.492
X279.545 Y0.453
X279.538
X279.064 Y0.415
X279.058 Y0.414
X278.573 Y0.378
X278.567 Y0.377
X278.072 Y0.341
X278.065
X277.045 Y0.272
X277.037 Y0.271
X275.978 Y0.205
X275.971
X274.872 Y0.141
X274.867
X273.73 Y0.079
X273.725 Y0.078
X272.549 Y0.018
X272.544
X271.331 Y-0.041
X271.327
X270.076 Y-0.099
X270.072
X268.784 Y-0.155
X268.78
X267.455 Y-0.209
X267.45
X266.088 Y-0.261
X266.084
X264.687 Y-0.31
X264.682 Y-0.311
X263.249 Y-0.357
X263.245
X261.776 Y-0.401
X261.771
X260.267 Y-0.44
X260.262 Y-0.441
X258.724 Y-0.476
X258.719
X257.146 Y-0.508
X257.141
X255.533 Y-0.535
X255.528
X253.886 Y-0.558
X253.88
X252.204 Y-0.575
X252.199
X250.489 Y-0.587
X250.467
X248.757 Y-0.575
X248.752
X247.076 Y-0.558
X247.07
X245.428 Y-0.535
X245.423
X243.816 Y-0.508
X243.811
X242.237 Y-0.476
X242.232
X240.694 Y-0.441
X240.689 Y-0.44
X239.185 Y-0.401
X239.18
X237.712 Y-0.357
X237.708
X236.275 Y-0.311
X236.27 Y-0.31
X234.872 Y-0.261
X234.868
X233.507 Y-0.209
X233.502
X232.177 Y-0.155
X232.173
X230.885 Y-0.099
X230.881
X229.629 Y-0.041
X229.625
X228.412 Y0.018
X228.407
X227.231 Y0.078
X227.226 Y0.079
X226.089 Y0.141
X226.084
X224.986 Y0.205
X224.979
X223.919 Y0.271
X223.911 Y0.272
X222.892 Y0.341
X222.885
X222.39 Y0.377
X222.384 Y0.378
X221.899 Y0.414
X221.893 Y0.415
X221.418 Y0.453
X221.411
X220.946 Y0.492
X220.938 Y0.493
X220.484 Y0.533
X220.476 Y0.534
X220.031 Y0.576
X220.021 Y0.577
X219.587 Y0.621
X219.576 Y0.622
X219.153 Y0.667
X219.142 Y0.668
X218.728 Y0.716
X218.715 Y0.718
X218.312 Y0.767
X218.297 Y0.769
X217.905 Y0.821
X217.889 Y0.824
X217.506 Y0.878
X217.487 Y0.881
X217.116 Y0.939
X217.096 Y0.942
X216.735 Y1.003
X216.714 Y1.007
X216.363 Y1.071
X216.338 Y1.076
X215.998 Y1.143
X215.971 Y1.149
X215.641 Y1.221
X215.609 Y1.228
X215.291 Y1.304
X215.26 Y1.312
X214.951 Y1.392
X214.913 Y1.403
X214.616 Y1.488
X214.576 Y1.5
X214.289 Y1.59
X214.246 Y1.604
X213.969 Y1.701
X213.919 Y1.719
X213.654 Y1.821
X213.603 Y1.842
X213.348 Y1.951
X213.29 Y1.977
X213.046 Y2.092
X212.987 Y2.122
X212.753 Y2.245
X212.688 Y2.281
X212.465 Y2.412
X212.396 Y2.455
X212.184 Y2.595
X212.116 Y2.642
X211.914 Y2.791
X211.841 Y2.847
X211.65 Y3.006
X211.578 Y3.07
X211.398 Y3.239
X211.33 Y3.306
X211.16 Y3.486
X211.092 Y3.563
X210.933 Y3.755
X210.872 Y3.833
X210.723 Y4.037
X210.665 Y4.123
X210.527 Y4.34
X210.479 Y4.423
X210.35 Y4.654
X210.306 Y4.741
X210.189 Y4.987
X210.153 Y5.068
X210.046 Y5.33
X210.015 Y5.412
X209.919 Y5.69
X209.897 Y5.759
X209.81 Y6.054
X209.79 Y6.128
X209.714 Y6.441
X209.7 Y6.505
X209.634 Y6.836
X209.623 Y6.896
X209.567 Y7.245
X209.56 Y7.3
X209.514 Y7.669
X209.509 Y7.715
X209.472 Y8.104
X209.468 Y8.15
X209.441 Y8.559
X209.439 Y8.601
X209.422 Y9.031
X209.421 Y9.069
X209.414 Y9.52
X209.413 Y9.548
X209.415 Y10.021
Y10.053
X209.426 Y10.547
X209.427 Y10.57
X209.446 Y11.086
X209.447 Y11.113
X209.476 Y11.652
X209.477 Y11.671
X209.514 Y12.231
X209.515 Y12.251
X209.561 Y12.834
X209.563 Y12.85
X209.617 Y13.454
X209.618 Y13.469
X209.68 Y14.095
X209.682 Y14.112
X209.753 Y14.76
X209.754 Y14.771
X209.832 Y15.441
X209.833 Y15.451
X209.918 Y16.142
X209.92 Y16.154
X210.013 Y16.867
X210.014 Y16.876
X210.114 Y17.609
X210.115 Y17.618
X210.222 Y18.372
X210.223 Y18.38
X210.337 Y19.155
X210.338 Y19.161
X210.458 Y19.955
X210.459 Y19.963
X210.586 Y20.777
X210.587 Y20.781
X210.719 Y21.614
X210.72 Y21.621
X210.859 Y22.473
X210.86 Y22.476
X211.004 Y23.346
X211.005 Y23.351
X211.155 Y24.238
Y24.24
X211.309 Y25.144
X211.31 Y25.15
X211.47 Y26.07
Y26.072
X211.634 Y27.008
X211.635 Y27.012
X211.804 Y27.963
Y27.965
X211.977 Y28.931
X211.978 Y28.933
X212.155 Y29.912
Y29.915
X212.336 Y30.907
X212.337 Y30.91
X212.522 Y31.914
X212.709 Y32.93
Y32.933
X212.9 Y33.959
X213.093 Y34.996
X213.094 Y34.998
X213.489 Y37.097
Y37.099
X213.892 Y39.228
X213.893 Y39.23
X214.303 Y41.381
X214.717 Y43.549
Y43.551
X215.554 Y47.905
X215.973 Y50.079
X216.389 Y52.239
Y52.24
X216.803 Y54.381
X217.212 Y56.496
X217.615 Y58.579
X217.814 Y59.607
X217.815 Y59.608
X218.013 Y60.624
X218.208 Y61.628
X218.401 Y62.622
X218.592 Y63.603
X218.781 Y64.57
X218.967 Y65.522
X219.15 Y66.459
Y66.461
X219.331 Y67.383
X219.332 Y67.385
X219.511 Y68.29
X219.687 Y69.179
X219.86 Y70.051
Y70.052
X220.03 Y70.905
Y70.906
X220.197 Y71.741
X220.198 Y71.744
X220.363 Y72.559
X220.524 Y73.354
X220.525 Y73.358
X220.684 Y74.133
Y74.136
X220.84 Y74.89
X220.841 Y74.893
X220.994 Y75.626
X220.995 Y75.63
X221.145 Y76.341
Y76.345
X221.292 Y77.035
X221.293 Y77.039
X221.437 Y77.707
X221.439 Y77.713
X221.581 Y78.359
X221.582 Y78.364
X221.721 Y78.987
X221.722 Y78.995
X221.859 Y79.595
X221.861 Y79.601
X221.995 Y80.179
X221.997 Y80.187
X222.129 Y80.742
X222.131 Y80.752
X222.261 Y81.284
X222.263 Y81.294
X222.391 Y81.804
X222.394 Y81.815
X222.52 Y82.302
X222.523 Y82.313
X222.647 Y82.778
X222.652 Y82.797
X222.776 Y83.239
X222.78 Y83.253
X222.902 Y83.673
X222.909 Y83.695
X223.031 Y84.094
X223.037 Y84.114
X223.158 Y84.492
X223.166 Y84.517
X223.287 Y84.875
X223.297 Y84.901
X223.418 Y85.239
X223.43 Y85.272
X223.552 Y85.59
X223.564 Y85.62
X223.686 Y85.92
X223.703 Y85.961
X223.827 Y86.242
X223.848 Y86.286
X223.974 Y86.549
X223.994 Y86.59
X224.121 Y86.838
X224.149 Y86.89
X224.279 Y87.121
X224.307 Y87.17
X224.439 Y87.387
X224.476 Y87.445
X224.612 Y87.648
X224.65 Y87.701
X224.789 Y87.891
X224.836 Y87.952
X224.98 Y88.13
X225.025 Y88.184
X225.173 Y88.351
X225.224 Y88.406
X225.377 Y88.563
X225.427 Y88.612
X225.585 Y88.761
X225.664 Y88.83
X225.999 Y89.106
X226.093 Y89.178
X226.454 Y89.433
X226.533 Y89.485
X226.924 Y89.728
X226.981 Y89.762
X227.404 Y90
X227.443 Y90.021
X227.902 Y90.263
X227.922 Y90.273
X228.417 Y90.525
X228.424 Y90.529
X228.686 Y90.66
X228.689 Y90.662
X228.96 Y90.797
X229.239 Y90.937
X229.529 Y91.083
X229.827 Y91.233
X230.133 Y91.389
X230.45 Y91.551
X230.776 Y91.718
X231.11 Y91.892
X231.454 Y92.071
X231.806 Y92.256
X232.167 Y92.446
X232.918 Y92.845
X233.699 Y93.262
X234.509 Y93.696
X234.511 Y93.697
X235.347 Y94.144
X235.35 Y94.146
X236.208 Y94.602
X236.214 Y94.605
X237.091 Y95.066
X237.1 Y95.07
X237.993 Y95.533
X238.004 Y95.538
X238.91 Y95.999
X238.923 Y96.005
X239.838 Y96.459
X239.855 Y96.468
X240.777 Y96.912
X240.798 Y96.921
X241.724 Y97.351
X241.748 Y97.362
X242.675 Y97.773
X242.703 Y97.785
X243.628 Y98.175
X243.661 Y98.188
X244.581 Y98.551
X244.619 Y98.566
X245.533 Y98.9
X245.577 Y98.915
X246.482 Y99.216
X246.531 Y99.231
X247.424 Y99.497
X247.466 Y99.508
X247.909 Y99.627
X247.938 Y99.634
X248.377 Y99.743
X248.407 Y99.75
X248.842 Y99.848
X248.875 Y99.855
X249.307 Y99.944
X249.34 Y99.95
X249.768 Y100.028
X249.803 Y100.034
X250.228 Y100.102
G2 X250.728 Y100.102 I0.25 J-1.568
G1 X251.153 Y100.034
X251.188 Y100.028
X251.616 Y99.95
X251.649 Y99.944
X252.081 Y99.855
X252.113 Y99.849
X252.549 Y99.75
X252.58 Y99.743
X253.019 Y99.634
X253.049 Y99.627
X253.491 Y99.508
X253.531 Y99.497
X254.425 Y99.232
X254.475 Y99.216
X255.379 Y98.915
X255.423 Y98.9
X256.337 Y98.566
X256.375 Y98.552
X257.296 Y98.188
X257.329 Y98.175
X258.254 Y97.785
X258.282 Y97.773
X259.209 Y97.362
X259.233 Y97.351
X260.159 Y96.921
X260.18 Y96.912
X261.102 Y96.468
X261.119 Y96.459
X262.034 Y96.005
X262.048 Y95.998
X262.953 Y95.538
X262.963 Y95.533
X263.856 Y95.07
X263.865 Y95.066
X264.742 Y94.605
X264.748 Y94.602
X265.606 Y94.146
X265.609 Y94.144
X266.445 Y93.697
X267.257 Y93.263
X268.04 Y92.845
X268.789 Y92.447
X269.15 Y92.256
X269.503 Y92.071
X269.846 Y91.892
X270.181 Y91.718
X270.507 Y91.55
X270.823 Y91.389
X271.129 Y91.233
X271.427 Y91.083
X271.716 Y90.938
X271.996 Y90.798
X271.998 Y90.797
X272.269 Y90.661
X272.532 Y90.529
X272.538 Y90.526
X273.034 Y90.274
X273.056 Y90.262
X273.514 Y90.02
X273.551 Y90.001
X273.975 Y89.762
X274.033 Y89.728
X274.424 Y89.485
X274.503 Y89.433
X274.864 Y89.178
X274.96 Y89.105
X275.294 Y88.829
X275.368 Y88.764
X275.527 Y88.615
X275.584 Y88.559
X275.736 Y88.402
X275.783 Y88.351
X275.931 Y88.184
X275.976 Y88.13
X276.12 Y87.952
X276.167 Y87.891
X276.306 Y87.701
X276.344 Y87.648
X276.48 Y87.445
X276.514 Y87.391
X276.647 Y87.174
X276.681 Y87.117
X276.81 Y86.885
X276.833 Y86.842
X276.961 Y86.595
X276.986 Y86.545
X277.111 Y86.281
X277.129 Y86.242
X277.253 Y85.961
X277.268 Y85.924
X277.391 Y85.625
X277.407 Y85.586
X277.528 Y85.268
X277.538 Y85.239
X277.659 Y84.901
X277.669 Y84.875
X277.79 Y84.517
X277.797 Y84.496
X277.919 Y84.118
X277.927 Y84.091
X278.048 Y83.692
X278.054 Y83.673
X278.176 Y83.253
X278.18 Y83.239
X278.304 Y82.797
X278.308 Y82.781
X278.433 Y82.316
X278.437 Y82.302
X278.563 Y81.815
X278.566 Y81.804
X278.694 Y81.294
X278.697 Y81.281
X278.826 Y80.749
X278.827 Y80.742
X278.959 Y80.187
X278.961 Y80.181
X279.096 Y79.603
X279.098 Y79.593
X279.234 Y78.992
X279.235 Y78.987
X279.374 Y78.364
X279.375 Y78.359
X279.517 Y77.713
X279.519 Y77.707
X279.663 Y77.039
Y77.037
X279.811 Y76.347
X279.812 Y76.341
X279.962 Y75.63
X279.963 Y75.626
X280.116 Y74.893
X280.117 Y74.888
X280.272 Y74.134
X280.431 Y73.358
X280.432 Y73.356
X280.594 Y72.561
Y72.557
X280.758 Y71.742
X280.759 Y71.741
X280.926 Y70.907
X281.097 Y70.054
Y70.051
X281.27 Y69.18
X281.271 Y69.178
X281.445 Y68.29
X281.624 Y67.385
X281.625 Y67.383
X281.806 Y66.461
X281.99 Y65.524
Y65.522
X282.176 Y64.57
Y64.569
X282.364 Y63.602
X282.555 Y62.623
X282.748 Y61.629
X282.944 Y60.625
Y60.623
X283.142 Y59.607
X283.341 Y58.58
X283.744 Y56.497
X284.153 Y54.381
X284.567 Y52.24
X284.984 Y50.079
X285.403 Y47.906
Y47.905
X286.239 Y43.551
X286.654 Y41.383
X286.655 Y41.38
X287.064 Y39.229
Y39.228
X287.467 Y37.099
Y37.097
X287.862 Y34.998
X287.863 Y34.996
X288.056 Y33.959
X288.247 Y32.933
Y32.931
X288.435 Y31.915
X288.436 Y31.912
X288.62 Y30.908
Y30.907
X288.801 Y29.915
Y29.912
X288.978 Y28.933
X288.979 Y28.931
X289.152 Y27.965
Y27.963
X289.321 Y27.012
X289.322 Y27.008
X289.486 Y26.072
Y26.07
X289.646 Y25.15
X289.647 Y25.146
X289.802 Y24.242
X289.803 Y24.237
X289.952 Y23.35
Y23.346
X290.096 Y22.476
X290.097 Y22.473
X290.236 Y21.621
X290.237 Y21.616
X290.37 Y20.782
X290.371 Y20.775
X290.497 Y19.961
X290.498 Y19.955
X290.618 Y19.161
X290.619 Y19.155
G3 X290.979 Y18.887 I0.314 J0.046
G1 X291.293 Y18.933
X291.363 Y18.943 Z-0.992
X291.429 Y18.953 Z-0.969
X291.489 Y18.962 Z-0.931
X291.539 Y18.969 Z-0.88
X291.576 Y18.975 Z-0.82
X291.599 Y18.978 Z-0.753
X291.607 Y18.979 Z-0.683
G0 Z15
M5
M30
